;FLAVOR:Marlin
;TIME:745
;Filament used: 0.457945m
;Layer height: 0.2
;MINX:29
;MINY:29
;MINZ:0.2
;MAXX:231
;MAXY:231
;MAXZ:0.2
;Generated with Cura_SteamEngine 4.13.1
M140 S50
M105
M190 S50
M104 S220
M105
M109 S220
M82 ;absolute extrusion mode

G28 ;Home

G92 E0 ;Reset Extruder
G1 Z2.0 F3000 ;Move Z Axis up
G1 X10.1 Y20 Z0.28 F5000.0 ;Move to start position
G1 X10.1 Y200.0 Z0.28 F1500.0 E15 ;Draw the first line
G1 X10.4 Y200.0 Z0.28 F5000.0 ;Move to side a little
G1 X10.4 Y20 Z0.28 F1500.0 E30 ;Draw the second line
G92 E0 ;Reset Extruder
G1 Z2.0 F3000 ;Move Z Axis up

G92 E0
G92 E0
G1 F1500 E-10
;LAYER_COUNT:1
;LAYER:0
M107
G0 F6000 X32.198 Y32.264 Z0.2
;TYPE:SKIRT
G1 F1500 E0
G1 F1200 X32.886 Y31.627 E0.03119
G1 X33.626 Y31.051 E0.06237
G1 X34.412 Y30.539 E0.09357
G1 X35.239 Y30.097 E0.12476
G1 X36.101 Y29.727 E0.15596
G1 X36.991 Y29.431 E0.18716
G1 X37.903 Y29.213 E0.21835
G1 X38.83 Y29.072 E0.24953
G1 X39.701 Y29.013 E0.27857
G1 X40.022 Y29.004 E0.28925
G1 X40.33 Y29 E0.29949
G1 X69.293 Y29 E1.26281
G1 X70.17 Y29.012 E1.29198
G1 X71.106 Y29.067 E1.32316
G1 X72.034 Y29.201 E1.35435
G1 X72.948 Y29.414 E1.38556
G1 X73.84 Y29.704 E1.41676
G1 X74.704 Y30.068 E1.44794
G1 X75.533 Y30.505 E1.47911
G1 X76.534 Y31.163 E1.51896
G1 X77.073 Y31.561 E1.54124
G1 X79.154 Y33.055 E1.62644
G1 X81.223 Y34.452 E1.70948
G1 X83.39 Y35.827 E1.79484
G1 X85.496 Y37.081 E1.87636
G1 X87.746 Y38.339 E1.9621
G1 X89.946 Y39.486 E2.04462
G1 X92.241 Y40.602 E2.1295
G1 X94.518 Y41.63 E2.21259
G1 X96.839 Y42.6 E2.29626
G1 X99.206 Y43.513 E2.38064
G1 X101.565 Y44.344 E2.46382
G1 X103.95 Y45.11 E2.54714
G1 X106.376 Y45.816 E2.63118
G1 X108.803 Y46.447 E2.71458
G1 X111.281 Y47.017 E2.79915
G1 X113.751 Y47.514 E2.88295
G1 X116.204 Y47.932 E2.96572
G1 X118.703 Y48.288 E3.04967
G1 X121.196 Y48.571 E3.13312
G1 X123.742 Y48.787 E3.21811
G1 X126.201 Y48.927 E3.30003
G1 X128.759 Y48.999 E3.38514
G1 X131.247 Y48.999 E3.46789
G1 X133.806 Y48.927 E3.55304
G1 X136.289 Y48.786 E3.63576
G1 X138.782 Y48.574 E3.71897
G1 X141.303 Y48.287 E3.80336
G1 X143.785 Y47.934 E3.88674
G1 X146.3 Y47.503 E3.97161
G1 X148.693 Y47.024 E4.05278
G1 X151.222 Y46.441 E4.1391
G1 X153.599 Y45.822 E4.2208
G1 X156.039 Y45.113 E4.30531
G1 X158.468 Y44.331 E4.39018
G1 X160.81 Y43.504 E4.47279
G1 X163.14 Y42.606 E4.55585
G1 X165.485 Y41.626 E4.64038
G1 X167.776 Y40.592 E4.72398
G1 X170.059 Y39.482 E4.80841
G1 X172.267 Y38.33 E4.89124
G1 X174.501 Y37.083 E4.97634
G1 X176.611 Y35.825 E5.05804
G1 X178.776 Y34.451 E5.14333
G1 X180.839 Y33.058 E5.22612
G1 X182.934 Y31.555 E5.31188
G1 X183.171 Y31.377 E5.32174
G1 X183.378 Y31.225 E5.33028
G1 X183.603 Y31.064 E5.33948
G1 X184.388 Y30.552 E5.37065
G1 X185.214 Y30.108 E5.40184
G1 X186.075 Y29.736 E5.43304
G1 X186.965 Y29.438 E5.46426
G1 X187.876 Y29.218 E5.49543
G1 X188.803 Y29.076 E5.52662
G1 X189.667 Y29.015 E5.55543
G1 X189.993 Y29.005 E5.56628
G1 X190.33 Y29 E5.57749
G1 X219.435 Y29.001 E6.54552
G1 X220.133 Y29.01 E6.56874
G1 X221.069 Y29.062 E6.59992
G1 X221.998 Y29.194 E6.63113
G1 X222.912 Y29.404 E6.66232
G1 X223.805 Y29.691 E6.69352
G1 X224.67 Y30.054 E6.72472
G1 X225.501 Y30.488 E6.7559
G1 X226.292 Y30.992 E6.78709
G1 X227.037 Y31.562 E6.81829
G1 X227.731 Y32.193 E6.84949
G1 X228.368 Y32.88 E6.88065
G1 X228.945 Y33.62 E6.91186
G1 X229.457 Y34.406 E6.94306
G1 X229.9 Y35.233 E6.97427
G1 X230.271 Y36.094 E7.00545
G1 X230.567 Y36.984 E7.03664
G1 X230.786 Y37.896 E7.06784
G1 X230.927 Y38.823 E7.09903
G1 X230.987 Y39.701 E7.1283
G1 X230.996 Y40.022 E7.13898
G1 X231 Y40.33 E7.14922
G1 X230.999 Y69.426 E8.11696
G1 X230.989 Y70.149 E8.14101
G1 X230.936 Y71.086 E8.17222
G1 X230.804 Y72.014 E8.2034
G1 X230.592 Y72.928 E8.23461
G1 X230.304 Y73.82 E8.26578
G1 X229.941 Y74.685 E8.29698
G1 X229.506 Y75.516 E8.32818
G1 X228.836 Y76.535 E8.36874
G1 X228.456 Y77.05 E8.39003
G1 X226.94 Y79.162 E8.4765
G1 X225.542 Y81.232 E8.55958
G1 X224.183 Y83.373 E8.64392
G1 X222.915 Y85.502 E8.72634
G1 X221.661 Y87.746 E8.81184
G1 X220.514 Y89.946 E8.89436
G1 X219.398 Y92.241 E8.97924
G1 X218.37 Y94.518 E9.06233
G1 X217.4 Y96.839 E9.146
G1 X216.487 Y99.206 E9.23038
G1 X215.656 Y101.565 E9.31356
G1 X214.89 Y103.95 E9.39688
G1 X214.184 Y106.376 E9.48092
G1 X213.553 Y108.803 E9.56432
G1 X212.983 Y111.281 E9.64889
G1 X212.486 Y113.751 E9.73269
G1 X212.068 Y116.204 E9.81546
G1 X211.712 Y118.703 E9.89941
G1 X211.429 Y121.196 E9.98286
G1 X211.213 Y123.742 E10.06785
G1 X211.073 Y126.201 E10.14977
G1 X211.001 Y128.759 E10.23488
G1 X211.001 Y131.247 E10.31763
G1 X211.073 Y133.805 E10.40274
G1 X211.214 Y136.29 E10.48553
G1 X211.426 Y138.782 E10.56871
G1 X211.713 Y141.303 E10.6531
G1 X212.066 Y143.785 E10.73648
G1 X212.497 Y146.3 E10.82135
G1 X212.976 Y148.693 E10.90252
G1 X213.559 Y151.222 E10.98884
G1 X214.178 Y153.599 E11.07054
G1 X214.887 Y156.039 E11.15505
G1 X215.669 Y158.468 E11.23992
G1 X216.496 Y160.81 E11.32253
G1 X217.394 Y163.14 E11.40559
G1 X218.374 Y165.485 E11.49012
G1 X219.408 Y167.776 E11.57372
G1 X220.519 Y170.062 E11.65825
G1 X221.666 Y172.261 E11.74075
G1 X222.919 Y174.504 E11.8262
G1 X224.175 Y176.611 E11.90778
G1 X225.56 Y178.793 E11.99374
G1 X226.946 Y180.845 E12.0761
G1 X228.424 Y182.906 E12.16046
G1 X228.622 Y183.17 E12.17143
G1 X228.776 Y183.38 E12.18009
G1 X228.941 Y183.611 E12.18954
G1 X229.453 Y184.397 E12.22074
G1 X229.896 Y185.224 E12.25194
G1 X230.268 Y186.085 E12.28313
G1 X230.564 Y186.975 E12.31433
G1 X230.784 Y187.886 E12.3455
G1 X230.925 Y188.814 E12.37672
G1 X230.985 Y189.667 E12.40516
G1 X230.995 Y189.992 E12.41598
G1 X231 Y190.33 E12.42722
G1 X230.999 Y219.415 E13.39459
G1 X230.989 Y220.142 E13.41877
G1 X230.936 Y221.079 E13.44999
G1 X230.804 Y222.007 E13.48116
G1 X230.593 Y222.921 E13.51236
G1 X230.304 Y223.813 E13.54355
G1 X229.941 Y224.678 E13.57475
G1 X229.506 Y225.509 E13.60595
G1 X229.001 Y226.299 E13.63713
G1 X228.431 Y227.044 E13.66833
G1 X227.8 Y227.738 E13.69953
G1 X227.111 Y228.375 E13.73074
G1 X226.371 Y228.951 E13.76193
G1 X225.585 Y229.462 E13.79311
G1 X224.758 Y229.904 E13.8243
G1 X223.896 Y230.274 E13.8555
G1 X223.006 Y230.569 E13.88668
G1 X222.094 Y230.788 E13.91788
G1 X221.167 Y230.928 E13.94906
G1 X220.299 Y230.987 E13.978
G1 X219.979 Y230.996 E13.98864
G1 X219.67 Y231 E13.99892
G1 X190.55 Y230.999 E14.96746
G1 X189.848 Y230.989 E14.99081
G1 X188.912 Y230.936 E15.02199
G1 X187.984 Y230.803 E15.05317
G1 X187.07 Y230.591 E15.08438
G1 X186.177 Y230.303 E15.11559
G1 X185.313 Y229.939 E15.14677
G1 X184.482 Y229.503 E15.17798
G1 X183.479 Y228.845 E15.21788
G1 X182.948 Y228.454 E15.23981
G1 X180.829 Y226.933 E15.32657
G1 X178.794 Y225.559 E15.40823
G1 X176.61 Y224.173 E15.49427
G1 X174.498 Y222.915 E15.57603
G1 X172.254 Y221.661 E15.66153
G1 X170.054 Y220.514 E15.74405
G1 X167.759 Y219.398 E15.82893
G1 X165.482 Y218.37 E15.91202
G1 X163.173 Y217.405 E15.99526
G1 X160.799 Y216.491 E16.07986
G1 X158.417 Y215.65 E16.16388
G1 X156.05 Y214.89 E16.24657
G1 X153.624 Y214.184 E16.33061
G1 X151.197 Y213.553 E16.41401
G1 X148.719 Y212.983 E16.49858
G1 X146.249 Y212.486 E16.58238
G1 X143.796 Y212.068 E16.66514
G1 X141.297 Y211.712 E16.7491
G1 X138.804 Y211.429 E16.83255
G1 X136.258 Y211.213 E16.91754
G1 X133.799 Y211.073 E16.99945
G1 X131.241 Y211.001 E17.08457
G1 X128.753 Y211.001 E17.16732
G1 X126.194 Y211.073 E17.25246
G1 X123.711 Y211.214 E17.33518
G1 X121.218 Y211.426 E17.4184
G1 X118.697 Y211.713 E17.50279
G1 X116.215 Y212.066 E17.58617
G1 X113.7 Y212.497 E17.67104
G1 X111.307 Y212.976 E17.75221
G1 X108.778 Y213.559 E17.83853
G1 X106.401 Y214.178 E17.92023
G1 X103.961 Y214.887 E18.00474
G1 X101.532 Y215.669 E18.08961
G1 X99.19 Y216.496 E18.17222
G1 X96.86 Y217.394 E18.25527
G1 X94.515 Y218.374 E18.33981
G1 X92.224 Y219.408 E18.42341
G1 X89.941 Y220.518 E18.50784
G1 X87.733 Y221.67 E18.59067
G1 X85.499 Y222.917 E18.67577
G1 X83.389 Y224.175 E18.75747
G1 X81.224 Y225.549 E18.84276
G1 X79.161 Y226.942 E18.92555
G1 X77.064 Y228.446 E19.01138
G1 X76.83 Y228.622 E19.02112
G1 X76.638 Y228.763 E19.02904
G1 X76.408 Y228.928 E19.03846
G1 X75.623 Y229.442 E19.06967
G1 X74.798 Y229.887 E19.10084
G1 X73.937 Y230.26 E19.13205
G1 X73.048 Y230.558 E19.16324
G1 X72.137 Y230.78 E19.19442
G1 X71.21 Y230.923 E19.22562
G1 X70.333 Y230.985 E19.25486
G1 X70.007 Y230.995 E19.26571
G1 X69.67 Y231 E19.27692
G1 X40.565 Y230.999 E20.24496
G1 X39.867 Y230.99 E20.26817
G1 X38.931 Y230.938 E20.29935
G1 X38.002 Y230.806 E20.33056
G1 X37.088 Y230.596 E20.36175
G1 X36.195 Y230.309 E20.39295
G1 X35.33 Y229.946 E20.42415
G1 X34.499 Y229.512 E20.45533
G1 X33.708 Y229.008 E20.48653
G1 X32.963 Y228.438 E20.51773
G1 X32.269 Y227.807 E20.54893
G1 X31.632 Y227.12 E20.58009
G1 X31.055 Y226.38 E20.6113
G1 X30.543 Y225.594 E20.6425
G1 X30.1 Y224.767 E20.6737
G1 X29.729 Y223.906 E20.70488
G1 X29.433 Y223.016 E20.73608
G1 X29.214 Y222.104 E20.76727
G1 X29.073 Y221.177 E20.79846
G1 X29.013 Y220.288 E20.8281
G1 X29.004 Y219.955 E20.83918
G1 X29 Y219.658 E20.84905
G1 X29.001 Y190.535 E21.81769
G1 X29.012 Y189.83 E21.84114
G1 X29.067 Y188.894 E21.87233
G1 X29.201 Y187.966 E21.90351
G1 X29.414 Y187.052 E21.93473
G1 X29.704 Y186.16 E21.96592
G1 X30.068 Y185.296 E21.99711
G1 X30.505 Y184.467 E22.02827
G1 X31.163 Y183.466 E22.06812
G1 X31.561 Y182.927 E22.0904
G1 X33.06 Y180.838 E22.17592
G1 X34.458 Y178.768 E22.259
G1 X35.817 Y176.627 E22.34334
G1 X37.085 Y174.498 E22.42576
G1 X38.339 Y172.254 E22.51126
G1 X39.486 Y170.054 E22.59378
G1 X40.602 Y167.759 E22.67866
G1 X41.63 Y165.482 E22.76175
G1 X42.6 Y163.161 E22.84542
G1 X43.513 Y160.794 E22.9298
G1 X44.344 Y158.435 E23.01299
G1 X45.11 Y156.05 E23.0963
G1 X45.816 Y153.624 E23.18034
G1 X46.447 Y151.197 E23.26374
G1 X47.017 Y148.719 E23.34832
G1 X47.514 Y146.249 E23.43212
G1 X47.932 Y143.796 E23.51488
G1 X48.288 Y141.297 E23.59883
G1 X48.571 Y138.804 E23.68228
G1 X48.787 Y136.258 E23.76727
G1 X48.927 Y133.799 E23.84919
G1 X48.999 Y131.241 E23.9343
G1 X48.999 Y128.753 E24.01705
G1 X48.927 Y126.195 E24.10217
G1 X48.786 Y123.709 E24.18498
G1 X48.574 Y121.221 E24.26803
G1 X48.286 Y118.688 E24.35282
G1 X47.935 Y116.219 E24.43577
G1 X47.503 Y113.7 E24.52078
G1 X47.024 Y111.307 E24.60195
G1 X46.441 Y108.778 E24.68827
G1 X45.822 Y106.401 E24.76996
G1 X45.107 Y103.94 E24.8552
G1 X44.346 Y101.574 E24.93786
G1 X43.496 Y99.168 E25.02274
G1 X42.606 Y96.86 E25.10501
G1 X41.621 Y94.5 E25.19007
G1 X40.598 Y92.235 E25.27273
G1 X39.482 Y89.942 E25.35755
G1 X38.33 Y87.733 E25.44041
G1 X37.083 Y85.499 E25.5255
G1 X35.825 Y83.389 E25.60721
G1 X34.451 Y81.224 E25.69249
G1 X33.058 Y79.161 E25.77529
G1 X31.554 Y77.064 E25.86112
G1 X31.25 Y76.656 E25.87804
G1 X31.085 Y76.427 E25.88743
G1 X30.57 Y75.644 E25.9186
G1 X30.123 Y74.819 E25.94981
G1 X29.748 Y73.959 E25.98101
G1 X29.448 Y73.071 E26.01219
G1 X29.225 Y72.16 E26.04338
G1 X29.08 Y71.234 E26.07456
G1 X29.015 Y70.333 E26.1046
G1 X29.005 Y70.006 E26.11548
G1 X29 Y69.67 E26.12666
G1 X29.001 Y40.525 E27.09603
G1 X29.01 Y39.86 E27.11815
G1 X29.063 Y38.924 E27.14933
G1 X29.195 Y37.995 E27.18054
G1 X29.406 Y37.081 E27.21174
G1 X29.694 Y36.189 E27.24291
G1 X30.057 Y35.324 E27.27411
G1 X30.492 Y34.493 E27.30531
G1 X30.996 Y33.703 E27.33648
G1 X31.566 Y32.958 E27.36768
G1 X31.659 Y32.855 E27.37229
G0 F1080 X32.198 Y32.264
G0 F6000 X32.589 Y32.439
G1 F1200 X33.274 Y31.823 E27.40293
G1 X34.01 Y31.27 E27.43355
G1 X34.791 Y30.782 E27.46418
G1 X35.611 Y30.364 E27.49479
G1 X36.465 Y30.019 E27.52543
G1 X37.345 Y29.749 E27.55604
G1 X38.245 Y29.557 E27.58665
G1 X39.159 Y29.443 E27.61729
G1 X39.712 Y29.413 E27.63571
G1 X40.033 Y29.404 E27.64639
G1 X40.33 Y29.4 E27.65627
G1 X69.293 Y29.4 E28.61958
G1 X70.163 Y29.412 E28.64852
G1 X71.082 Y29.467 E28.67914
G1 X71.993 Y29.6 E28.70976
G1 X72.889 Y29.813 E28.74039
G1 X73.763 Y30.102 E28.77101
G1 X74.609 Y30.466 E28.80164
G1 X75.42 Y30.902 E28.83227
G1 X76.296 Y31.485 E28.86727
G1 X76.807 Y31.863 E28.88841
G1 X78.943 Y33.395 E28.97583
G1 X81.001 Y34.785 E29.05843
G1 X83.136 Y36.14 E29.14254
G1 X85.367 Y37.469 E29.22891
G1 X87.504 Y38.662 E29.31031
G1 X89.793 Y39.856 E29.39618
G1 X92.052 Y40.955 E29.47973
G1 X94.378 Y42.005 E29.56461
G1 X96.677 Y42.966 E29.64749
G1 X99.066 Y43.888 E29.73266
G1 X101.415 Y44.715 E29.81549
G1 X103.854 Y45.498 E29.90069
G1 X106.27 Y46.201 E29.98438
G1 X108.726 Y46.84 E30.06878
G1 X111.184 Y47.406 E30.15268
G1 X113.67 Y47.905 E30.23701
G1 X116.158 Y48.33 E30.32096
G1 X118.668 Y48.688 E30.40529
G1 X121.153 Y48.97 E30.48847
G1 X123.684 Y49.184 E30.57295
G1 X126.203 Y49.327 E30.65687
G1 X128.748 Y49.399 E30.74155
G1 X131.258 Y49.399 E30.82503
G1 X133.804 Y49.327 E30.90975
G1 X136.308 Y49.185 E30.99317
G1 X138.863 Y48.967 E31.07845
G1 X141.338 Y48.687 E31.1613
G1 X143.838 Y48.33 E31.24529
G1 X146.368 Y47.897 E31.33066
G1 X148.797 Y47.411 E31.41305
G1 X151.299 Y46.834 E31.49845
G1 X153.738 Y46.199 E31.58228
G1 X156.145 Y45.499 E31.66565
G1 X158.576 Y44.717 E31.75059
G1 X160.951 Y43.878 E31.83437
G1 X163.302 Y42.972 E31.91817
G1 X165.656 Y41.989 E32.00301
G1 X167.937 Y40.959 E32.08626
G1 X170.212 Y39.852 E32.1704
G1 X172.495 Y38.662 E32.25603
G1 X174.669 Y37.448 E32.33885
G1 X176.851 Y36.146 E32.42336
G1 X178.997 Y34.785 E32.50788
G1 X181.067 Y33.387 E32.59096
G1 X183.153 Y31.891 E32.67634
G1 X183.411 Y31.697 E32.68708
G1 X183.836 Y31.39 E32.70452
G1 X184.607 Y30.887 E32.73513
G1 X185.419 Y30.453 E32.76576
G1 X186.265 Y30.091 E32.79636
G1 X187.14 Y29.804 E32.82699
G1 X188.037 Y29.594 E32.85763
G1 X188.948 Y29.463 E32.88824
G1 X189.679 Y29.415 E32.91261
G1 X190.005 Y29.405 E32.92346
G1 X190.33 Y29.4 E32.93427
G1 X219.43 Y29.401 E33.90214
G1 X220.128 Y29.41 E33.92535
G1 X221.047 Y29.462 E33.95597
G1 X221.958 Y29.593 E33.98658
G1 X222.854 Y29.803 E34.01719
G1 X223.729 Y30.09 E34.04782
G1 X224.576 Y30.452 E34.07845
G1 X225.388 Y30.886 E34.10908
G1 X226.159 Y31.388 E34.13968
G1 X226.884 Y31.956 E34.17031
G1 X227.557 Y32.585 E34.20095
G1 X228.172 Y33.269 E34.23154
G1 X228.726 Y34.004 E34.26215
G1 X229.214 Y34.785 E34.29278
G1 X229.633 Y35.605 E34.32341
G1 X229.979 Y36.458 E34.35403
G1 X230.249 Y37.338 E34.38464
G1 X230.442 Y38.239 E34.41529
G1 X230.556 Y39.152 E34.44589
G1 X230.587 Y39.712 E34.46455
G1 X230.596 Y40.033 E34.47523
G1 X230.6 Y40.33 E34.48511
G1 X230.599 Y69.421 E35.45268
G1 X230.589 Y70.144 E35.47673
G1 X230.536 Y71.063 E35.50734
G1 X230.404 Y71.974 E35.53796
G1 X230.193 Y72.87 E35.56858
G1 X229.905 Y73.745 E35.59922
G1 X229.543 Y74.591 E35.62982
G1 X229.108 Y75.402 E35.66043
G1 X228.514 Y76.298 E35.69619
G1 X228.129 Y76.819 E35.71773
G1 X226.616 Y78.928 E35.80406
G1 X225.206 Y81.015 E35.88783
G1 X223.854 Y83.144 E35.97172
G1 X222.531 Y85.367 E36.05776
G1 X221.338 Y87.504 E36.13916
G1 X220.144 Y89.793 E36.22503
G1 X219.045 Y92.052 E36.30858
G1 X217.995 Y94.378 E36.39346
G1 X217.034 Y96.677 E36.47634
G1 X216.112 Y99.066 E36.56151
G1 X215.285 Y101.415 E36.64434
G1 X214.502 Y103.854 E36.72954
G1 X213.799 Y106.27 E36.81323
G1 X213.16 Y108.726 E36.89763
G1 X212.594 Y111.184 E36.98152
G1 X212.095 Y113.67 E37.06586
G1 X211.67 Y116.158 E37.14981
G1 X211.312 Y118.668 E37.23414
G1 X211.03 Y121.153 E37.31732
G1 X210.816 Y123.684 E37.4018
G1 X210.673 Y126.203 E37.48572
G1 X210.601 Y128.748 E37.5704
G1 X210.601 Y131.258 E37.65388
G1 X210.673 Y133.805 E37.73863
G1 X210.815 Y136.308 E37.82201
G1 X211.033 Y138.863 E37.9073
G1 X211.313 Y141.338 E37.99014
G1 X211.67 Y143.838 E38.07414
G1 X212.103 Y146.368 E38.15951
G1 X212.589 Y148.797 E38.2419
G1 X213.166 Y151.299 E38.3273
G1 X213.801 Y153.738 E38.41113
G1 X214.501 Y156.145 E38.4945
G1 X215.283 Y158.576 E38.57944
G1 X216.122 Y160.951 E38.66321
G1 X217.028 Y163.302 E38.74701
G1 X218.011 Y165.656 E38.83186
G1 X219.041 Y167.937 E38.9151
G1 X220.162 Y170.243 E39.00038
G1 X221.312 Y172.447 E39.08307
G1 X222.56 Y174.683 E39.16824
G1 X223.854 Y176.851 E39.25221
G1 X225.197 Y178.969 E39.33562
G1 X226.634 Y181.096 E39.421
G1 X228.092 Y183.13 E39.50424
G1 X228.302 Y183.41 E39.51588
G1 X228.451 Y183.613 E39.52425
G1 X228.616 Y183.844 E39.5337
G1 X229.118 Y184.616 E39.56432
G1 X229.551 Y185.428 E39.59493
G1 X229.912 Y186.275 E39.62555
G1 X230.198 Y187.15 E39.65617
G1 X230.407 Y188.046 E39.68677
