;FLAVOR:Marlin
;TIME:1724
;Filament used: 1.10998m
;Layer height: 0.2
;MINX:109
;MINY:109
;MINZ:0.2
;MAXX:151
;MAXY:151
;MAXZ:20
;Generated with Cura_SteamEngine 5.0.0
M140 S50
M105
M190 S50
M104 S220
M105
M109 S220
M82 ;absolute extrusion mode

G28 ;Home

G92 E0 ;Reset Extruder
G1 Z2.0 F3000 ;Move Z Axis up
G1 X10.1 Y20 Z0.28 F5000.0 ;Move to start position
G1 X10.1 Y200.0 Z0.28 F1500.0 E15 ;Draw the first line
G1 X10.4 Y200.0 Z0.28 F5000.0 ;Move to side a little
G1 X10.4 Y20 Z0.28 F1500.0 E30 ;Draw the second line
G92 E0 ;Reset Extruder
G1 Z2.0 F3000 ;Move Z Axis up

G92 E0
G92 E0
G1 F1500 E-10
;LAYER_COUNT:100
;LAYER:0
M107
G0 F6000 X112.198 Y112.264 Z0.2
G0 X109.001 Y120.525
;TYPE:SKIRT
G1 F1500 E0
G1 F1200 X109.01 Y119.86 E0.02212
G1 X109.063 Y118.924 E0.0533
G1 X109.195 Y117.995 E0.08451
G1 X109.406 Y117.081 E0.11571
G1 X109.694 Y116.189 E0.14689
G1 X110.057 Y115.324 E0.17809
G1 X110.492 Y114.493 E0.20928
G1 X110.996 Y113.703 E0.24045
G1 X111.566 Y112.958 E0.27165
G1 X112.198 Y112.264 E0.30287
G1 X112.886 Y111.627 E0.33405
G1 X113.626 Y111.051 E0.36524
G1 X114.412 Y110.539 E0.39644
G1 X115.239 Y110.097 E0.42763
G1 X116.101 Y109.727 E0.45883
G1 X116.991 Y109.431 E0.49003
G1 X117.903 Y109.213 E0.52122
G1 X118.83 Y109.072 E0.5524
G1 X119.701 Y109.013 E0.58144
G1 X120.33 Y109 E0.60236
G1 X139.293 Y109 E1.23308
G1 X140.149 Y109.011 E1.26155
G1 X141.085 Y109.065 E1.29273
G1 X142.013 Y109.197 E1.32391
G1 X142.927 Y109.409 E1.35511
G1 X143.819 Y109.698 E1.3863
G1 X144.684 Y110.061 E1.4175
G1 X145.514 Y110.497 E1.44868
G1 X146.305 Y111.002 E1.4799
G1 X147.049 Y111.573 E1.51109
G1 X147.742 Y112.205 E1.54229
G1 X148.379 Y112.893 E1.57347
G1 X148.954 Y113.634 E1.60467
G1 X149.465 Y114.42 E1.63585
G1 X149.907 Y115.248 E1.66707
G1 X150.276 Y116.11 E1.69825
G1 X150.571 Y117 E1.72944
G1 X150.789 Y117.912 E1.76063
G1 X150.929 Y118.84 E1.79184
G1 X150.987 Y119.701 E1.82054
G1 X151 Y120.33 E1.84147
G1 X150.999 Y139.4 E2.47574
G1 X150.99 Y140.127 E2.49992
G1 X150.939 Y141.064 E2.53113
G1 X150.807 Y141.992 E2.56231
G1 X150.598 Y142.906 E2.59349
G1 X150.311 Y143.799 E2.62469
G1 X149.949 Y144.665 E2.65591
G1 X149.515 Y145.496 E2.68709
G1 X149.011 Y146.287 E2.71828
G1 X148.442 Y147.032 E2.74946
G1 X147.811 Y147.727 E2.78069
G1 X147.124 Y148.365 E2.81187
G1 X146.385 Y148.942 E2.84305
G1 X145.599 Y149.454 E2.87425
G1 X144.773 Y149.897 E2.90543
G1 X143.911 Y150.269 E2.93665
G1 X143.022 Y150.565 E2.96782
G1 X142.11 Y150.785 E2.99902
G1 X141.183 Y150.926 E3.03021
G1 X140.299 Y150.987 E3.05968
G1 X139.67 Y151 E3.0806
G1 X120.565 Y150.999 E3.71604
G1 X119.867 Y150.99 E3.73926
G1 X118.931 Y150.938 E3.77044
G1 X118.002 Y150.806 E3.80165
G1 X117.088 Y150.596 E3.83284
G1 X116.195 Y150.309 E3.86403
G1 X115.33 Y149.946 E3.89524
G1 X114.499 Y149.512 E3.92642
G1 X113.708 Y149.008 E3.95761
G1 X112.963 Y148.438 E3.98881
G1 X112.269 Y147.807 E4.02001
G1 X111.632 Y147.12 E4.05117
G1 X111.055 Y146.38 E4.08238
G1 X110.543 Y145.594 E4.11358
G1 X110.1 Y144.767 E4.14478
G1 X109.729 Y143.906 E4.17597
G1 X109.433 Y143.016 E4.20716
G1 X109.214 Y142.104 E4.23836
G1 X109.073 Y141.177 E4.26954
G1 X109.013 Y140.288 E4.29918
G1 X109 Y139.658 E4.32014
G1 X109.001 Y121.325 E4.9299
G0 F1080 X109.001 Y120.525
G0 F6000 X109.401 Y120.531
G1 F1200 X109.41 Y119.866 E4.95202
G1 X109.462 Y118.946 E4.98266
G1 X109.594 Y118.035 E5.01328
G1 X109.805 Y117.139 E5.0439
G1 X110.092 Y116.264 E5.07452
G1 X110.455 Y115.418 E5.10514
G1 X110.889 Y114.606 E5.13577
G1 X111.392 Y113.835 E5.16638
G1 X111.961 Y113.111 E5.19701
G1 X112.589 Y112.439 E5.2276
G1 X113.274 Y111.823 E5.25824
G1 X114.01 Y111.27 E5.28886
G1 X114.791 Y110.782 E5.31949
G1 X115.611 Y110.364 E5.35011
G1 X116.465 Y110.019 E5.38074
G1 X117.345 Y109.749 E5.41136
G1 X118.245 Y109.557 E5.44196
G1 X119.159 Y109.443 E5.4726
G1 X119.712 Y109.413 E5.49102
G1 X120.33 Y109.4 E5.51158
G1 X139.293 Y109.4 E6.14229
G1 X140.143 Y109.411 E6.17056
G1 X141.062 Y109.464 E6.20118
G1 X141.973 Y109.597 E6.2318
G1 X142.869 Y109.808 E6.26242
G1 X143.743 Y110.096 E6.29302
G1 X144.59 Y110.459 E6.32367
G1 X145.401 Y110.894 E6.35428
G1 X146.171 Y111.398 E6.38489
G1 X146.895 Y111.967 E6.41552
G1 X147.567 Y112.597 E6.44616
G1 X148.182 Y113.282 E6.47677
G1 X148.735 Y114.018 E6.50739
G1 X149.222 Y114.799 E6.53801
G1 X149.639 Y115.62 E6.56863
G1 X149.984 Y116.474 E6.59927
G1 X150.253 Y117.354 E6.62987
G1 X150.445 Y118.255 E6.66051
G1 X150.558 Y119.168 E6.69111
G1 X150.596 Y120.032 E6.71988
G1 X150.599 Y139.395 E7.36389
G1 X150.59 Y140.122 E7.38807
G1 X150.539 Y141.041 E7.41869
G1 X150.408 Y141.953 E7.44933
G1 X150.198 Y142.849 E7.47994
G1 X149.912 Y143.724 E7.51056
G1 X149.551 Y144.571 E7.54118
G1 X149.117 Y145.383 E7.5718
G1 X148.615 Y146.155 E7.60243
G1 X148.047 Y146.88 E7.63307
G1 X147.419 Y147.553 E7.66368
G1 X146.735 Y148.169 E7.6943
G1 X146 Y148.723 E7.72491
G1 X145.22 Y149.212 E7.75553
G1 X144.4 Y149.631 E7.78616
G1 X143.547 Y149.977 E7.81677
G1 X142.667 Y150.248 E7.8474
G1 X141.767 Y150.441 E7.87801
G1 X140.853 Y150.556 E7.90865
G1 X140.288 Y150.587 E7.92747
G1 X139.67 Y150.6 E7.94803
G1 X120.57 Y150.599 E8.5833
G1 X119.872 Y150.59 E8.60652
G1 X118.953 Y150.538 E8.63713
G1 X118.042 Y150.407 E8.66774
G1 X117.146 Y150.197 E8.69835
G1 X116.271 Y149.91 E8.72898
G1 X115.424 Y149.548 E8.75962
G1 X114.612 Y149.114 E8.79024
G1 X113.841 Y148.612 E8.82084
G1 X113.116 Y148.044 E8.85147
G1 X112.443 Y147.415 E8.88211
G1 X111.828 Y146.731 E8.91271
G1 X111.274 Y145.996 E8.94332
G1 X110.786 Y145.215 E8.97395
G1 X110.367 Y144.395 E9.00458
G1 X110.021 Y143.542 E9.03519
G1 X109.751 Y142.662 E9.06581
G1 X109.558 Y141.761 E9.09645
G1 X109.444 Y140.848 E9.12706
G1 X109.413 Y140.277 E9.14608
G1 X109.4 Y139.658 E9.16667
G1 X109.401 Y121.331 E9.77623
G0 F1080 X109.401 Y120.531
G0 F6000 X109.801 Y120.536
G1 F1200 X109.81 Y119.871 E9.79835
G1 X109.862 Y118.969 E9.8284
G1 X109.994 Y118.076 E9.85842
G1 X110.204 Y117.198 E9.88845
G1 X110.491 Y116.341 E9.91851
G1 X110.853 Y115.514 E9.94853
G1 X111.286 Y114.722 E9.97856
G1 X111.788 Y113.971 E10.0086
G1 X112.355 Y113.267 E10.03867
G1 X112.981 Y112.617 E10.06868
G1 X113.662 Y112.024 E10.09871
G1 X114.394 Y111.494 E10.12877
G1 X115.169 Y111.031 E10.1588
G1 X115.982 Y110.638 E10.18883
G1 X116.827 Y110.318 E10.21889
G1 X117.696 Y110.075 E10.2489
G1 X118.584 Y109.909 E10.27894
G1 X119.723 Y109.813 E10.31696
G1 X120.33 Y109.8 E10.33715
G1 X139.293 Y109.8 E10.96787
G1 X140.137 Y109.811 E10.99594
G1 X141.039 Y109.864 E11.02599
G1 X141.932 Y109.996 E11.05602
G1 X142.81 Y110.207 E11.08605
G1 X143.666 Y110.495 E11.11609
G1 X144.493 Y110.857 E11.14612
G1 X145.285 Y111.292 E11.17617
G1 X146.036 Y111.794 E11.20621
G1 X146.739 Y112.361 E11.23625
G1 X147.389 Y112.988 E11.26629
G1 X147.981 Y113.67 E11.29633
G1 X148.511 Y114.401 E11.32636
G1 X148.973 Y115.177 E11.3564
G1 X149.366 Y115.99 E11.38643
G1 X149.684 Y116.835 E11.41646
G1 X149.927 Y117.705 E11.4465
G1 X150.092 Y118.593 E11.47655
G1 X150.187 Y119.723 E11.51426
G1 X150.2 Y120.33 E11.53446
G1 X150.199 Y139.39 E12.16839
G1 X150.19 Y140.117 E12.19258
G1 X150.139 Y141.019 E12.22262
G1 X150.008 Y141.913 E12.25268
G1 X149.799 Y142.791 E12.28269
G1 X149.513 Y143.648 E12.31274
G1 X149.152 Y144.476 E12.34279
G1 X148.72 Y145.268 E12.37279
G1 X148.219 Y146.02 E12.40285
G1 X147.653 Y146.724 E12.43289
G1 X147.028 Y147.375 E12.46291
G1 X146.347 Y147.969 E12.49296
G1 X145.616 Y148.5 E12.52301
G1 X144.842 Y148.964 E12.55303
G1 X144.029 Y149.358 E12.58308
G1 X143.185 Y149.678 E12.6131
G1 X142.315 Y149.923 E12.64316
G1 X141.428 Y150.089 E12.67317
G1 X140.277 Y150.187 E12.71159
G1 X139.67 Y150.2 E12.73179
G1 X120.575 Y150.199 E13.36689
G1 X119.877 Y150.19 E13.39011
G1 X118.976 Y150.139 E13.42012
G1 X118.082 Y150.007 E13.45018
G1 X117.204 Y149.798 E13.4802
G1 X116.347 Y149.511 E13.51026
G1 X115.52 Y149.15 E13.54027
G1 X114.727 Y148.717 E13.57032
G1 X113.976 Y148.216 E13.60035
G1 X113.272 Y147.65 E13.63039
G1 X112.621 Y147.024 E13.66043
G1 X112.028 Y146.343 E13.69047
G1 X111.498 Y145.612 E13.7205
G1 X111.034 Y144.837 E13.75054
G1 X110.64 Y144.024 E13.78059
G1 X110.32 Y143.18 E13.81061
G1 X110.076 Y142.31 E13.84066
G1 X109.91 Y141.422 E13.87071
G1 X109.813 Y140.267 E13.90926
G1 X109.8 Y139.658 E13.92952
G1 X109.801 Y121.336 E14.53891
G0 F1080 X109.801 Y120.536
G1 F1500 E4.53891
;MESH:xyzCalibration_cube.stl
G0 F6000 X119.335 Y120.536
G0 X120.43 Y120.536
G1 F1500 E14.53891
G0 F6000 X120.2 Y120.2
;TYPE:WALL-OUTER
G1 F1200 X120.2 Y139.8 E15.19081
G1 X139.8 Y139.8 E15.84271
G1 X139.8 Y120.2 E16.49461
G1 X121 Y120.2 E17.1199
G0 F1080 X120.2 Y120.2
G0 F6000 X120.6 Y120.6
;TYPE:WALL-INNER
G1 F1200 X120.6 Y139.4 E17.74519
G1 X139.4 Y139.4 E18.37048
G1 X139.4 Y120.6 E18.99577
G1 X121.4 Y120.6 E19.59445
G0 F1080 X120.6 Y120.6
G0 F6000 X120.96 Y120.96
;TYPE:SKIN
G1 F1200 X120.96 Y139.04 E20.1958
G1 X139.04 Y139.04 E20.79714
G1 X139.04 Y120.96 E21.39848
G1 X121.76 Y120.96 E21.97322
G0 F1080 X120.96 Y120.96
G0 F6000 X120.7 Y120.96
G0 X138.696 Y120.7
G0 X138.696 Y121.159
G1 F1200 X138.839 Y121.303 E21.97997
G0 F6000 X138.839 Y121.869
G1 F1200 X138.13 Y121.159 E22.01334
G0 F6000 X137.564 Y121.159
G1 F1200 X138.839 Y122.434 E22.07331
G0 F6000 X138.839 Y123
G1 F1200 X136.999 Y121.159 E22.15988
G0 F6000 X136.433 Y121.159
G1 F1200 X138.839 Y123.566 E22.27308
G0 F6000 X138.839 Y124.131
G1 F1200 X135.867 Y121.159 E22.41287
G0 F6000 X135.302 Y121.159
G1 F1200 X138.839 Y124.697 E22.57927
G0 F6000 X138.839 Y125.263
G1 F1200 X134.736 Y121.159 E22.77228
G0 F6000 X134.17 Y121.159
G1 F1200 X138.839 Y125.828 E22.9919
G0 F6000 X138.839 Y126.394
G1 F1200 X133.604 Y121.159 E23.23814
G0 F6000 X133.039 Y121.159
G1 F1200 X138.839 Y126.96 E23.51097
G0 F6000 X138.839 Y127.526
G1 F1200 X132.473 Y121.159 E23.81043
G0 F6000 X131.907 Y121.159
G1 F1200 X138.839 Y128.091 E24.13649
G0 F6000 X138.839 Y128.657
G1 F1200 X131.342 Y121.159 E24.48915
G0 F6000 X130.776 Y121.159
G1 F1200 X138.839 Y129.223 E24.86844
G0 F6000 X138.839 Y129.788
G1 F1200 X130.21 Y121.159 E25.27432
G0 F6000 X129.645 Y121.159
G1 F1200 X138.839 Y130.354 E25.7068
G0 F6000 X138.839 Y130.92
G1 F1200 X129.079 Y121.159 E26.1659
G0 F6000 X128.513 Y121.159
G1 F1200 X138.839 Y131.485 E26.65161
G0 F6000 X138.839 Y132.051
G1 F1200 X127.948 Y121.159 E27.16391
G0 F6000 X127.382 Y121.159
G1 F1200 X138.839 Y132.617 E27.70283
G0 F6000 X138.839 Y133.182
G1 F1200 X126.816 Y121.159 E28.26836
G0 F6000 X126.251 Y121.159
G1 F1200 X138.839 Y133.748 E28.86048
G0 F6000 X138.839 Y134.314
G1 F1200 X125.685 Y121.159 E29.47923
G0 F6000 X125.119 Y121.159
G1 F1200 X138.839 Y134.879 E30.12458
G0 F6000 X138.839 Y135.445
G1 F1200 X124.554 Y121.159 E30.79652
G0 F6000 X123.988 Y121.159
G1 F1200 X138.839 Y136.011 E31.49509
G0 F6000 X138.839 Y136.576
G1 F1200 X123.422 Y121.159 E32.22026
G0 F6000 X122.856 Y121.159
G1 F1200 X138.839 Y137.142 E32.97205
G0 F6000 X138.839 Y137.708
G1 F1200 X122.291 Y121.159 E33.75044
G0 F6000 X121.725 Y121.159
G1 F1200 X138.839 Y138.274 E34.55546
G0 F6000 X138.839 Y138.839
G1 F1200 X121.159 Y121.159 E35.38707
G0 F6000 X121.159 Y121.725
G1 F1200 X138.273 Y138.839 E36.19206
G0 F6000 X137.707 Y138.839
G1 F1200 X121.159 Y122.291 E36.97043
G0 F6000 X121.159 Y122.856
G1 F1200 X137.141 Y138.839 E37.72219
G0 F6000 X136.576 Y138.839
G1 F1200 X121.159 Y123.422 E38.44736
G0 F6000 X121.159 Y123.988
G1 F1200 X136.01 Y138.839 E39.14591
G0 F6000 X135.444 Y138.839
G1 F1200 X121.159 Y124.554 E39.81783
G0 F6000 X121.159 Y125.119
G1 F1200 X134.879 Y138.839 E40.46318
G0 F6000 X134.313 Y138.839
G1 F1200 X121.159 Y125.685 E41.0819
G0 F6000 X121.159 Y126.251
G1 F1200 X133.747 Y138.839 E41.674
G0 F6000 X133.182 Y138.839
G1 F1200 X121.159 Y126.816 E42.23953
G0 F6000 X121.159 Y127.382
G1 F1200 X132.616 Y138.839 E42.77843
G0 F6000 X132.05 Y138.839
G1 F1200 X121.159 Y127.948 E43.29071
G0 F6000 X121.159 Y128.513
G1 F1200 X131.485 Y138.839 E43.77641
G0 F6000 X130.919 Y138.839
G1 F1200 X121.159 Y129.079 E44.23549
G0 F6000 X121.159 Y129.645
G1 F1200 X130.353 Y138.839 E44.66795
G0 F6000 X129.788 Y138.839
G1 F1200 X121.159 Y130.21 E45.07383
G0 F6000 X121.159 Y130.776
G1 F1200 X129.222 Y138.839 E45.45309
G0 F6000 X128.656 Y138.839
G1 F1200 X121.159 Y131.342 E45.80573
G0 F6000 X121.159 Y131.907
G1 F1200 X128.09 Y138.839 E46.13176
G0 F6000 X127.525 Y138.839
G1 F1200 X121.159 Y132.473 E46.4312
G0 F6000 X121.159 Y133.039
G1 F1200 X126.959 Y138.839 E46.70401
G0 F6000 X126.393 Y138.839
G1 F1200 X121.159 Y133.604 E46.95023
G0 F6000 X121.159 Y134.17
G1 F1200 X125.828 Y138.839 E47.16985
G0 F6000 X125.262 Y138.839
G1 F1200 X121.159 Y134.736 E47.36284
G0 F6000 X121.159 Y135.302
G1 F1200 X124.696 Y138.839 E47.52921
G0 F6000 X124.131 Y138.839
G1 F1200 X121.159 Y135.867 E47.669
G0 F6000 X121.159 Y136.433
G1 F1200 X123.565 Y138.839 E47.78217
G0 F6000 X122.999 Y138.839
G1 F1200 X121.159 Y136.999 E47.86872
G0 F6000 X121.159 Y137.564
G1 F1200 X122.434 Y138.839 E47.92869
G0 F6000 X121.868 Y138.839
G1 F1200 X121.159 Y138.13 E47.96204
G0 F6000 X121.159 Y138.696
G1 F1200 X121.302 Y138.839 E47.96877
G1 F1500 E37.96877
;MESH:NONMESH
G0 F300 X121.302 Y138.839 Z0.4
G0 F6000 X121.302 Y139.3
G0 X120.772 Y139.228
G0 X120.58 Y120.58
G1 F1500 E47.96877
G0 F6000 X120.2 Y120.2
;TIME_ELAPSED:85.129831
;LAYER:1
M106 S85
;TYPE:WALL-OUTER
;MESH:xyzCalibration_cube.stl
G1 F1500 X120.2 Y139.8 E48.62067
G1 X139.8 Y139.8 E49.27256
G1 X139.8 Y130 E49.59851
G1 X139.8 Y120.2 E49.92446
G1 X121 Y120.2 E50.54975
G0 F1350 X120.2 Y120.2
G0 F5400 X120.6 Y120.6
;TYPE:WALL-INNER
G1 F1500 X120.6 Y139.4 E51.17504
G1 X139.4 Y139.4 E51.80034
G1 X139.4 Y130 E52.11298
G1 X139.4 Y120.6 E52.42563
G1 X121.4 Y120.6 E53.02431
G0 F1350 X120.6 Y120.6
G0 F5400 X120.96 Y120.96
;TYPE:SKIN
G1 F1350 X120.96 Y139.04 E53.62565
G1 X139.04 Y139.04 E54.22699
G1 X139.04 Y130 E54.52767
G1 X139.04 Y120.96 E54.82834
G1 X121.76 Y120.96 E55.40307
G0 F1215 X120.96 Y120.96
G0 F5400 X121.159 Y121.519
G1 F1350 X121.519 Y121.159 E55.42001
G0 F5400 X122.084 Y121.159
G1 F1350 X121.159 Y122.084 E55.46352
G0 F5400 X121.159 Y122.65
G1 F1350 X122.65 Y121.159 E55.53365
G0 F5400 X123.216 Y121.159
G1 F1350 X121.159 Y123.216 E55.6304
G0 F5400 X121.159 Y123.781
G1 F1350 X123.781 Y121.159 E55.75373
G0 F5400 X124.347 Y121.159
G1 F1350 X121.159 Y124.347 E55.90369
G0 F5400 X121.159 Y124.913
G1 F1350 X124.913 Y121.159 E56.08026
G0 F5400 X125.478 Y121.159
G1 F1350 X121.159 Y125.478 E56.28342
G0 F5400 X121.159 Y126.044
G1 F1350 X126.044 Y121.159 E56.51319
G0 F5400 X126.61 Y121.159
G1 F1350 X121.159 Y126.61 E56.76959
G0 F5400 X121.159 Y127.175
G1 F1350 X127.175 Y121.159 E57.05256
G0 F5400 X127.741 Y121.159
G1 F1350 X121.159 Y127.741 E57.36216
G0 F5400 X121.159 Y128.307
G1 F1350 X128.307 Y121.159 E57.69838
G0 F5400 X128.873 Y121.159
G1 F1350 X121.159 Y128.873 E58.06122
G0 F5400 X121.159 Y129.438
G1 F1350 X129.438 Y121.159 E58.45064
G0 F5400 X130.004 Y121.159
G1 F1350 X121.159 Y130.004 E58.86668
G0 F5400 X121.159 Y130.57
G1 F1350 X130.57 Y121.159 E59.30935
G0 F5400 X131.135 Y121.159
G1 F1350 X121.159 Y131.135 E59.77859
G0 F5400 X121.159 Y131.701
G1 F1350 X131.701 Y121.159 E60.27445
G0 F5400 X132.267 Y121.159
G1 F1350 X121.159 Y132.267 E60.79694
G0 F5400 X121.159 Y132.832
G1 F1350 X132.832 Y121.159 E61.346
G0 F5400 X133.398 Y121.159
G1 F1350 X121.159 Y133.398 E61.92169
G0 F5400 X121.159 Y133.964
G1 F1350 X133.964 Y121.159 E62.52399
G0 F5400 X134.529 Y121.159
G1 F1350 X121.159 Y134.529 E63.15288
G0 F5400 X121.159 Y135.095
G1 F1350 X135.095 Y121.159 E63.80838
G0 F5400 X135.661 Y121.159
G1 F1350 X121.159 Y135.661 E64.49051
G0 F5400 X121.159 Y136.226
G1 F1350 X136.226 Y121.159 E65.19922
G0 F5400 X136.792 Y121.159
G1 F1350 X121.159 Y136.792 E65.93455
G0 F5400 X121.159 Y137.358
G1 F1350 X137.358 Y121.159 E66.6965
G0 F5400 X137.924 Y121.159
G1 F1350 X121.159 Y137.924 E67.48507
G0 F5400 X121.159 Y138.489
G1 F1350 X138.489 Y121.159 E68.30022
G0 F5400 X138.839 Y121.376
G1 F1350 X121.375 Y138.839 E69.12165
G0 F5400 X121.941 Y138.839
G1 F1350 X138.839 Y121.941 E69.91648
G0 F5400 X138.839 Y122.507
G1 F1350 X122.506 Y138.839 E70.68471
G0 F5400 X123.072 Y138.839
G1 F1350 X138.839 Y123.073 E71.42632
