;FLAVOR:Marlin
;TIME:4542
;Filament used: 3.07685m
;Layer height: 0.2
;MINX:69
;MINY:102.2
;MINZ:0.2
;MAXX:191
;MAXY:157.8
;MAXZ:7.8
;Generated with Cura_SteamEngine 4.13.1
M140 S50
M105
M190 S50
M104 S220
M105
M109 S220
M82 ;absolute extrusion mode

G28 ;Home

G92 E0 ;Reset Extruder
G1 Z2.0 F3000 ;Move Z Axis up
G1 X10.1 Y20 Z0.28 F5000.0 ;Move to start position
G1 X10.1 Y200.0 Z0.28 F1500.0 E15 ;Draw the first line
G1 X10.4 Y200.0 Z0.28 F5000.0 ;Move to side a little
G1 X10.4 Y20 Z0.28 F1500.0 E30 ;Draw the second line
G92 E0 ;Reset Extruder
G1 Z2.0 F3000 ;Move Z Axis up

G92 E0
G92 E0
G1 F1500 E-10
;LAYER_COUNT:39
;LAYER:0
M107
G0 F6000 X73.626 Y104.251 Z0.2
;TYPE:SKIRT
G1 F1500 E0
G1 F1200 X74.412 Y103.739 E0.0312
G1 X75.239 Y103.297 E0.06239
G1 X76.101 Y102.927 E0.09359
G1 X76.991 Y102.631 E0.12478
G1 X77.903 Y102.413 E0.15597
G1 X78.83 Y102.272 E0.18716
G1 X79.701 Y102.213 E0.21619
G1 X80.022 Y102.204 E0.22687
G1 X80.33 Y102.2 E0.23712
G1 X179.293 Y102.2 E3.52864
G1 X180.149 Y102.211 E3.55712
G1 X181.085 Y102.265 E3.5883
G1 X182.013 Y102.397 E3.61947
G1 X182.927 Y102.609 E3.65068
G1 X183.819 Y102.898 E3.68187
G1 X184.684 Y103.261 E3.71307
G1 X185.514 Y103.697 E3.74425
G1 X186.305 Y104.202 E3.77546
G1 X187.049 Y104.773 E3.80666
G1 X187.742 Y105.405 E3.83785
G1 X188.379 Y106.093 E3.86904
G1 X188.954 Y106.834 E3.90023
G1 X189.465 Y107.62 E3.93142
G1 X189.907 Y108.448 E3.96263
G1 X190.276 Y109.31 E3.99382
G1 X190.571 Y110.2 E4.025
G1 X190.789 Y111.112 E4.05619
G1 X190.929 Y112.04 E4.08741
G1 X190.987 Y112.901 E4.11611
G1 X190.996 Y113.221 E4.12676
G1 X191 Y113.53 E4.13703
G1 X190.999 Y116.935 E4.25029
G1 X190.989 Y117.655 E4.27424
G1 X190.98 Y117.965 E4.28455
G1 X190.958 Y118.49 E4.30203
G1 X190.884 Y121.134 E4.39
G1 X190.884 Y123.658 E4.47395
G1 X190.955 Y126.146 E4.55673
G1 X190.976 Y126.622 E4.57258
G1 X190.995 Y127.286 E4.59468
G1 X191 Y127.601 E4.60515
G1 X190.999 Y132.286 E4.76098
G1 X190.989 Y133.006 E4.78493
G1 X190.98 Y133.316 E4.79524
G1 X190.958 Y133.841 E4.81272
G1 X190.884 Y136.485 E4.90069
G1 X190.884 Y139.009 E4.98464
G1 X190.955 Y141.497 E5.06743
G1 X190.976 Y141.973 E5.08327
G1 X190.995 Y142.637 E5.10537
G1 X191 Y142.952 E5.11585
G1 X190.999 Y146.2 E5.22388
G1 X190.99 Y146.927 E5.24806
G1 X190.939 Y147.864 E5.27927
G1 X190.807 Y148.792 E5.31044
G1 X190.598 Y149.706 E5.34163
G1 X190.311 Y150.599 E5.37283
G1 X189.949 Y151.465 E5.40404
G1 X189.515 Y152.296 E5.43523
G1 X189.011 Y153.087 E5.46642
G1 X188.442 Y153.832 E5.4976
G1 X187.811 Y154.527 E5.52882
G1 X187.124 Y155.165 E5.56001
G1 X186.385 Y155.742 E5.59119
G1 X185.599 Y156.254 E5.62239
G1 X184.773 Y156.697 E5.65356
G1 X183.911 Y157.069 E5.68479
G1 X183.022 Y157.365 E5.71595
G1 X182.11 Y157.585 E5.74716
G1 X181.183 Y157.726 E5.77834
G1 X180.299 Y157.787 E5.80782
G1 X179.978 Y157.796 E5.8185
G1 X179.67 Y157.8 E5.82874
G1 X134.413 Y157.799 E7.334
G1 X133.703 Y157.788 E7.35761
G1 X132.766 Y157.733 E7.38883
G1 X132.165 Y157.656 E7.40898
G1 X131.438 Y157.54 E7.43347
G1 X130.013 Y157.296 E7.48156
G1 X127.521 Y156.94 E7.56528
G1 X125.028 Y156.656 E7.64874
G1 X122.519 Y156.442 E7.73249
G1 X119.988 Y156.298 E7.81681
G1 X117.503 Y156.227 E7.89949
G1 X114.98 Y156.227 E7.98341
G1 X112.456 Y156.298 E8.06739
G1 X109.934 Y156.44 E8.1514
G1 X107.429 Y156.652 E8.23502
G1 X104.913 Y156.938 E8.31924
G1 X102.424 Y157.29 E8.40285
G1 X101.033 Y157.52 E8.44974
G1 X100.387 Y157.631 E8.47154
G1 X99.457 Y157.751 E8.50273
G1 X98.825 Y157.787 E8.52378
G1 X98.506 Y157.796 E8.5344
G1 X98.196 Y157.8 E8.54471
G1 X80.565 Y157.799 E9.13112
G1 X79.867 Y157.79 E9.15434
G1 X78.931 Y157.738 E9.18552
G1 X78.002 Y157.606 E9.21672
G1 X77.088 Y157.396 E9.24792
G1 X76.195 Y157.109 E9.27911
G1 X75.33 Y156.746 E9.31032
G1 X74.499 Y156.312 E9.3415
G1 X73.708 Y155.808 E9.37269
G1 X72.963 Y155.238 E9.40389
G1 X72.269 Y154.607 E9.43509
G1 X71.632 Y153.92 E9.46625
G1 X71.055 Y153.18 E9.49746
G1 X70.543 Y152.394 E9.52866
G1 X70.1 Y151.567 E9.55986
G1 X69.729 Y150.706 E9.59105
G1 X69.433 Y149.816 E9.62224
G1 X69.214 Y148.904 E9.65344
G1 X69.073 Y147.977 E9.68462
G1 X69.013 Y147.088 E9.71426
G1 X69.004 Y146.755 E9.72534
G1 X69 Y146.458 E9.73522
G1 X69.001 Y143.173 E9.84448
G1 X69.011 Y142.467 E9.86796
G1 X69.02 Y142.156 E9.87831
G1 X69.043 Y141.625 E9.89599
G1 X69.116 Y138.996 E9.98346
G1 X69.116 Y136.472 E10.06741
G1 X69.045 Y133.984 E10.1502
G1 X69.024 Y133.508 E10.16604
G1 X69.005 Y132.844 E10.18814
G1 X69 Y132.529 E10.19861
G1 X69.001 Y127.822 E10.35517
G1 X69.011 Y127.116 E10.37865
G1 X69.02 Y126.805 E10.389
G1 X69.043 Y126.274 E10.40668
G1 X69.116 Y123.645 E10.49415
G1 X69.116 Y121.121 E10.5781
G1 X69.045 Y118.633 E10.66089
G1 X69.024 Y118.157 E10.67674
G1 X69.005 Y117.493 E10.69883
G1 X69 Y117.178 E10.70931
G1 X69.001 Y113.725 E10.82415
G1 X69.01 Y113.06 E10.84627
G1 X69.063 Y112.124 E10.87746
G1 X69.195 Y111.195 E10.90867
G1 X69.406 Y110.281 E10.93986
G1 X69.694 Y109.389 E10.97104
G1 X70.057 Y108.524 E11.00224
G1 X70.492 Y107.693 E11.03344
G1 X70.996 Y106.903 E11.06461
G1 X71.566 Y106.158 E11.0958
G1 X72.198 Y105.464 E11.12702
G1 X72.886 Y104.827 E11.15821
G1 X72.995 Y104.742 E11.16281
G0 F1080 X73.626 Y104.251
G0 F6000 X74.01 Y104.47
G1 F1200 X74.791 Y103.982 E11.19344
G1 X75.611 Y103.564 E11.22405
G1 X76.465 Y103.219 E11.25468
G1 X77.345 Y102.949 E11.2853
G1 X78.245 Y102.757 E11.31591
G1 X79.159 Y102.643 E11.34654
G1 X79.712 Y102.613 E11.36496
G1 X80.033 Y102.604 E11.37564
G1 X80.33 Y102.6 E11.38552
G1 X179.293 Y102.6 E14.67704
G1 X180.143 Y102.611 E14.70532
G1 X181.062 Y102.664 E14.73594
G1 X181.973 Y102.797 E14.76656
G1 X182.869 Y103.008 E14.79717
G1 X183.743 Y103.296 E14.82778
G1 X184.59 Y103.659 E14.85843
G1 X185.401 Y104.094 E14.88904
G1 X186.171 Y104.598 E14.91965
G1 X186.895 Y105.167 E14.95027
G1 X187.567 Y105.797 E14.98091
G1 X188.182 Y106.482 E15.01153
G1 X188.735 Y107.218 E15.04215
G1 X189.222 Y107.999 E15.07276
G1 X189.639 Y108.82 E15.10339
G1 X189.984 Y109.674 E15.13402
G1 X190.253 Y110.554 E15.16463
G1 X190.445 Y111.455 E15.19527
G1 X190.558 Y112.368 E15.22587
G1 X190.587 Y112.912 E15.24399
G1 X190.596 Y113.232 E15.25463
G1 X190.6 Y113.53 E15.26455
G1 X190.599 Y116.929 E15.3776
G1 X190.589 Y117.649 E15.40155
G1 X190.581 Y117.948 E15.41149
G1 X190.556 Y118.532 E15.43094
G1 X190.484 Y121.123 E15.51715
G1 X190.484 Y123.635 E15.6007
G1 X190.558 Y126.221 E15.68674
G1 X190.577 Y126.634 E15.70049
G1 X190.596 Y127.298 E15.72259
G1 X190.6 Y127.601 E15.73267
G1 X190.599 Y132.28 E15.88829
G1 X190.589 Y133 E15.91224
G1 X190.581 Y133.299 E15.92219
G1 X190.556 Y133.883 E15.94163
G1 X190.484 Y136.474 E16.02784
G1 X190.484 Y138.986 E16.11139
G1 X190.558 Y141.572 E16.19744
G1 X190.577 Y141.985 E16.21119
G1 X190.596 Y142.649 E16.23328
G1 X190.6 Y142.952 E16.24336
G1 X190.599 Y146.195 E16.35122
G1 X190.59 Y146.922 E16.3754
G1 X190.539 Y147.841 E16.40602
G1 X190.408 Y148.753 E16.43666
G1 X190.198 Y149.649 E16.46727
G1 X189.912 Y150.524 E16.49789
G1 X189.551 Y151.371 E16.52851
G1 X189.117 Y152.183 E16.55913
G1 X188.615 Y152.955 E16.58976
G1 X188.047 Y153.68 E16.62039
G1 X187.419 Y154.353 E16.65101
G1 X186.735 Y154.969 E16.68163
G1 X186 Y155.523 E16.71224
G1 X185.22 Y156.012 E16.74286
G1 X184.4 Y156.431 E16.77349
G1 X183.547 Y156.777 E16.8041
G1 X182.667 Y157.048 E16.83473
G1 X181.767 Y157.241 E16.86534
G1 X180.853 Y157.356 E16.89598
G1 X180.288 Y157.387 E16.9148
G1 X179.967 Y157.396 E16.92548
G1 X179.67 Y157.4 E16.93536
G1 X134.419 Y157.399 E18.44042
G1 X133.709 Y157.388 E18.46403
G1 X132.79 Y157.334 E18.49465
G1 X132.227 Y157.26 E18.51354
G1 X131.505 Y157.146 E18.53785
G1 X130.06 Y156.899 E18.58661
G1 X127.591 Y156.546 E18.66956
G1 X125.071 Y156.259 E18.75392
G1 X122.539 Y156.043 E18.83844
G1 X120.023 Y155.9 E18.92226
G1 X117.48 Y155.827 E19.00687
G1 X114.969 Y155.827 E19.09039
G1 X112.421 Y155.898 E19.17517
G1 X109.914 Y156.039 E19.25868
G1 X107.386 Y156.254 E19.34307
G1 X104.883 Y156.538 E19.42685
G1 X102.347 Y156.897 E19.51204
G1 X100.904 Y157.135 E19.56068
G1 X100.319 Y157.236 E19.58043
G1 X99.405 Y157.354 E19.61108
G1 X98.814 Y157.387 E19.63077
G1 X98.495 Y157.396 E19.64138
G1 X98.196 Y157.4 E19.65133
G1 X80.57 Y157.399 E20.23757
G1 X79.872 Y157.39 E20.26079
G1 X78.953 Y157.338 E20.2914
G1 X78.042 Y157.207 E20.32202
G1 X77.146 Y156.997 E20.35262
G1 X76.271 Y156.71 E20.38325
G1 X75.424 Y156.348 E20.41389
G1 X74.612 Y155.914 E20.44451
G1 X73.841 Y155.412 E20.47511
G1 X73.116 Y154.844 E20.50575
G1 X72.443 Y154.215 E20.53638
G1 X71.828 Y153.531 E20.56698
G1 X71.274 Y152.796 E20.59759
G1 X70.786 Y152.015 E20.62822
G1 X70.367 Y151.195 E20.65885
G1 X70.021 Y150.342 E20.68946
G1 X69.751 Y149.462 E20.72008
G1 X69.558 Y148.561 E20.75073
G1 X69.444 Y147.648 E20.78133
G1 X69.413 Y147.077 E20.80035
G1 X69.404 Y146.744 E20.81143
G1 X69.4 Y146.458 E20.82094
G1 X69.401 Y143.179 E20.93
G1 X69.411 Y142.473 E20.95349
G1 X69.42 Y142.173 E20.96347
G1 X69.442 Y141.654 E20.98075
G1 X69.516 Y139.007 E21.06882
G1 X69.516 Y136.495 E21.15237
G1 X69.442 Y133.909 E21.23841
G1 X69.423 Y133.496 E21.25217
G1 X69.404 Y132.832 E21.27426
G1 X69.4 Y132.529 E21.28434
G1 X69.401 Y127.828 E21.44069
G1 X69.411 Y127.122 E21.46418
G1 X69.42 Y126.822 E21.47416
G1 X69.442 Y126.303 E21.49144
G1 X69.516 Y123.656 E21.57951
G1 X69.516 Y121.144 E21.66306
G1 X69.442 Y118.558 E21.74911
G1 X69.423 Y118.145 E21.76286
G1 X69.404 Y117.481 E21.78495
G1 X69.4 Y117.178 E21.79503
G1 X69.401 Y113.731 E21.90968
G1 X69.41 Y113.066 E21.9318
G1 X69.462 Y112.146 E21.96245
G1 X69.594 Y111.235 E21.99306
G1 X69.805 Y110.339 E22.02368
G1 X70.092 Y109.464 E22.05431
G1 X70.455 Y108.618 E22.08493
G1 X70.889 Y107.806 E22.11555
G1 X71.392 Y107.035 E22.14617
G1 X71.961 Y106.311 E22.17679
G1 X72.589 Y105.639 E22.20739
G1 X73.274 Y105.023 E22.23803
G1 X73.37 Y104.95 E22.24204
G0 F1080 X74.01 Y104.47
G0 F6000 X74.394 Y104.694
G1 F1200 X75.169 Y104.231 E22.27206
G1 X75.982 Y103.838 E22.3021
G1 X76.827 Y103.518 E22.33215
G1 X77.696 Y103.275 E22.36216
G1 X78.584 Y103.109 E22.39221
G1 X79.723 Y103.013 E22.43023
G1 X80.044 Y103.004 E22.44091
G1 X80.33 Y103 E22.45042
G1 X179.293 Y103 E25.74194
G1 X180.137 Y103.011 E25.77002
G1 X181.039 Y103.064 E25.80007
G1 X181.932 Y103.196 E25.83009
G1 X182.81 Y103.407 E25.86013
G1 X183.666 Y103.695 E25.89017
G1 X184.493 Y104.057 E25.92019
G1 X185.285 Y104.492 E25.95025
G1 X186.036 Y104.994 E25.98029
G1 X186.739 Y105.561 E26.01033
G1 X187.389 Y106.188 E26.04037
G1 X187.981 Y106.87 E26.07041
G1 X188.511 Y107.601 E26.10044
G1 X188.973 Y108.377 E26.13047
G1 X189.366 Y109.19 E26.16051
G1 X189.684 Y110.035 E26.19054
G1 X189.927 Y110.905 E26.22058
G1 X190.092 Y111.793 E26.25062
G1 X190.187 Y112.923 E26.28834
G1 X190.196 Y113.243 E26.29899
G1 X190.2 Y113.53 E26.30853
G1 X190.199 Y116.924 E26.42142
G1 X190.189 Y117.644 E26.44537
G1 X190.181 Y117.931 E26.45492
G1 X190.157 Y118.503 E26.47396
G1 X190.084 Y121.112 E26.56077
G1 X190.084 Y123.647 E26.64508
G1 X190.157 Y126.203 E26.73013
G1 X190.177 Y126.645 E26.74485
G1 X190.196 Y127.309 E26.76694
G1 X190.2 Y127.601 E26.77665
G1 X190.199 Y132.275 E26.93211
G1 X190.189 Y132.995 E26.95606
G1 X190.181 Y133.282 E26.96561
G1 X190.157 Y133.854 E26.98465
G1 X190.084 Y136.463 E27.07146
G1 X190.084 Y138.998 E27.15577
G1 X190.157 Y141.554 E27.24082
G1 X190.177 Y141.996 E27.25554
G1 X190.196 Y142.66 E27.27763
G1 X190.2 Y142.952 E27.28735
G1 X190.199 Y146.19 E27.39504
G1 X190.19 Y146.917 E27.41922
G1 X190.139 Y147.819 E27.44927
G1 X190.008 Y148.713 E27.47932
G1 X189.799 Y149.591 E27.50934
G1 X189.513 Y150.448 E27.53939
G1 X189.152 Y151.276 E27.56943
G1 X188.72 Y152.068 E27.59944
G1 X188.219 Y152.82 E27.62949
G1 X187.653 Y153.524 E27.65954
G1 X187.028 Y154.175 E27.68955
G1 X186.347 Y154.769 E27.71961
G1 X185.616 Y155.3 E27.74966
G1 X184.842 Y155.764 E27.77968
G1 X184.029 Y156.158 E27.80972
G1 X183.185 Y156.478 E27.83975
G1 X182.315 Y156.723 E27.86981
G1 X181.428 Y156.889 E27.89982
G1 X180.277 Y156.987 E27.93824
G1 X179.956 Y156.996 E27.94892
G1 X179.67 Y157 E27.95844
G1 X134.425 Y156.999 E29.46329
G1 X133.715 Y156.988 E29.48691
G1 X132.813 Y156.934 E29.51696
G1 X132.289 Y156.865 E29.53454
G1 X131.573 Y156.752 E29.55865
G1 X130.113 Y156.502 E29.60792
G1 X127.661 Y156.152 E29.6903
G1 X125.079 Y155.858 E29.77673
G1 X122.56 Y155.643 E29.86082
G1 X120.058 Y155.501 E29.94417
G1 X117.492 Y155.427 E30.02955
G1 X114.958 Y155.427 E30.11383
G1 X112.424 Y155.498 E30.19815
G1 X109.894 Y155.64 E30.28243
G1 X107.341 Y155.857 E30.36764
G1 X104.819 Y156.143 E30.45206
G1 X102.27 Y156.504 E30.53769
G1 X100.898 Y156.73 E30.58394
G1 X100.251 Y156.842 E30.60578
G1 X99.355 Y156.956 E30.63582
G1 X98.803 Y156.987 E30.65421
G1 X98.484 Y156.996 E30.66482
G1 X98.196 Y157 E30.6744
G1 X80.575 Y156.999 E31.26048
G1 X79.877 Y156.99 E31.2837
G1 X78.976 Y156.939 E31.31371
G1 X78.082 Y156.807 E31.34377
G1 X77.204 Y156.598 E31.37379
G1 X76.347 Y156.311 E31.40385
G1 X75.52 Y155.95 E31.43386
G1 X74.727 Y155.517 E31.46391
G1 X73.976 Y155.016 E31.49394
G1 X73.272 Y154.45 E31.52398
G1 X72.621 Y153.824 E31.55402
G1 X72.028 Y153.143 E31.58405
G1 X71.498 Y152.412 E31.61408
G1 X71.034 Y151.637 E31.64413
G1 X70.64 Y150.824 E31.67418
G1 X70.32 Y149.98 E31.7042
G1 X70.076 Y149.11 E31.73425
G1 X69.91 Y148.222 E31.7643
G1 X69.813 Y147.067 E31.80285
G1 X69.804 Y146.734 E31.81393
G1 X69.8 Y146.458 E31.82311
G1 X69.801 Y143.185 E31.93197
G1 X69.811 Y142.479 E31.95545
G1 X69.819 Y142.19 E31.96507
G1 X69.843 Y141.614 E31.98424
G1 X69.916 Y139.018 E32.07062
G1 X69.916 Y136.483 E32.15494
G1 X69.843 Y133.921 E32.24018
G1 X69.823 Y133.485 E32.2547
G1 X69.804 Y132.821 E32.27679
G1 X69.8 Y132.529 E32.28651
G1 X69.801 Y127.834 E32.44266
G1 X69.811 Y127.128 E32.46615
G1 X69.819 Y126.839 E32.47576
G1 X69.843 Y126.263 E32.49494
G1 X69.916 Y123.667 E32.58131
G1 X69.916 Y121.132 E32.66563
G1 X69.843 Y118.57 E32.75088
G1 X69.823 Y118.134 E32.76539
G1 X69.804 Y117.47 E32.78749
G1 X69.8 Y117.178 E32.7972
G1 X69.801 Y113.736 E32.91168
G1 X69.81 Y113.071 E32.9338
G1 X69.862 Y112.169 E32.96385
G1 X69.994 Y111.276 E32.99387
G1 X70.204 Y110.398 E33.0239
G1 X70.491 Y109.541 E33.05396
G1 X70.853 Y108.714 E33.08399
G1 X71.286 Y107.922 E33.11401
G1 X71.788 Y107.171 E33.14405
G1 X72.355 Y106.467 E33.17412
G1 X72.981 Y105.817 E33.20413
G1 X73.662 Y105.224 E33.23417
G1 X73.746 Y105.163 E33.23762
G0 F1080 X74.394 Y104.694
G1 F1500 E23.23762
;MESH:beckhoff terminal end plate less details.STL
G0 F6000 X136.72 Y112.535
G0 X136.72 Y126.711
G0 X137.454 Y126.701
G0 X137.634 Y126.375
G0 X137.966 Y126.157
G0 X138.323 Y126.091
G0 X140.012 Y126.118
G0 X140.54 Y126.282
G0 X140.763 Y127.768
;TYPE:WALL-INNER
G1 F1500 E33.23762
G1 F1200 X140.808 Y127.779 E33.23916
G1 X140.808 Y126.09 E33.29534
G1 X140.356 Y125.939 E33.31119
G1 X140.055 Y125.859 E33.32155
G1 X139.658 Y125.828 E33.33479
G1 X139.211 Y125.91 E33.34991
G1 X139.12 Y125.97 E33.35353
G1 X138.71 Y125.859 E33.36766
G1 X138.312 Y125.828 E33.38094
G1 X137.865 Y125.91 E33.39605
G1 X137.438 Y126.191 E33.41305
G1 X137.205 Y126.613 E33.42909
G1 X137.157 Y126.907 E33.43899
G1 X136.916 Y126.907 E33.44701
G1 X136.916 Y127.117 E33.45264
G1 X136.872 Y127.089
G1 X136.583 Y126.964 E33.45934
G1 X136.291 Y126.889 E33.46937
G1 X135.948 Y126.86 E33.48081
G1 X135.453 Y126.923 E33.49741
G1 X134.94 Y127.153 E33.51611
G1 X134.674 Y127.359 E33.5273
G1 X134.495 Y127.556 E33.53615
G1 X134.458 Y127.475
G1 X134.138 Y127.151 E33.5513
G1 X133.707 Y126.929 E33.56742
G1 X133.233 Y126.858 E33.58337
G1 X133.046 Y126.881 E33.58963
G1 X133.046 Y125.875 E33.62309
G1 X131.217 Y125.875 E33.68392
G1 X131.217 Y126.907 E33.71825
G1 X130.332 Y126.907 E33.74768
G1 X130.219 Y127.03 E33.75324
G1 X130.219 Y125.875 E33.79166
G1 X128.39 Y125.875 E33.85249
G1 X128.39 Y127.239 E33.89785
G1 X128.171 Y127.081 E33.90684
G1 X127.88 Y126.962 E33.91729
G1 X127.569 Y126.889 E33.92792
G1 X127.23 Y126.862 E33.93923
G1 X127.074 Y126.866 E33.94442
G1 X126.754 Y126.907 E33.95515
G1 X126.442 Y126.999 E33.96597
G1 X126.151 Y127.139 E33.97671
G1 X125.886 Y127.324 E33.98746
G1 X125.603 Y127.615 E34.00096
G1 X125.592 Y127.633 E34.00166
G1 X125.388 Y127.389 E34.00697
