;FLAVOR:Marlin
;TIME:1294
;Filament used: 0.557508m
;Layer height: 0.2
;MINX:114.99
;MINY:77.191
;MINZ:0.2
;MAXX:151.588
;MAXY:152.927
;MAXZ:10.6
;Generated with Cura_SteamEngine 4.13.1
M140 S50
M105
M190 S50
M104 S220
M105
M109 S220
M82 ;absolute extrusion mode

G28 ;Home

G92 E0 ;Reset Extruder
G1 Z2.0 F3000 ;Move Z Axis up
G1 X10.1 Y20 Z0.28 F5000.0 ;Move to start position
G1 X10.1 Y200.0 Z0.28 F1500.0 E15 ;Draw the first line
G1 X10.4 Y200.0 Z0.28 F5000.0 ;Move to side a little
G1 X10.4 Y20 Z0.28 F1500.0 E30 ;Draw the second line
G92 E0 ;Reset Extruder
G1 Z2.0 F3000 ;Move Z Axis up

G92 E0
G92 E0
G1 F1500 E-10
;LAYER_COUNT:53
;LAYER:0
M107
G0 F6000 X118.455 Y84.652 Z0.2
;TYPE:SKIRT
G1 F1500 E0
G1 F1200 X118.827 Y84.16 E0.02052
G1 X119.027 Y83.903 E0.03135
G1 X119.158 Y83.74 E0.0383
G1 X119.833 Y82.976 E0.07221
G1 X120.304 Y82.49 E0.09472
G1 X120.709 Y82.092 E0.11361
G1 X120.853 Y81.958 E0.12015
G1 X121.419 Y81.467 E0.14507
G1 X121.858 Y81.111 E0.16387
G1 X122.176 Y80.863 E0.17728
G1 X122.454 Y80.654 E0.18885
G1 X123.175 Y80.155 E0.21801
G1 X123.5 Y79.949 E0.23081
G1 X123.77 Y79.784 E0.24133
G1 X124.083 Y79.598 E0.25344
G1 X124.966 Y79.126 E0.28675
G1 X125.664 Y78.793 E0.31247
G1 X126.067 Y78.61 E0.32719
G1 X126.151 Y78.574 E0.33023
G1 X127.019 Y78.245 E0.3611
G1 X127.7 Y78.019 E0.38497
G1 X128.087 Y77.898 E0.39845
G1 X128.262 Y77.847 E0.40452
G1 X129.139 Y77.63 E0.43457
G1 X129.756 Y77.504 E0.45551
G1 X130.173 Y77.428 E0.46961
G1 X130.386 Y77.393 E0.47679
G1 X130.961 Y77.314 E0.49609
G1 X131.373 Y77.274 E0.50986
G1 X131.98 Y77.227 E0.53011
G1 X132.473 Y77.2 E0.54653
G1 X132.751 Y77.191 E0.55578
G1 X133.606 Y77.196 E0.58422
G1 X134.267 Y77.226 E0.60623
G1 X134.798 Y77.263 E0.62393
G1 X135 Y77.282 E0.63068
G1 X135.653 Y77.364 E0.65257
G1 X135.879 Y77.399 E0.66018
G1 X136.181 Y77.45 E0.67036
G1 X136.781 Y77.562 E0.69066
G1 X137.425 Y77.694 E0.71253
G1 X138.335 Y77.921 E0.74372
G1 X139.543 Y78.357 E0.78644
G1 X140.382 Y78.716 E0.81679
G1 X140.723 Y78.869 E0.82922
G1 X141.058 Y79.026 E0.84153
G1 X141.933 Y79.484 E0.87437
G1 X142.293 Y79.694 E0.88824
G1 X142.891 Y80.057 E0.9115
G1 X143.796 Y80.672 E0.9479
G1 X144.07 Y80.879 E0.95932
G1 X144.375 Y81.118 E0.97221
G1 X144.764 Y81.434 E0.98887
G1 X145.485 Y82.074 E1.02094
G1 X145.813 Y82.392 E1.03613
G1 X146.034 Y82.613 E1.04653
G1 X146.225 Y82.809 E1.05563
G1 X146.902 Y83.571 E1.08953
G1 X147.404 Y84.192 E1.11609
G1 X147.649 Y84.507 E1.12937
G1 X147.763 Y84.659 E1.13569
G1 X148.282 Y85.415 E1.16619
G1 X148.578 Y85.887 E1.18472
G1 X148.745 Y86.162 E1.19542
G1 X148.863 Y86.363 E1.20317
G1 X149.334 Y87.257 E1.23678
G1 X149.603 Y87.83 E1.25783
G1 X149.743 Y88.141 E1.26918
G1 X149.845 Y88.377 E1.27773
G1 X150.195 Y89.298 E1.3105
G1 X150.372 Y89.835 E1.3293
G1 X150.473 Y90.158 E1.34056
G1 X150.544 Y90.398 E1.34888
G1 X150.77 Y91.302 E1.37987
G1 X150.9 Y91.934 E1.40134
G1 X151.031 Y92.708 E1.42744
G1 X151.097 Y93.207 E1.44419
G1 X151.16 Y93.81 E1.46435
G1 X151.175 Y94.006 E1.47089
G1 X151.196 Y94.363 E1.48278
G1 X151.219 Y94.938 E1.50192
G1 X151.222 Y95.084 E1.50678
G1 X151.213 Y95.798 E1.53053
G1 X151.187 Y96.384 E1.55004
G1 X151.152 Y96.902 E1.56731
G1 X151.124 Y97.207 E1.57749
G1 X151.05 Y97.821 E1.59806
G1 X151.011 Y98.083 E1.60687
G1 X150.972 Y98.326 E1.61506
G1 X150.903 Y98.728 E1.62863
G1 X150.89 Y98.835 E1.63221
G1 X150.549 Y100.898 E1.70176
G1 X150.208 Y103.393 E1.78551
G1 X149.939 Y105.892 E1.86911
G1 X149.74 Y108.399 E1.95276
G1 X149.611 Y110.933 E2.03715
G1 X149.556 Y113.415 E2.11972
G1 X149.57 Y115.945 E2.20387
G1 X149.656 Y118.465 E2.28773
G1 X149.813 Y120.982 E2.37161
G1 X150.041 Y123.492 E2.45544
G1 X150.337 Y125.964 E2.53824
G1 X150.71 Y128.488 E2.6231
G1 X151.152 Y130.981 E2.70731
G1 X151.355 Y131.996 E2.74174
G1 X151.411 Y132.297 E2.75193
G1 X151.539 Y133.226 E2.78312
G1 X151.587 Y134.224 E2.81635
G1 X151.588 Y134.566 E2.82772
G1 X151.58 Y135.012 E2.84256
G1 X151.554 Y135.702 E2.86553
G1 X151.479 Y136.637 E2.89672
G1 X151.351 Y137.434 E2.92357
G1 X151.291 Y137.732 E2.93368
G1 X151.008 Y139.078 E2.97943
G1 X150.866 Y139.671 E2.99971
G1 X150.649 Y140.478 E3.0275
G1 X150.324 Y141.489 E3.06282
G1 X150.232 Y141.734 E3.07153
G1 X149.865 Y142.597 E3.10272
G1 X149.55 Y143.209 E3.12561
G1 X149.425 Y143.434 E3.13417
G1 X149.246 Y143.744 E3.14608
G1 X149.007 Y144.143 E3.16155
G1 X148.45 Y144.983 E3.19507
G1 X147.903 Y145.675 E3.22441
G1 X147.828 Y145.762 E3.22823
G1 X146.751 Y147.047 E3.284
G1 X146.118 Y147.739 E3.31519
G1 X145.429 Y148.375 E3.34638
G1 X144.74 Y148.913 E3.37545
G1 X144.196 Y149.304 E3.39773
G1 X143.899 Y149.511 E3.40977
G1 X143.309 Y149.905 E3.43337
G1 X142.909 Y150.166 E3.44926
G1 X142.135 Y150.655 E3.47971
G1 X141.322 Y151.121 E3.51087
G1 X140.471 Y151.517 E3.54209
G1 X139.859 Y151.75 E3.56387
G1 X139.394 Y151.911 E3.58024
G1 X138.929 Y152.06 E3.59648
G1 X138.68 Y152.134 E3.60512
G1 X138.099 Y152.29 E3.62513
G1 X137.747 Y152.374 E3.63717
G1 X137.464 Y152.437 E3.64681
G1 X137.208 Y152.491 E3.65551
G1 X136.55 Y152.609 E3.67775
G1 X135.652 Y152.742 E3.70794
G1 X135.295 Y152.789 E3.71992
G1 X134.677 Y152.86 E3.74061
G1 X133.742 Y152.927 E3.77178
G1 X132.804 Y152.915 E3.80298
G1 X132.189 Y152.863 E3.82351
G1 X131.4 Y152.774 E3.84992
G1 X131.059 Y152.73 E3.86136
G1 X130.381 Y152.632 E3.88414
G1 X129.807 Y152.533 E3.90351
G1 X129.571 Y152.486 E3.91152
G1 X129.056 Y152.371 E3.92907
G1 X128.523 Y152.238 E3.94734
G1 X128.176 Y152.145 E3.95929
G1 X127.944 Y152.079 E3.96731
G1 X127.356 Y151.894 E3.98781
G1 X126.94 Y151.75 E4.00245
G1 X126.347 Y151.525 E4.02355
G1 X126.165 Y151.45 E4.0301
G1 X125.314 Y151.056 E4.06129
G1 X124.317 Y150.474 E4.09968
G1 X124.014 Y150.275 E4.11174
G1 X123.802 Y150.132 E4.12025
G1 X123.11 Y149.653 E4.14824
G1 X122.576 Y149.271 E4.17008
G1 X122.256 Y149.033 E4.18334
G1 X121.538 Y148.43 E4.21453
G1 X120.957 Y147.857 E4.24167
G1 X120.093 Y146.94 E4.28357
G1 X119.613 Y146.435 E4.30675
G1 X119.016 Y145.753 E4.33689
G1 X118.778 Y145.457 E4.34952
G1 X118.581 Y145.204 E4.36019
G1 X118.341 Y144.887 E4.37341
G1 X117.758 Y144.037 E4.4077
G1 X117.628 Y143.827 E4.41591
G1 X117.279 Y143.221 E4.43917
G1 X117.139 Y142.959 E4.44905
G1 X116.733 Y142.114 E4.48023
G1 X116.314 Y140.965 E4.52091
G1 X116.264 Y140.8 E4.52664
G1 X116.173 Y140.484 E4.53758
G1 X115.97 Y139.734 E4.56342
G1 X115.833 Y139.169 E4.58276
G1 X115.502 Y137.627 E4.63521
G1 X115.344 Y136.702 E4.66643
G1 X115.265 Y135.736 E4.69866
G1 X115.239 Y135.052 E4.72143
G1 X115.231 Y134.662 E4.7344
G1 X115.23 Y134.271 E4.74741
G1 X115.268 Y133.334 E4.7786
G1 X115.375 Y132.462 E4.80782
G1 X115.499 Y131.713 E4.83307
G1 X115.772 Y130.197 E4.8843
G1 X116.141 Y127.748 E4.96668
G1 X116.446 Y125.24 E5.05071
G1 X116.679 Y122.746 E5.13402
G1 X116.842 Y120.233 E5.21778
G1 X116.934 Y117.71 E5.30175
G1 X116.955 Y115.185 E5.38573
G1 X116.904 Y112.663 E5.46963
G1 X116.783 Y110.165 E5.55281
G1 X116.589 Y107.639 E5.63708
G1 X116.327 Y105.155 E5.72015
G1 X115.993 Y102.659 E5.80391
G1 X115.582 Y100.137 E5.8889
G1 X115.329 Y98.8 E5.93416
G1 X115.225 Y98.195 E5.95457
G1 X115.132 Y97.513 E5.97747
G1 X115.06 Y96.825 E6.00047
G1 X115.011 Y96.164 E6.02252
G1 X114.992 Y95.672 E6.0389
G1 X114.99 Y95.581 E6.04192
G1 X114.999 Y94.83 E6.0669
G1 X115.027 Y94.226 E6.08701
G1 X115.051 Y93.837 E6.09998
G1 X115.172 Y92.794 E6.1349
G1 X115.326 Y91.863 E6.16629
G1 X115.386 Y91.536 E6.17734
G1 X115.467 Y91.124 E6.19131
G1 X115.687 Y90.212 E6.22251
G1 X116.104 Y89.019 E6.26455
G1 X116.402 Y88.303 E6.29034
G1 X116.53 Y88.008 E6.30104
G1 X116.769 Y87.478 E6.32037
G1 X117.246 Y86.542 E6.35531
G1 X117.402 Y86.269 E6.36577
G1 X117.629 Y85.891 E6.38044
G1 X117.905 Y85.45 E6.39774
G1 X118.001 Y85.31 E6.40339
G0 F1080 X118.455 Y84.652
G0 F6000 X118.774 Y84.893
G1 F1200 X119.146 Y84.401 E6.4239
G1 X119.339 Y84.154 E6.43433
G1 X119.47 Y83.991 E6.44128
G1 X120.12 Y83.254 E6.47397
G1 X120.591 Y82.768 E6.49648
G1 X120.982 Y82.385 E6.51468
G1 X121.126 Y82.251 E6.52122
G1 X121.67 Y81.778 E6.5452
G1 X122.109 Y81.422 E6.564
G1 X122.416 Y81.182 E6.57696
G1 X122.694 Y80.973 E6.58853
G1 X123.389 Y80.493 E6.61662
G1 X123.714 Y80.287 E6.62942
G1 X123.974 Y80.128 E6.63956
G1 X124.287 Y79.942 E6.65167
G1 X125.138 Y79.487 E6.68376
G1 X125.836 Y79.154 E6.70948
G1 X126.224 Y78.978 E6.72365
G1 X126.308 Y78.942 E6.72669
G1 X127.145 Y78.625 E6.75646
G1 X127.826 Y78.399 E6.78033
G1 X128.199 Y78.282 E6.79333
G1 X128.374 Y78.231 E6.79939
G1 X129.219 Y78.022 E6.82834
G1 X129.836 Y77.896 E6.84929
G1 X130.238 Y77.822 E6.86288
G1 X130.451 Y77.787 E6.87006
G1 X131.007 Y77.711 E6.88873
G1 X131.404 Y77.673 E6.90199
G1 X132.011 Y77.626 E6.92224
G1 X132.486 Y77.6 E6.93806
G1 X132.764 Y77.591 E6.94732
G1 X133.588 Y77.596 E6.97472
G1 X134.249 Y77.626 E6.99673
G1 X134.761 Y77.662 E7.0138
G1 X134.963 Y77.681 E7.02055
G1 X135.592 Y77.759 E7.04163
G1 X135.818 Y77.794 E7.04924
G1 X136.109 Y77.843 E7.05905
G1 X136.485 Y77.912 E7.07177
G1 X136.7 Y77.954 E7.07905
G1 X137.344 Y78.086 E7.10092
G1 X138.237 Y78.31 E7.13154
G1 X139.386 Y78.725 E7.17217
G1 X140.225 Y79.084 E7.20252
G1 X140.553 Y79.231 E7.21448
G1 X140.888 Y79.388 E7.22678
G1 X141.731 Y79.83 E7.25844
G1 X142.268 Y80.145 E7.27915
G1 X142.683 Y80.398 E7.29531
G1 X143.555 Y80.991 E7.33039
G1 X143.829 Y81.198 E7.34181
G1 X144.122 Y81.429 E7.35422
G1 X144.511 Y81.745 E7.37089
G1 X145.206 Y82.362 E7.4018
G1 X145.534 Y82.68 E7.41699
G1 X145.748 Y82.892 E7.42701
G1 X145.939 Y83.088 E7.43611
G1 X146.59 Y83.822 E7.46875
G1 X147.092 Y84.443 E7.49531
G1 X147.329 Y84.747 E7.50813
G1 X147.443 Y84.899 E7.51445
G1 X147.943 Y85.627 E7.54382
G1 X148.239 Y86.099 E7.56235
G1 X148.4 Y86.365 E7.57269
G1 X148.518 Y86.566 E7.58044
G1 X148.972 Y87.427 E7.61282
G1 X149.241 Y88 E7.63387
G1 X149.376 Y88.3 E7.64481
G1 X149.478 Y88.536 E7.65336
G1 X149.815 Y89.423 E7.68492
G1 X149.992 Y89.96 E7.70373
G1 X150.09 Y90.271 E7.71458
G1 X150.161 Y90.511 E7.7229
G1 X150.379 Y91.382 E7.75276
G1 X150.509 Y92.014 E7.77422
G1 X150.634 Y92.76 E7.79938
G1 X150.7 Y93.259 E7.81612
G1 X150.761 Y93.84 E7.83555
G1 X150.776 Y94.036 E7.84209
G1 X150.797 Y94.38 E7.85355
G1 X150.811 Y94.699 E7.86417
G1 X150.822 Y95.092 E7.87725
G1 X150.814 Y95.78 E7.90013
G1 X150.788 Y96.366 E7.91964
G1 X150.754 Y96.865 E7.93628
G1 X150.726 Y97.17 E7.94647
G1 X150.654 Y97.762 E7.9663
G1 X150.578 Y98.259 E7.98302
G1 X150.512 Y98.642 E7.99595
G1 X150.495 Y98.77 E8.00025
G1 X150.151 Y100.85 E8.07037
G1 X149.812 Y103.333 E8.15372
G1 X149.54 Y105.851 E8.23795
G1 X149.34 Y108.384 E8.32246
G1 X149.212 Y110.905 E8.40642
G1 X149.156 Y113.409 E8.48972
G1 X149.17 Y115.96 E8.57457
G1 X149.257 Y118.504 E8.65924
G1 X149.413 Y121.011 E8.74278
G1 X149.64 Y123.505 E8.82607
G1 X149.942 Y126.029 E8.91062
G1 X150.315 Y128.551 E8.99542
G1 X150.755 Y131.033 E9.07925
G1 X150.963 Y132.074 E9.11456
G1 X151.018 Y132.369 E9.12454
G1 X151.142 Y133.281 E9.15516
G1 X151.187 Y134.225 E9.18659
G1 X151.188 Y134.567 E9.19796
G1 X151.18 Y134.997 E9.21227
G1 X151.154 Y135.687 E9.23523
G1 X151.08 Y136.605 E9.26587
G1 X150.958 Y137.356 E9.29117
G1 X150.899 Y137.65 E9.30115
G1 X150.616 Y138.996 E9.34689
G1 X150.479 Y139.568 E9.36646
G1 X150.262 Y140.375 E9.39425
G1 X149.949 Y141.348 E9.42824
G1 X149.857 Y141.593 E9.43695
G1 X149.497 Y142.44 E9.46756
G1 X149.2 Y143.015 E9.48908
G1 X149.075 Y143.24 E9.49765
G1 X148.902 Y143.539 E9.50913
G1 X148.663 Y143.938 E9.5246
G1 X148.127 Y144.748 E9.55691
G1 X147.599 Y145.415 E9.5852
G1 X146.444 Y146.79 E9.64493
G1 X145.822 Y147.469 E9.67556
G1 X145.144 Y148.092 E9.70618
G1 X144.507 Y148.588 E9.73303
G1 X143.963 Y148.979 E9.75532
G1 X143.676 Y149.178 E9.76693
G1 X143.089 Y149.571 E9.79043
G1 X142.696 Y149.827 E9.80603
G1 X141.922 Y150.316 E9.83648
G1 X141.123 Y150.774 E9.86711
G1 X140.287 Y151.16 E9.89773
G1 X139.728 Y151.372 E9.91762
G1 X139.263 Y151.533 E9.93399
G1 X138.815 Y151.677 E9.94964
G1 X138.566 Y151.751 E9.95828
G1 X138.006 Y151.9 E9.97755
G1 X137.654 Y151.984 E9.98959
G1 X137.382 Y152.046 E9.99887
G1 X137.126 Y152.1 E10.00757
G1 X136.491 Y152.214 E10.02903
G1 X135.593 Y152.347 E10.05922
G1 X135.25 Y152.392 E10.07073
G1 X134.632 Y152.463 E10.09142
G1 X133.714 Y152.528 E10.12202
G1 X132.793 Y152.513 E10.15266
G1 X132.234 Y152.465 E10.17132
G1 X131.445 Y152.376 E10.19773
G1 X131.117 Y152.334 E10.20873
G1 X130.439 Y152.236 E10.23151
G1 X129.885 Y152.141 E10.25021
G1 X129.649 Y152.094 E10.25821
G1 X129.153 Y151.983 E10.27512
G1 X128.62 Y151.85 E10.29339
G1 X128.286 Y151.76 E10.30489
G1 X128.054 Y151.694 E10.31292
G1 X127.487 Y151.516 E10.33268
G1 X127.071 Y151.372 E10.34732
G1 X126.499 Y151.155 E10.36767
G1 X126.317 Y151.08 E10.37422
G1 X125.482 Y150.693 E10.40483
G1 X124.537 Y150.14 E10.44125
G1 X124.234 Y149.941 E10.4533
G1 X124.029 Y149.803 E10.46152
G1 X123.486 Y149.428 E10.48347
G1 X122.809 Y148.945 E10.51113
G1 X122.5 Y148.716 E10.52392
G1 X121.795 Y148.123 E10.55456
G1 X121.248 Y147.583 E10.58013
G1 X120.384 Y146.666 E10.62203
G1 X119.903 Y146.16 E10.64525
G1 X119.328 Y145.502 E10.67432
G1 X119.09 Y145.206 E10.68695
G1 X118.9 Y144.962 E10.69724
G1 X118.66 Y144.645 E10.71046
G1 X118.098 Y143.826 E10.7435
G1 X117.968 Y143.616 E10.75171
G1 X117.632 Y143.033 E10.77409
G1 X117.492 Y142.771 E10.78397
G1 X117.094 Y141.941 E10.81459
G1 X116.697 Y140.849 E10.85323
G1 X116.647 Y140.684 E10.85897
G1 X116.559 Y140.379 E10.86953
G1 X116.356 Y139.629 E10.89537
G1 X116.224 Y139.085 E10.91399
G1 X115.893 Y137.543 E10.96644
G1 X115.739 Y136.635 E10.99707
G1 X115.665 Y135.721 E11.02757
G1 X115.639 Y135.037 E11.05034
G1 X115.631 Y134.661 E11.06285
G1 X115.63 Y134.27 E11.07585
G1 X115.668 Y133.35 E11.10648
G1 X115.77 Y132.527 E11.13406
G1 X115.893 Y131.783 E11.15914
G1 X116.162 Y130.289 E11.20963
G1 X116.539 Y127.784 E11.29389
G1 X116.843 Y125.289 E11.37749
G1 X117.078 Y122.773 E11.46153
G1 X117.243 Y120.238 E11.54603
G1 X117.334 Y117.728 E11.62956
G1 X117.355 Y115.18 E11.71431
G1 X117.304 Y112.67 E11.79781
G1 X117.18 Y110.117 E11.88283
G1 X116.988 Y107.6 E11.96678
G1 X116.723 Y105.096 E12.05053
G1 X116.391 Y102.613 E12.13385
G1 X115.977 Y100.07 E12.21955
G1 X115.722 Y98.725 E12.26508
G1 X115.684 Y98.514 E12.27221
G1 X115.619 Y98.128 E12.28523
G1 X115.53 Y97.471 E12.30728
G1 X115.458 Y96.783 E12.33029
G1 X115.41 Y96.146 E12.35154
G1 X115.399 Y95.896 E12.35986
G1 X115.39 Y95.572 E12.37064
G1 X115.398 Y94.848 E12.39472
G1 X115.426 Y94.244 E12.41483
G1 X115.45 Y93.865 E12.42746
G1 X115.567 Y92.859 E12.46115
G1 X115.721 Y91.928 E12.49253
G1 X115.778 Y91.613 E12.50318
G1 X115.859 Y91.201 E12.51715
G1 X116.076 Y90.306 E12.54778
G1 X116.474 Y89.173 E12.58772
G1 X116.772 Y88.457 E12.61351
G1 X116.895 Y88.173 E12.62381
G1 X117.134 Y87.643 E12.64314
G1 X117.594 Y86.741 E12.67682
G1 X117.75 Y86.468 E12.68728
G1 X117.968 Y86.104 E12.70139
G1 X118.244 Y85.663 E12.71869
G1 X118.321 Y85.552 E12.72319
G0 F1080 X118.774 Y84.893
G0 F6000 X119.093 Y85.134
G1 F1200 X119.465 Y84.642 E12.7437
G1 X119.65 Y84.404 E12.75373
G1 X119.781 Y84.241 E12.76068
G1 X120.407 Y83.532 E12.79214
G1 X120.878 Y83.046 E12.81465
G1 X121.254 Y82.678 E12.83215
G1 X121.398 Y82.544 E12.83869
G1 X121.922 Y82.089 E12.86177
G1 X122.361 Y81.733 E12.88057
G1 X122.657 Y81.502 E12.89306
G1 X122.935 Y81.293 E12.90463
G1 X123.603 Y80.831 E12.93164
G1 X123.928 Y80.625 E12.94444
G1 X124.178 Y80.471 E12.95421
G1 X124.491 Y80.285 E12.96632
G1 X125.31 Y79.848 E12.99719
G1 X126.008 Y79.515 E13.02291
G1 X126.382 Y79.346 E13.03656
G1 X126.466 Y79.31 E13.0396
G1 X127.271 Y79.004 E13.06825
G1 X127.952 Y78.778 E13.09211
G1 X128.311 Y78.666 E13.10462
G1 X128.486 Y78.615 E13.11068
G1 X129.299 Y78.414 E13.13854
G1 X129.916 Y78.288 E13.15948
G1 X130.303 Y78.217 E13.17257
G1 X130.516 Y78.182 E13.17975
G1 X131.053 Y78.108 E13.19778
G1 X131.435 Y78.071 E13.21054
G1 X132.042 Y78.024 E13.23079
G1 X132.499 Y77.999 E13.24601
G1 X132.777 Y77.99 E13.25526
G1 X133.569 Y77.995 E13.28161
G1 X134.23 Y78.025 E13.30362
G1 X134.723 Y78.06 E13.32005
G1 X134.925 Y78.079 E13.3268
G1 X135.531 Y78.154 E13.34711
G1 X135.757 Y78.189 E13.35472
G1 X136.037 Y78.237 E13.36417
G1 X136.62 Y78.346 E13.38389
G1 X137.264 Y78.478 E13.40576
G1 X138.14 Y78.698 E13.4358
G1 X139.229 Y79.092 E13.47432
G1 X140.068 Y79.451 E13.50467
G1 X140.384 Y79.593 E13.51619
G1 X140.719 Y79.75 E13.5285
G1 X141.529 Y80.175 E13.55892
G1 X141.889 Y80.385 E13.57278
G1 X142.474 Y80.74 E13.59554
G1 X143.313 Y81.31 E13.62928
G1 X143.587 Y81.517 E13.6407
G1 X143.87 Y81.739 E13.65266
G1 X144.259 Y82.055 E13.66933
G1 X144.928 Y82.649 E13.69909
G1 X145.256 Y82.967 E13.71428
G1 X145.461 Y83.171 E13.7239
G1 X145.652 Y83.367 E13.733
G1 X146.279 Y84.074 E13.76443
G1 X146.781 Y84.695 E13.79099
G1 X147.009 Y84.987 E13.80332
G1 X147.123 Y85.139 E13.80963
G1 X147.604 Y85.84 E13.83791
G1 X147.9 Y86.312 E13.85644
G1 X148.055 Y86.567 E13.86637
G1 X148.173 Y86.768 E13.87412
G1 X148.61 Y87.597 E13.90529
G1 X148.879 Y88.17 E13.92634
G1 X149.009 Y88.458 E13.93685
G1 X149.111 Y88.694 E13.9454
G1 X149.435 Y89.548 E13.97578
G1 X149.612 Y90.085 E13.99459
G1 X149.706 Y90.384 E14.00501
G1 X149.777 Y90.624 E14.01334
G1 X149.987 Y91.463 E14.0421
G1 X150.117 Y92.095 E14.06356
G1 X150.238 Y92.813 E14.08778
G1 X150.304 Y93.312 E14.10452
G1 X150.362 Y93.871 E14.12321
G1 X150.377 Y94.067 E14.12975
G1 X150.397 Y94.398 E14.14078
G1 X150.419 Y94.954 E14.15929
G1 X150.422 Y95.1 E14.16415
G1 X150.414 Y95.762 E14.18617
G1 X150.388 Y96.348 E14.20568
G1 X150.355 Y96.828 E14.22168
G1 X150.327 Y97.133 E14.23186
G1 X150.259 Y97.703 E14.25096
G1 X150.184 Y98.191 E14.26738
G1 X150.106 Y98.642 E14.2826
G1 X150.1 Y98.704 E14.28467
G1 X149.759 Y100.767 E14.35422
G1 X149.412 Y103.302 E14.43932
G1 X149.142 Y105.813 E14.52332
G1 X148.943 Y108.332 E14.60736
G1 X148.811 Y110.909 E14.69319
G1 X148.756 Y113.402 E14.77612
G1 X148.77 Y115.976 E14.86174
G1 X148.856 Y118.507 E14.94597
G1 X149.014 Y121.036 E15.03025
G1 X149.243 Y123.552 E15.11427
G1 X149.548 Y126.104 E15.19976
G1 X149.918 Y128.608 E15.28395
G1 X150.366 Y131.13 E15.36914
G1 X150.605 Y132.335 E15.41
G1 X150.624 Y132.44 E15.41355
G1 X150.745 Y133.335 E15.44359
G1 X150.787 Y134.226 E15.47326
G1 X150.788 Y134.568 E15.48463
G1 X150.781 Y134.982 E15.4984
G1 X150.755 Y135.672 E15.52137
G1 X150.681 Y136.572 E15.5514
G1 X150.566 Y137.278 E15.57519
G1 X150.508 Y137.568 E15.58503
G1 X150.225 Y138.914 E15.63078
G1 X150.093 Y139.464 E15.64959
G1 X149.876 Y140.271 E15.67738
G1 X149.575 Y141.208 E15.71012
G1 X149.483 Y141.453 E15.71882
G1 X149.128 Y142.283 E15.74885
G1 X148.85 Y142.821 E15.76899
G1 X148.725 Y143.046 E15.77755
G1 X148.559 Y143.333 E15.78858
G1 X148.32 Y143.732 E15.80405
G1 X147.803 Y144.512 E15.83517
G1 X147.295 Y145.155 E15.86243
G1 X147.163 Y145.309 E15.86917
G1 X146.137 Y146.533 E15.92229
G1 X145.527 Y147.199 E15.95233
G1 X144.861 Y147.808 E15.98235
G1 X144.273 Y148.264 E16.0071
G1 X143.729 Y148.655 E16.02938
G1 X143.453 Y148.846 E16.04054
G1 X142.869 Y149.237 E16.06392
G1 X142.482 Y149.489 E16.07928
G1 X141.708 Y149.978 E16.10973
G1 X140.924 Y150.426 E16.13976
G1 X140.103 Y150.803 E16.16981
G1 X139.597 Y150.994 E16.1878
G1 X139.132 Y151.155 E16.20416
G1 X138.701 Y151.293 E16.21922
G1 X138.452 Y151.367 E16.22786
G1 X137.914 Y151.511 E16.24638
G1 X137.562 Y151.595 E16.25842
G1 X137.299 Y151.654 E16.26738
G1 X137.043 Y151.708 E16.27608
G1 X136.432 Y151.818 E16.29673
G1 X135.534 Y151.951 E16.32693
G1 X135.204 Y151.994 E16.33799
G1 X134.586 Y152.065 E16.35868
G1 X133.685 Y152.129 E16.38873
G1 X132.782 Y152.112 E16.41877
G1 X132.279 Y152.068 E16.43556
G1 X131.49 Y151.979 E16.46197
G1 X131.174 Y151.938 E16.47257
G1 X130.496 Y151.84 E16.49535
G1 X129.963 Y151.749 E16.51334
G1 X129.727 Y151.702 E16.52134
G1 X129.25 Y151.595 E16.5376
G1 X128.717 Y151.462 E16.55587
G1 X128.395 Y151.376 E16.56695
G1 X128.163 Y151.31 E16.57498
G1 X127.617 Y151.138 E16.59402
G1 X127.201 Y150.994 E16.60866
G1 X126.652 Y150.786 E16.62819
G1 X126.47 Y150.711 E16.63473
G1 X125.651 Y150.33 E16.66478
G1 X124.757 Y149.806 E16.69924
G1 X124.454 Y149.607 E16.7113
G1 X124.257 Y149.474 E16.7192
G1 X123.575 Y149.002 E16.74679
G1 X123.041 Y148.62 E16.76863
G1 X122.744 Y148.399 E16.78094
G1 X122.053 Y147.817 E16.81099
G1 X121.539 Y147.309 E16.83503
G1 X120.675 Y146.392 E16.87693
G1 X120.193 Y145.884 E16.90022
G1 X119.64 Y145.252 E16.92815
G1 X119.402 Y144.956 E16.94079
G1 X119.219 Y144.721 E16.95069
G1 X118.979 Y144.404 E16.96392
G1 X118.438 Y143.616 E16.99571
G1 X118.308 Y143.406 E17.00392
G1 X117.985 Y142.844 E17.02548
G1 X117.845 Y142.582 E17.03536
G1 X117.455 Y141.768 E17.06538
G1 X117.079 Y140.733 E17.10201
G1 X117.029 Y140.568 E17.10774
G1 X116.945 Y140.275 E17.11788
G1 X116.742 Y139.525 E17.14372
G1 X116.615 Y139.001 E17.16166
G1 X116.284 Y137.459 E17.21411
G1 X116.134 Y136.568 E17.24416
G1 X116.064 Y135.705 E17.27296
G1 X116.038 Y135.021 E17.29573
G1 X116.031 Y134.66 E17.30774
G1 X116.03 Y134.269 E17.32074
G1 X116.068 Y133.367 E17.35077
G1 X116.165 Y132.592 E17.37675
G1 X116.287 Y131.854 E17.40163
G1 X116.558 Y130.348 E17.45252
G1 X116.933 Y127.86 E17.53621
G1 X117.24 Y125.338 E17.62071
G1 X117.477 Y122.802 E17.70542
G1 X117.643 Y120.241 E17.79078
G1 X117.734 Y117.745 E17.87385
G1 X117.755 Y115.175 E17.95933
G1 X117.704 Y112.643 E18.04357
G1 X117.581 Y110.101 E18.12821
G1 X117.389 Y107.598 E18.21171
G1 X117.118 Y105.037 E18.29736
G1 X116.783 Y102.527 E18.38158
G1 X116.373 Y100.017 E18.46617
G1 X116.115 Y98.651 E18.51241
G1 X116.014 Y98.062 E18.53229
G1 X115.927 Y97.43 E18.55351
G1 X115.855 Y96.742 E18.57651
G1 X115.81 Y96.128 E18.59699
G1 X115.791 Y95.654 E18.61277
G1 X115.789 Y95.563 E18.6158
G1 X115.798 Y94.867 E18.63895
G1 X115.826 Y94.263 E18.65906
G1 X115.849 Y93.892 E18.67142
G1 X115.962 Y92.924 E18.70383
G1 X116.116 Y91.993 E18.73522
G1 X116.171 Y91.69 E18.74546
G1 X116.252 Y91.278 E18.75943
G1 X116.465 Y90.401 E18.78945
G1 X116.843 Y89.327 E18.82731
G1 X117.141 Y88.611 E18.85311
G1 X117.26 Y88.337 E18.86304
G1 X117.499 Y87.807 E18.88238
G1 X117.941 Y86.939 E18.91478
G1 X118.097 Y86.666 E18.92524
G1 X118.307 Y86.316 E18.93881
G1 X118.583 Y85.875 E18.95612
G1 X118.64 Y85.793 E18.95944
G0 F1080 X119.093 Y85.134
G1 F1500 E8.95944
G0 F6000 X127.389 Y134.62
G0 X127.837 Y136.022
G0 X129.918 Y139.285
G1 F1500 E18.95944
G1 F1200 X130.126 Y139.386 E18.96713
G1 X130.531 Y139.569 E18.98191
G1 X130.969 Y139.739 E18.99754
G1 X131.298 Y139.847 E19.00905
G1 X131.648 Y139.952 E19.02121
G1 X131.984 Y140.032 E19.0327
G1 X132.076 Y140.053 E19.03583
G1 X132.439 Y140.114 E19.04808
G1 X132.934 Y140.164 E19.06462
G1 X133.041 Y140.174 E19.0682
G1 X133.394 Y140.187 E19.07995
G1 X133.684 Y140.178 E19.0896
G1 X134.003 Y140.157 E19.10023
G1 X134.104 Y140.149 E19.1036
G1 X134.376 Y140.114 E19.11272
G1 X134.723 Y140.055 E19.12443
G1 X135.08 Y139.973 E19.13661
G1 X135.167 Y139.951 E19.1396
G1 X135.511 Y139.849 E19.15153
G1 X135.846 Y139.738 E19.16327
G1 X136.254 Y139.58 E19.17782
G1 X136.346 Y139.542 E19.18113
G1 X136.684 Y139.387 E19.1935
G1 X136.974 Y139.223 E19.20458
G1 X137.336 Y138.98 E19.21908
G1 X136.768 Y139.374 E19.24207
G1 X135.88 Y139.928 E19.27688
G1 X135.616 Y140.109 E19.28753
G1 X135.196 Y140.243 E19.30219
G1 X134.593 Y140.379 E19.32275
G1 X133.418 Y140.531 E19.36216
G1 X132.187 Y140.373 E19.40344
G1 X131.55 Y140.223 E19.4252
G1 X131.317 Y140.149 E19.43334
G1 X131.069 Y140.067 E19.44202
G1 X131.023 Y140.049 E19.44367
G1 X130.576 Y139.74 E19.46174
G0 F1080 X129.918 Y139.285
G0 F6000 X129.643 Y139.581
G1 F1200 X129.437 Y139.334 E19.47244
G1 X128.342 Y138.215 E19.52451
G1 X127.917 Y137.669 E19.54752
G1 X127.82 Y137.5 E19.554
G1 X127.812 Y137.338 E19.5594
G1 X127.726 Y136.98 E19.57165
G1 X127.602 Y136.703 E19.58174
G1 X127.615 Y136.588 E19.58559
G1 X127.583 Y136.271 E19.59619
G1 X127.732 Y136.531 E19.60615
G1 X128.12 Y137.117 E19.62953
G1 X128.163 Y137.177 E19.63198
G1 X128.542 Y137.665 E19.65253
G1 X128.712 Y137.846 E19.66079
G1 X129.162 Y138.24 E19.68069
G1 X129.23 Y138.295 E19.6836
G1 X129.639 Y138.607 E19.70071
G1 X130.078 Y138.901 E19.71828
G1 X130.292 Y139.022 E19.72645
G1 X130.68 Y139.197 E19.74061
G1 X131.025 Y139.333 E19.75295
G1 X131.094 Y139.359 E19.7554
G1 X131.462 Y139.48 E19.76828
G1 X131.761 Y139.568 E19.77865
G1 X132.074 Y139.642 E19.78935
G1 X132.144 Y139.659 E19.79174
G1 X132.496 Y139.718 E19.80361
G1 X133.057 Y139.774 E19.82236
G1 X133.418 Y139.787 E19.83438
G1 X133.701 Y139.777 E19.8438
G1 X134.053 Y139.752 E19.85554
G1 X134.325 Y139.717 E19.86466
G1 X134.655 Y139.661 E19.87579
G1 X134.989 Y139.584 E19.88719
G1 X135.054 Y139.567 E19.88942
G1 X135.387 Y139.469 E19.90097
G1 X135.721 Y139.358 E19.91268
G1 X136.113 Y139.205 E19.92667
G1 X136.179 Y139.178 E19.92904
G1 X136.517 Y139.023 E19.94141
G1 X136.75 Y138.891 E19.95032
G1 X137.195 Y138.59 E19.96819
G1 X137.627 Y138.261 E19.98625
G1 X138.09 Y137.858 E20.00666
G1 X138.261 Y137.675 E20.01499
G1 X138.678 Y137.137 E20.03763
G1 X138.708 Y137.095 E20.03935
G1 X139.087 Y136.521 E20.06223
G1 X139.222 Y136.283 E20.07133
G1 X139.21 Y136.563 E20.08065
G1 X139.224 Y136.678 E20.0845
G1 X139.095 Y136.966 E20.095
G1 X139.009 Y137.328 E20.10737
G1 X139.001 Y137.495 E20.11293
G1 X138.767 Y137.9 E20.12849
G1 X138.479 Y138.197 E20.14225
G1 X138.414 Y138.27 E20.1455
G1 X137.61 Y139.278 E20.18839
G1 X136.985 Y139.71 E20.21366
G1 X136.092 Y140.267 E20.24866
G1 X135.798 Y140.47 E20.26055
G1 X135.296 Y140.631 E20.27808
G1 X134.668 Y140.772 E20.29949
G1 X133.414 Y140.934 E20.34154
G1 X132.12 Y140.768 E20.38493
G1 X131.448 Y140.609 E20.4079
G1 X131.197 Y140.53 E20.41665
G1 X130.921 Y140.439 E20.42632
G1 X130.834 Y140.406 E20.42941
G1 X130.301 Y140.036 E20.45099
G0 F1080 X129.643 Y139.581
G0 F6000 X129.37 Y139.879
G1 F1200 X129.188 Y139.655 E20.46059
G1 X129.151 Y139.613 E20.46246
G1 X128.035 Y138.472 E20.51554
G1 X127.592 Y137.904 E20.5395
G1 X127.552 Y137.84 E20.54201
G1 X127.425 Y137.612 E20.55069
G1 X127.412 Y137.359 E20.55911
G1 X127.361 Y137.144 E20.56646
G1 X127.192 Y136.766 E20.58024
G1 X127.217 Y136.543 E20.5877
G1 X127.192 Y136.291 E20.59612
G1 X126.838 Y135.19 E20.63459
G1 X126.822 Y134.382 E20.66147
G1 X126.998 Y133.949 E20.67701
G1 X127.044 Y133.492 E20.69229
G1 X127.178 Y133.218 E20.70243
G1 X127.204 Y133.156 E20.70467
G1 X127.519 Y132.272 E20.73588
G1 X127.504 Y132.332 E20.73794
G1 X127.443 Y132.638 E20.74832
G1 X127.437 Y132.69 E20.75006
G1 X127.372 Y133.519 E20.77772
G1 X127.37 Y133.622 E20.78114
G1 X127.392 Y134.237 E20.80161
G1 X127.439 Y134.541 E20.81184
G1 X127.457 Y134.627 E20.81476
G1 X127.665 Y135.383 E20.84084
G1 X127.692 Y135.463 E20.84365
G1 X127.904 Y136.016 E20.86335
G1 X128.03 Y136.254 E20.87231
G1 X128.461 Y136.908 E20.89836
G1 X128.858 Y137.42 E20.91991
G1 X128.976 Y137.545 E20.92562
G1 X129.461 Y137.968 E20.94703
G1 X129.882 Y138.289 E20.96464
G1 X130.285 Y138.559 E20.98077
G1 X130.457 Y138.658 E20.98737
G1 X130.847 Y138.834 E21.0016
G1 X131.219 Y138.979 E21.01488
G1 X131.575 Y139.097 E21.02736
G1 X131.874 Y139.185 E21.03772
G1 X132.165 Y139.253 E21.04766
G1 X132.212 Y139.264 E21.04927
G1 X132.552 Y139.322 E21.06074
G1 X133.074 Y139.375 E21.07819
G1 X133.37 Y139.387 E21.08804
G1 X133.654 Y139.379 E21.09749
G1 X134.002 Y139.355 E21.1091
G1 X134.274 Y139.32 E21.11822
G1 X134.588 Y139.266 E21.12881
G1 X134.941 Y139.184 E21.14087
G1 X135.26 Y139.09 E21.15193
G1 X135.595 Y138.979 E21.16367
G1 X136.012 Y138.814 E21.17858
G1 X136.384 Y138.642 E21.19221
G1 X136.526 Y138.56 E21.19767
G1 X136.966 Y138.262 E21.21534
G1 X137.374 Y137.951 E21.2324
G1 X137.827 Y137.556 E21.25239
G1 X137.945 Y137.43 E21.25814
G1 X138.351 Y136.908 E21.28013
G1 X138.753 Y136.301 E21.30435
G1 X138.903 Y136.024 E21.31482
G1 X139.123 Y135.457 E21.33505
G1 X139.151 Y135.372 E21.33803
G1 X139.356 Y134.624 E21.36382
G1 X139.404 Y134.358 E21.37281
G1 X139.419 Y134.24 E21.37677
G1 X139.443 Y133.625 E21.39724
G1 X139.441 Y133.514 E21.40093
G1 X139.413 Y133.182 E21.41202
G1 X139.372 Y132.653 E21.42966
G1 X139.307 Y132.334 E21.44049
G1 X139.28 Y132.232 E21.444
G1 X139.617 Y133.175 E21.47731
G1 X139.644 Y133.239 E21.47962
G1 X139.772 Y133.497 E21.4892
G1 X139.816 Y133.955 E21.5045
G1 X139.879 Y134.171 E21.51198
G1 X139.993 Y134.394 E21.52031
G1 X139.974 Y135.188 E21.54673
G1 X139.631 Y136.264 E21.58429
G1 X139.607 Y136.516 E21.59271
G1 X139.634 Y136.741 E21.60025
G1 X139.46 Y137.129 E21.61439
G1 X139.409 Y137.346 E21.62181
G1 X139.397 Y137.609 E21.63056
G1 X139.087 Y138.145 E21.65116
G1 X138.766 Y138.476 E21.66649
G1 X138.727 Y138.52 E21.66845
G1 X137.887 Y139.573 E21.71325
G1 X137.198 Y140.049 E21.7411
G1 X136.279 Y140.623 E21.77714
G1 X135.977 Y140.832 E21.78936
G1 X135.682 Y140.929 E21.79968
G1 X135.402 Y141.017 E21.80945
G1 X134.74 Y141.166 E21.83202
G1 X133.415 Y141.338 E21.87646
G1 X132.054 Y141.163 E21.9221
G1 X131.329 Y140.992 E21.94687
G1 X131.084 Y140.914 E21.95542
G1 X130.799 Y140.82 E21.9654
G1 X130.643 Y140.76 E21.97096
G1 X130.027 Y140.334 E21.99587
G0 F1080 X129.37 Y139.879
G0 F6000 X129.093 Y140.174
G1 F1200 X128.865 Y139.893 E22.00791
G1 X127.737 Y138.74 E22.06156
G1 X127.263 Y138.132 E22.0872
G1 X127.207 Y138.043 E22.0907
G1 X127.031 Y137.726 E22.10276
G1 X127.013 Y137.379 E22.11431
G1 X126.996 Y137.307 E22.11677
G1 X126.782 Y136.83 E22.13416
G1 X126.82 Y136.498 E22.14528
G1 X126.811 Y136.414 E22.14809
G1 X126.439 Y135.257 E22.18851
G1 X126.42 Y134.289 E22.22071
G1 X126.579 Y133.979 E22.2323
G1 X126.6 Y133.908 E22.23476
G1 X126.653 Y133.383 E22.25231
G1 X126.819 Y133.043 E22.26489
G1 X127.321 Y131.635 E22.31461
G1 X127.386 Y131.485 E22.32005
G1 X127.538 Y131.193 E22.331
G1 X127.728 Y130.874 E22.34335
G1 X128.048 Y130.585 E22.35769
G1 X128.977 Y129.662 E22.40125
G1 X129.973 Y129.112 E22.43909
G1 X130.339 Y129.039 E22.4515
G1 X130.371 Y129.03 E22.45261
G1 X130.622 Y128.934 E22.46154
G1 X130.572 Y128.961 E22.46343
G1 X129.823 Y129.457 E22.49331
G1 X129.772 Y129.497 E22.49547
G1 X129.111 Y130.104 E22.52532
G1 X128.909 Y130.349 E22.53588
G1 X128.538 Y130.889 E22.55767
G1 X128.503 Y130.946 E22.55989
G1 X128.114 Y131.745 E22.58945
G1 X128.096 Y131.794 E22.59119
G1 X127.908 Y132.366 E22.61121
G1 X127.896 Y132.412 E22.6128
G1 X127.844 Y132.668 E22.62148
G1 X127.836 Y132.721 E22.62327
G1 X127.77 Y133.566 E22.65146
G1 X127.792 Y134.223 E22.67332
G1 X127.833 Y134.472 E22.68171
G1 X127.843 Y134.521 E22.68338
G1 X128.055 Y135.289 E22.70988
G1 X128.267 Y135.849 E22.72979
G1 X128.4 Y136.09 E22.73895
G1 X128.795 Y136.687 E22.76276
G1 X129.185 Y137.188 E22.78387
G1 X129.239 Y137.244 E22.78646
G1 X129.701 Y137.648 E22.80687
G1 X130.146 Y137.985 E22.82544
G1 X130.493 Y138.217 E22.83932
G1 X130.623 Y138.294 E22.84435
G1 X130.993 Y138.461 E22.85785
G1 X131.344 Y138.599 E22.87039
G1 X131.688 Y138.713 E22.88245
G1 X132.007 Y138.806 E22.8935
G1 X132.279 Y138.87 E22.90279
G1 X132.617 Y138.927 E22.91419
G1 X133.09 Y138.975 E22.93001
G1 X133.386 Y138.987 E22.93986
G1 X133.646 Y138.979 E22.94851
G1 X133.951 Y138.958 E22.95868
G1 X134.246 Y138.919 E22.96858
G1 X134.521 Y138.872 E22.97786
G1 X134.828 Y138.8 E22.98834
G1 X135.134 Y138.71 E22.99895
G1 X135.486 Y138.592 E23.0113
G1 X135.845 Y138.451 E23.02413
G1 X136.195 Y138.29 E23.03694
G1 X136.303 Y138.228 E23.04108
G1 X136.571 Y138.046 E23.05186
G1 X136.712 Y137.952 E23.0575
G1 X137.127 Y137.636 E23.07484
G1 X137.564 Y137.255 E23.09413
G1 X137.63 Y137.184 E23.09735
G1 X138.037 Y136.659 E23.11945
G1 X138.426 Y136.069 E23.14295
G1 X138.547 Y135.837 E23.15165
G1 X138.75 Y135.313 E23.17034
G1 X138.765 Y135.266 E23.17199
G1 X138.974 Y134.499 E23.19843
G1 X139.017 Y134.247 E23.20693
G1 X139.043 Y133.61 E23.22813
G1 X139.042 Y133.547 E23.23023
G1 X139.014 Y133.215 E23.24131
G1 X138.976 Y132.71 E23.25815
G1 X138.916 Y132.419 E23.26804
G1 X138.906 Y132.374 E23.26957
G1 X138.709 Y131.777 E23.29048
G1 X138.689 Y131.728 E23.29224
G1 X138.3 Y130.93 E23.32177
G1 X138.272 Y130.886 E23.3235
G1 X137.894 Y130.338 E23.34564
G1 X137.733 Y130.14 E23.35413
G1 X137.688 Y130.091 E23.35634
G1 X137.023 Y129.483 E23.38631
G1 X136.975 Y129.447 E23.38831
G1 X136.626 Y129.218 E23.40219
G1 X136.239 Y128.959 E23.41768
G1 X136.154 Y128.915 E23.42086
G1 X136.442 Y129.023 E23.43109
G1 X136.469 Y129.031 E23.43203
G1 X136.842 Y129.113 E23.44473
G1 X137.83 Y129.653 E23.48218
G1 X139.091 Y130.882 E23.54075
G1 X139.23 Y131.119 E23.54989
G1 X139.485 Y131.616 E23.56847
G1 X140.003 Y133.062 E23.61955
G1 X140.163 Y133.385 E23.63154
G1 X140.214 Y133.916 E23.64928
G1 X140.235 Y133.988 E23.65178
G1 X140.396 Y134.302 E23.66351
G1 X140.373 Y135.254 E23.69519
G1 X140.012 Y136.385 E23.73467
G1 X140.004 Y136.469 E23.73748
G1 X140.044 Y136.803 E23.74867
G1 X139.825 Y137.292 E23.76649
G1 X139.808 Y137.365 E23.76898
G1 X139.791 Y137.727 E23.78104
G1 X139.41 Y138.388 E23.80641
G1 X139.04 Y138.769 E23.82408
G1 X138.164 Y139.868 E23.87082
G1 X137.418 Y140.383 E23.90097
G1 X136.515 Y140.946 E23.93636
G1 X136.158 Y141.194 E23.95082
G1 X135.809 Y141.308 E23.96303
G1 X135.502 Y141.405 E23.97374
G1 X134.805 Y141.561 E23.9975
G1 X133.415 Y141.742 E24.04412
G1 X131.987 Y141.558 E24.09201
G1 X131.226 Y141.378 E24.11802
G1 X130.956 Y141.293 E24.12743
G1 X130.656 Y141.194 E24.13794
G1 X130.458 Y141.118 E24.14499
G1 X129.751 Y140.629 E24.17358
G0 F1080 X129.093 Y140.174
G1 F1500 E14.17358
G0 F6000 X127.377 Y134.56
G0 X127.306 Y133.541
G0 X127.433 Y132.479
G0 X132.245 Y102.181
G1 F1500 E24.17358
G1 F1200 X131.487 Y102.041 E24.19922
G1 X131.407 Y102.023 E24.20195
G1 X130.642 Y101.78 E24.22865
G1 X130.08 Y101.532 E24.24908
G1 X129.884 Y101.443 E24.25624
G1 X129.179 Y101.014 E24.28368
G1 X128.478 Y100.467 E24.31326
G1 X127.95 Y99.939 E24.33809
G1 X127.86 Y99.828 E24.34285
G1 X127.408 Y99.252 E24.3672
G1 X126.953 Y98.495 E24.39658
G1 X126.631 Y97.778 E24.42272
G1 X126.373 Y96.944 E24.45175
G1 X126.225 Y96.135 E24.47911
G1 X126.21 Y95.941 E24.48558
G1 X126.176 Y95.362 E24.50487
G1 X126.176 Y95.271 E24.5079
G1 X126.222 Y94.54 E24.53226
G1 X126.226 Y94.471 E24.53456
G1 X126.36 Y93.753 E24.55885
G1 X126.447 Y93.278 E24.57491
G1 X126.965 Y92.09 E24.61802
G1 X127.421 Y91.339 E24.64724
G1 X127.934 Y90.684 E24.67491
G1 X128.434 Y90.187 E24.69836
G1 X128.53 Y90.102 E24.70262
G1 X129.154 Y89.614 E24.72897
G1 X129.888 Y89.164 E24.75761
G1 X130.638 Y88.825 E24.78498
G1 X131.429 Y88.579 E24.81253
G1 X131.468 Y88.569 E24.81387
G1 X132.244 Y88.427 E24.84011
G1 X132.385 Y88.414 E24.84482
G1 X133.064 Y88.374 E24.86744
G1 X133.16 Y88.374 E24.87064
G1 X133.926 Y88.421 E24.89616
G1 X134.625 Y88.551 E24.91981
G1 X135.209 Y88.662 E24.93958
G1 X136.348 Y89.178 E24.98117
G1 X137.061 Y89.608 E25.00886
G1 X137.724 Y90.133 E25.03699
G1 X138.276 Y90.686 E25.06298
G1 X138.84 Y91.412 E25.09356
G1 X139.24 Y92.075 E25.11931
G1 X139.584 Y92.844 E25.14733
G1 X139.837 Y93.65 E25.17543
G1 X139.983 Y94.441 E25.20218
G1 X139.987 Y94.474 E25.20329
G1 X140.036 Y95.289 E25.23044
G1 X140.036 Y95.341 E25.23217
G1 X139.985 Y96.15 E25.25913
G1 X139.851 Y96.889 E25.28411
G1 X139.832 Y96.968 E25.28681
G1 X139.582 Y97.775 E25.31491
G1 X139.334 Y98.325 E25.33498
G1 X139.245 Y98.523 E25.3422
G1 X138.811 Y99.243 E25.37016
G1 X138.276 Y99.925 E25.39899
G1 X137.751 Y100.447 E25.42362
G1 X137.715 Y100.48 E25.42524
G1 X137.037 Y101.012 E25.4539
G1 X136.325 Y101.443 E25.48159
G1 X135.566 Y101.784 E25.50926
G1 X134.758 Y102.034 E25.53739
G1 X133.941 Y102.182 E25.56501
G1 X133.826 Y102.193 E25.56885
G1 X133.147 Y102.234 E25.59148
G1 X133.085 Y102.234 E25.59354
G1 X133.044 Y102.231 E25.59491
G0 F1080 X132.245 Y102.181
G0 F6000 X132.292 Y101.783
G1 F1200 X131.583 Y101.652 E25.61889
G1 X131.502 Y101.634 E25.62165
G1 X130.784 Y101.406 E25.6467
G1 X130.072 Y101.09 E25.67261
G1 X129.406 Y100.685 E25.69854
G1 X128.746 Y100.169 E25.7264
G1 X128.249 Y99.672 E25.74978
G1 X128.17 Y99.575 E25.75394
G1 X127.739 Y99.025 E25.77718
G1 X127.306 Y98.305 E25.80512
G1 X127.005 Y97.634 E25.82958
G1 X126.762 Y96.847 E25.85698
G1 X126.624 Y96.093 E25.88247
G1 X126.608 Y95.904 E25.88878
G1 X126.576 Y95.353 E25.90714
G1 X126.576 Y95.277 E25.90967
G1 X126.622 Y94.526 E25.93469
G1 X126.755 Y93.813 E25.95882
G1 X126.831 Y93.399 E25.97282
G1 X127.323 Y92.271 E26.01375
G1 X127.748 Y91.571 E26.04098
G1 X128.234 Y90.95 E26.06721
G1 X128.716 Y90.471 E26.08981
G1 X128.784 Y90.411 E26.09283
G1 X129.381 Y89.945 E26.11802
G1 X130.072 Y89.521 E26.14498
G1 X130.784 Y89.199 E26.17097
G1 X131.559 Y88.959 E26.19796
G1 X132.297 Y88.823 E26.22292
G1 X132.408 Y88.813 E26.22662
G1 X133.07 Y88.774 E26.24868
G1 X133.152 Y88.774 E26.25141
G1 X133.877 Y88.818 E26.27556
G1 X134.559 Y88.946 E26.29864
G1 X135.085 Y89.045 E26.31645
G1 X136.161 Y89.533 E26.35574
G1 X136.836 Y89.94 E26.38196
G1 X137.456 Y90.431 E26.40826
G1 X137.977 Y90.952 E26.43277
G1 X138.506 Y91.633 E26.46145
G1 X138.889 Y92.269 E26.48614
G1 X139.211 Y92.988 E26.51235
G1 X139.448 Y93.745 E26.53873
G1 X139.589 Y94.51 E26.5646
G1 X139.636 Y95.296 E26.59079
G1 X139.636 Y95.332 E26.59199
G1 X139.597 Y95.972 E26.61331
G1 X139.586 Y96.111 E26.61795
G1 X139.465 Y96.782 E26.64063
G1 X139.442 Y96.876 E26.64385
G1 X139.208 Y97.631 E26.67014
G1 X138.967 Y98.166 E26.68965
G1 X138.894 Y98.329 E26.69559
G1 X138.479 Y99.017 E26.72232
G1 X137.972 Y99.664 E26.74966
G1 X137.489 Y100.144 E26.77231
G1 X137.452 Y100.178 E26.77398
G1 X136.806 Y100.685 E26.80129
G1 X136.142 Y101.087 E26.82711
G1 X135.422 Y101.41 E26.85335
G1 X134.66 Y101.646 E26.87989
G1 X133.893 Y101.785 E26.90581
G1 X133.799 Y101.794 E26.90895
G1 X133.14 Y101.834 E26.93091
G1 X133.094 Y101.834 E26.93244
G1 X133.091 Y101.833 E26.93255
G0 F1080 X132.292 Y101.783
G0 F6000 X132.425 Y101.405
G1 F1200 X133.088 Y101.444 E26.95464
G1 X133.16 Y101.443 E26.95703
G1 X133.837 Y101.401 E26.97959
G1 X133.895 Y101.393 E26.98154
G1 X134.538 Y101.275 E27.00328
G1 X134.832 Y101.187 E27.01349
G1 X135.288 Y101.045 E27.02937
G1 X135.333 Y101.027 E27.03099
G1 X135.934 Y100.757 E27.0529
G1 X136.148 Y100.629 E27.06119
G1 X136.591 Y100.361 E27.07841
G1 X137.132 Y99.942 E27.10117
G1 X137.368 Y99.712 E27.11213
G1 X137.689 Y99.393 E27.12719
G1 X137.876 Y99.157 E27.1372
G1 X138.156 Y98.799 E27.15232
G1 X138.516 Y98.209 E27.17531
G1 X138.652 Y97.919 E27.18596
G1 X138.827 Y97.535 E27.19999
G1 X138.866 Y97.431 E27.20369
G1 X139.063 Y96.796 E27.2258
G1 X139.08 Y96.722 E27.22833
G1 X139.195 Y96.093 E27.24959
G1 X139.207 Y95.985 E27.25321
G1 X139.246 Y95.322 E27.2753
G1 X139.245 Y95.25 E27.27769
G1 X139.203 Y94.573 E27.30025
G1 X139.195 Y94.515 E27.3022
G1 X139.077 Y93.872 E27.32394
G1 X138.989 Y93.577 E27.33418
G1 X138.859 Y93.156 E27.34884
G1 X138.829 Y93.077 E27.35165
G1 X138.559 Y92.476 E27.37356
G1 X138.42 Y92.243 E27.38259
G1 X138.163 Y91.819 E27.39908
G1 X137.744 Y91.278 E27.42184
G1 X137.506 Y91.034 E27.43317
G1 X137.22 Y90.745 E27.4467
G1 X136.962 Y90.536 E27.45774
G1 X136.627 Y90.273 E27.47191
G1 X136.356 Y90.105 E27.48251
G1 X136.011 Y89.894 E27.49596
G1 X135.715 Y89.755 E27.50684
G1 X135.337 Y89.583 E27.52065
G1 X135.233 Y89.544 E27.52435
G1 X134.598 Y89.347 E27.54646
G1 X134.524 Y89.33 E27.54898
G1 X133.895 Y89.215 E27.57025
G1 X133.787 Y89.203 E27.57387
G1 X133.124 Y89.164 E27.59595
G1 X133.052 Y89.165 E27.59835
G1 X132.375 Y89.207 E27.62091
G1 X132.317 Y89.215 E27.62286
G1 X131.674 Y89.333 E27.6446
G1 X131.38 Y89.421 E27.65481
G1 X130.924 Y89.563 E27.67069
G1 X130.879 Y89.581 E27.67231
G1 X130.302 Y89.839 E27.69333
G1 X130.202 Y89.893 E27.69711
G1 X129.628 Y90.243 E27.71947
G1 X129.414 Y90.41 E27.7285
G1 X129.082 Y90.665 E27.74242
G1 X128.844 Y90.896 E27.75345
G1 X128.523 Y91.215 E27.7685
G1 X128.336 Y91.451 E27.77852
G1 X128.056 Y91.809 E27.79363
G1 X127.696 Y92.399 E27.81662
G1 X127.56 Y92.689 E27.82728
G1 X127.385 Y93.073 E27.84131
G1 X127.346 Y93.177 E27.84501
G1 X127.149 Y93.812 E27.86712
G1 X127.132 Y93.886 E27.86964
G1 X127.017 Y94.515 E27.89091
G1 X127.005 Y94.623 E27.89453
G1 X126.966 Y95.286 E27.91662
G1 X126.967 Y95.358 E27.91901
G1 X127.009 Y96.035 E27.94157
G1 X127.017 Y96.093 E27.94352
G1 X127.135 Y96.736 E27.96526
G1 X127.223 Y97.03 E27.97547
G1 X127.365 Y97.486 E27.99135
G1 X127.383 Y97.531 E27.99297
G1 X127.653 Y98.132 E28.01488
G1 X127.781 Y98.346 E28.02317
G1 X128.049 Y98.789 E28.04039
G1 X128.468 Y99.33 E28.06315
G1 X128.696 Y99.565 E28.07404
G1 X129.02 Y99.888 E28.08926
G1 X129.067 Y99.929 E28.09133
G1 X129.587 Y100.336 E28.1133
G1 X129.841 Y100.494 E28.12325
G1 X130.201 Y100.714 E28.13728
G1 X130.497 Y100.853 E28.14816
G1 X130.875 Y101.025 E28.16197
G1 X130.979 Y101.064 E28.16566
G1 X131.614 Y101.261 E28.18778
G1 X131.636 Y101.266 E28.18853
G0 F1080 X131.688 Y101.278
G0 X132.317 Y101.393
G0 X132.425 Y101.405
G0 F6000 X132.408 Y101.002
G1 F1200 X133.076 Y101.044 E28.21079
G1 X133.136 Y101.044 E28.21278
G1 X133.804 Y101.002 E28.23505
G1 X133.823 Y101 E28.23568
G1 X134.486 Y100.877 E28.25811
G1 X135.17 Y100.662 E28.28196
G1 X135.751 Y100.401 E28.30314
G1 X136.34 Y100.047 E28.326
G1 X136.559 Y99.879 E28.33518
G1 X136.899 Y99.616 E28.34947
G1 X137.392 Y99.126 E28.37259
G1 X137.558 Y98.914 E28.38155
G1 X137.836 Y98.559 E28.39654
G1 X138.183 Y97.985 E28.41885
G1 X138.47 Y97.353 E28.44194
G1 X138.672 Y96.71 E28.46436
G1 X138.687 Y96.65 E28.46641
G1 X138.804 Y96.002 E28.48831
G1 X138.846 Y95.334 E28.51058
G1 X138.846 Y95.274 E28.51257
G1 X138.804 Y94.606 E28.53483
G1 X138.802 Y94.587 E28.53547
G1 X138.679 Y93.924 E28.5579
G1 X138.605 Y93.692 E28.566
G1 X138.47 Y93.255 E28.58121
G1 X138.208 Y92.668 E28.60259
G1 X138.08 Y92.455 E28.61085
G1 X137.828 Y92.038 E28.62706
G1 X137.418 Y91.511 E28.64927
G1 X136.925 Y91.016 E28.6725
G1 X136.392 Y90.596 E28.69507
G1 X135.802 Y90.235 E28.71808
G1 X135.553 Y90.121 E28.72719
G1 X135.155 Y89.94 E28.74173
G1 X134.512 Y89.738 E28.76415
G1 X134.452 Y89.723 E28.7662
G1 X133.804 Y89.606 E28.7881
G1 X133.136 Y89.564 E28.81037
G1 X133.076 Y89.564 E28.81236
G1 X132.408 Y89.606 E28.83462
G1 X132.389 Y89.608 E28.83526
G1 X131.726 Y89.731 E28.85769
G1 X131.042 Y89.946 E28.88153
G1 X130.451 Y90.211 E28.90308
G1 X130.41 Y90.234 E28.90464
G1 X129.857 Y90.571 E28.92618
G1 X129.658 Y90.727 E28.93459
G1 X129.314 Y90.992 E28.94903
G1 X128.82 Y91.482 E28.97217
G1 X128.654 Y91.694 E28.98113
G1 X128.376 Y92.049 E28.99613
G1 X128.029 Y92.623 E29.01844
G1 X127.742 Y93.255 E29.04152
G1 X127.54 Y93.898 E29.06394
G1 X127.525 Y93.958 E29.066
G1 X127.408 Y94.606 E29.0879
G1 X127.366 Y95.274 E29.11016
G1 X127.366 Y95.334 E29.11215
G1 X127.408 Y96.002 E29.13442
G1 X127.41 Y96.021 E29.13505
G1 X127.533 Y96.684 E29.15748
G1 X127.748 Y97.368 E29.18133
G1 X128.009 Y97.949 E29.20251
G1 X128.363 Y98.538 E29.22537
G1 X128.531 Y98.757 E29.23455
G1 X128.794 Y99.097 E29.24884
G1 X129.297 Y99.6 E29.2725
G1 X129.839 Y100.025 E29.29541
G1 X130.425 Y100.381 E29.31822
G1 X131.057 Y100.668 E29.3413
G1 X131.623 Y100.846 E29.36104
G0 F1080 X131.7 Y100.87
G0 X131.76 Y100.885
G0 X132.408 Y101.002
G0 F6000 X132.457 Y100.605
;TYPE:SUPPORT-INTERFACE
G1 F1200 X131.836 Y100.492 E29.38203
G1 X131.816 Y100.487 E29.38272
G1 X131.225 Y100.302 E29.40331
G1 X131.194 Y100.291 E29.40441
G1 X130.822 Y100.122 E29.418
G1 X130.631 Y100.037 E29.42495
G1 X130.613 Y100.028 E29.42562
G1 X130.257 Y99.811 E29.43949
G1 X130.079 Y99.705 E29.44638
G1 X130.058 Y99.688 E29.44728
G1 X129.567 Y99.304 E29.46801
G1 X129.548 Y99.286 E29.46888
G1 X129.262 Y98.999 E29.48235
G1 X129.118 Y98.857 E29.48908
G1 X129.092 Y98.829 E29.49035
G1 X128.846 Y98.51 E29.50375
G1 X128.709 Y98.337 E29.51109
G1 X128.697 Y98.318 E29.51184
G1 X128.465 Y97.932 E29.52682
G1 X128.382 Y97.8 E29.532
G1 X128.369 Y97.774 E29.53297
G1 X128.117 Y97.211 E29.55349
G1 X128.108 Y97.185 E29.5544
G1 X127.987 Y96.793 E29.56805
G1 X127.928 Y96.61 E29.57444
G1 X127.919 Y96.578 E29.57555
G1 X127.804 Y95.949 E29.59681
G1 X127.803 Y95.937 E29.59721
G1 X127.804 Y95.937 E29.59725
G1 X127.766 Y95.31 E29.61814
G1 X127.766 Y95.298 E29.61854
G1 X127.804 Y94.671 E29.63943
G1 X127.803 Y94.671 E29.63946
G1 X127.804 Y94.659 E29.63986
G1 X127.919 Y94.03 E29.66113
G1 X127.922 Y94.018 E29.66154
G1 X128.108 Y93.423 E29.68228
G1 X128.12 Y93.389 E29.68348
G1 X128.288 Y93.02 E29.69696
G1 X128.369 Y92.837 E29.70362
G1 X128.386 Y92.804 E29.70485
G1 X128.599 Y92.455 E29.71845
G1 X128.702 Y92.281 E29.72518
G1 X128.717 Y92.261 E29.72601
G1 X129.049 Y91.84 E29.74384
G1 X129.048 Y91.837 E29.74395
G1 X129.091 Y91.78 E29.74632
G1 X129.118 Y91.75 E29.74766
G1 X129.408 Y91.463 E29.76123
G1 X129.56 Y91.308 E29.76845
G1 X129.579 Y91.291 E29.7693
G1 X129.801 Y91.12 E29.77862
G1 X129.805 Y91.122 E29.77877
G1 X130.057 Y90.92 E29.78951
G1 X130.087 Y90.899 E29.79073
G1 X130.61 Y90.581 E29.81109
G1 X130.635 Y90.567 E29.81204
G1 X131.199 Y90.315 E29.83259
G1 X131.225 Y90.306 E29.8335
G1 X131.617 Y90.185 E29.84715
G1 X131.8 Y90.126 E29.85354
G1 X131.825 Y90.119 E29.85441
G1 X132.457 Y90.003 E29.87578
G1 X132.473 Y90.001 E29.87632
G1 X132.473 Y90.002 E29.87635
G1 X133.1 Y89.964 E29.89724
G1 X133.112 Y89.964 E29.89764
G1 X133.739 Y90.002 E29.91853
G1 X133.739 Y90.001 E29.91857
G1 X133.755 Y90.003 E29.9191
G1 X134.376 Y90.116 E29.9401
G1 X134.396 Y90.121 E29.94078
G1 X134.987 Y90.306 E29.96138
G1 X135.018 Y90.317 E29.96247
G1 X135.39 Y90.486 E29.97606
G1 X135.581 Y90.571 E29.98302
G1 X135.599 Y90.58 E29.98369
G1 X135.948 Y90.793 E29.99728
G1 X136.127 Y90.899 E30.0042
G1 X136.156 Y90.92 E30.00539
G1 X136.474 Y91.171 E30.01887
G1 X136.641 Y91.299 E30.02587
G1 X136.652 Y91.308 E30.02634
G1 X136.945 Y91.604 E30.04019
G1 X137.093 Y91.749 E30.04708
G1 X137.12 Y91.779 E30.04843
G1 X137.363 Y92.094 E30.06166
G1 X137.499 Y92.266 E30.06895
G1 X137.515 Y92.29 E30.06991
G1 X137.74 Y92.666 E30.08448
G1 X137.836 Y92.819 E30.09049
G1 X137.842 Y92.832 E30.09097
G1 X138.095 Y93.397 E30.11156
G1 X138.104 Y93.423 E30.11247
G1 X138.224 Y93.813 E30.12604
G1 X138.284 Y93.998 E30.13251
G1 X138.29 Y94.018 E30.13321
G1 X138.408 Y94.659 E30.15489
G1 X138.409 Y94.671 E30.15529
G1 X138.408 Y94.671 E30.15532
G1 X138.446 Y95.298 E30.17621
G1 X138.446 Y95.31 E30.17661
G1 X138.408 Y95.937 E30.1975
G1 X138.409 Y95.937 E30.19754
G1 X138.408 Y95.949 E30.19794
G1 X138.294 Y96.572 E30.219
G1 X138.29 Y96.59 E30.21962
G1 X138.104 Y97.185 E30.24035
G1 X138.093 Y97.216 E30.24144
G1 X137.924 Y97.588 E30.25503
G1 X137.839 Y97.779 E30.26199
G1 X137.833 Y97.792 E30.26246
G1 X137.613 Y98.153 E30.27652
G1 X137.51 Y98.327 E30.28325
G1 X137.495 Y98.347 E30.28408
G1 X137.163 Y98.768 E30.30191
G1 X137.164 Y98.771 E30.30202
G1 X137.121 Y98.828 E30.30439
G1 X137.095 Y98.857 E30.30569
G1 X136.804 Y99.145 E30.31931
G1 X136.661 Y99.291 E30.3261
G1 X136.631 Y99.318 E30.32745
G1 X136.312 Y99.564 E30.34084
G1 X136.144 Y99.697 E30.34797
G1 X136.12 Y99.713 E30.34893
G1 X135.734 Y99.945 E30.36391
G1 X135.602 Y100.028 E30.3691
G1 X135.578 Y100.04 E30.36999
G1 X135.013 Y100.293 E30.39058
G1 X134.987 Y100.302 E30.39149
G1 X134.595 Y100.423 E30.40514
G1 X134.412 Y100.482 E30.41153
G1 X134.387 Y100.489 E30.4124
G1 X133.755 Y100.605 E30.43377
G1 X133.739 Y100.607 E30.4343
G1 X133.739 Y100.606 E30.43434
G1 X133.254 Y100.636 E30.4505
G0 F1080 X133.112 Y100.644
G0 X133.1 Y100.644
G0 X132.473 Y100.606
G0 X132.473 Y100.607
G0 X132.457 Y100.605
G0 F6000 X132.734 Y98.282
G1 F1200 X132.759 Y98.285 E30.45134
G1 X133.094 Y98.304 E30.4625
G1 X133.118 Y98.304 E30.4633
G1 X133.453 Y98.285 E30.47446
G1 X133.477 Y98.282 E30.47526
G1 X133.816 Y98.221 E30.48672
G1 X133.84 Y98.215 E30.48754
G1 X134.15 Y98.118 E30.49834
G1 X134.172 Y98.109 E30.49913
G1 X134.484 Y97.969 E30.51051
G1 X134.506 Y97.959 E30.51131
G1 X134.79 Y97.788 E30.52234
G1 X134.81 Y97.774 E30.52315
G1 X135.081 Y97.563 E30.53457
G1 X135.099 Y97.547 E30.53537
G1 X135.344 Y97.304 E30.54685
G1 X135.36 Y97.285 E30.54768
G1 X135.561 Y97.031 E30.55845
G1 X135.575 Y97.011 E30.55926
G1 X135.753 Y96.717 E30.57069
G1 X135.765 Y96.695 E30.57153
G1 X135.907 Y96.382 E30.58296
G1 X135.915 Y96.359 E30.58377
G1 X136.017 Y96.035 E30.59507
G1 X136.023 Y96.011 E30.59589
G1 X136.084 Y95.676 E30.60721
G1 X136.087 Y95.651 E30.60805
G1 X136.106 Y95.316 E30.61921
G1 X136.106 Y95.292 E30.62001
G1 X136.087 Y94.957 E30.63117
G1 X136.084 Y94.933 E30.63197
G1 X136.023 Y94.594 E30.64343
G1 X136.017 Y94.57 E30.64425
G1 X135.92 Y94.264 E30.65493
G1 X135.913 Y94.242 E30.6557
G1 X135.767 Y93.915 E30.66761
G1 X135.755 Y93.893 E30.66844
G1 X135.59 Y93.619 E30.67908
G1 X135.576 Y93.599 E30.67989
G1 X135.365 Y93.329 E30.69129
G1 X135.349 Y93.311 E30.69209
G1 X135.106 Y93.066 E30.70357
G1 X135.087 Y93.05 E30.70439
G1 X134.833 Y92.849 E30.71517
G1 X134.813 Y92.835 E30.71598
G1 X134.522 Y92.659 E30.72729
G1 X134.5 Y92.647 E30.72812
G1 X134.185 Y92.504 E30.73963
G1 X134.162 Y92.496 E30.74044
G1 X133.837 Y92.393 E30.75178
G1 X133.813 Y92.387 E30.7526
G1 X133.478 Y92.326 E30.76393
G1 X133.453 Y92.323 E30.76476
G1 X133.118 Y92.304 E30.77592
G1 X133.094 Y92.304 E30.77672
G1 X132.759 Y92.323 E30.78788
G1 X132.735 Y92.326 E30.78869
G1 X132.396 Y92.387 E30.80014
G1 X132.372 Y92.393 E30.80097
G1 X132.062 Y92.49 E30.81177
G1 X132.04 Y92.499 E30.81256
G1 X131.728 Y92.639 E30.82393
G1 X131.706 Y92.649 E30.82474
G1 X131.423 Y92.819 E30.83572
G1 X131.403 Y92.833 E30.83653
G1 X131.131 Y93.045 E30.848
G1 X131.113 Y93.061 E30.8488
G1 X130.868 Y93.304 E30.86028
G1 X130.852 Y93.323 E30.8611
G1 X130.651 Y93.577 E30.87188
G1 X130.637 Y93.597 E30.87269
G1 X130.461 Y93.888 E30.884
G1 X130.449 Y93.91 E30.88483
G1 X130.306 Y94.225 E30.89634
G1 X130.298 Y94.248 E30.89715
G1 X130.195 Y94.573 E30.90849
G1 X130.189 Y94.597 E30.90931
G1 X130.128 Y94.932 E30.92064
G1 X130.125 Y94.957 E30.92148
G1 X130.106 Y95.292 E30.93264
G1 X130.106 Y95.316 E30.93343
G1 X130.125 Y95.651 E30.94459
G1 X130.128 Y95.675 E30.9454
G1 X130.189 Y96.014 E30.95685
G1 X130.195 Y96.038 E30.95768
G1 X130.292 Y96.348 E30.96848
G1 X130.301 Y96.37 E30.96927
G1 X130.441 Y96.682 E30.98065
G1 X130.451 Y96.704 E30.98145
G1 X130.622 Y96.988 E30.99248
G1 X130.636 Y97.008 E30.99329
G1 X130.847 Y97.279 E31.00471
G1 X130.863 Y97.297 E31.00551
G1 X131.106 Y97.542 E31.01699
G1 X131.125 Y97.558 E31.01782
G1 X131.379 Y97.759 E31.02859
G1 X131.399 Y97.773 E31.0294
G1 X131.69 Y97.949 E31.04071
G1 X131.712 Y97.961 E31.04155
G1 X131.962 Y98.075 E31.05068
G0 F1080 X132.027 Y98.104
G0 X132.05 Y98.112
G0 X132.375 Y98.215
G0 X132.399 Y98.221
G0 X132.734 Y98.282
G1 F1500 E21.05068
G0 F6000 X136.181 Y100.685
G0 X133.385 Y127.75
G0 X133.385 Y128.615
G1 F1500 E31.05068
G1 F1200 X133.427 Y128.615 E31.05208
G1 X134.29 Y128.689 E31.08089
G1 X134.333 Y128.697 E31.08234
G1 X135.181 Y128.919 E31.1115
G1 X135.21 Y128.929 E31.11252
G1 X135.998 Y129.282 E31.14124
G1 X136.037 Y129.305 E31.14274
G1 X136.406 Y129.552 E31.15751
G1 X136.755 Y129.781 E31.1714
G1 X136.775 Y129.796 E31.17223
G1 X137.409 Y130.377 E31.20083
G1 X137.427 Y130.398 E31.20175
G1 X137.571 Y130.576 E31.20937
G1 X137.58 Y130.586 E31.20981
G1 X137.938 Y131.106 E31.23081
G1 X137.956 Y131.135 E31.23195
G1 X138.329 Y131.902 E31.26031
G1 X138.334 Y131.914 E31.26075
G1 X138.522 Y132.487 E31.2808
G1 X138.525 Y132.502 E31.28131
G1 X138.574 Y132.724 E31.28887
G1 X138.58 Y132.766 E31.29028
G1 X138.616 Y133.248 E31.30636
G1 X138.643 Y133.564 E31.31691
G1 X138.643 Y133.594 E31.31791
G1 X138.619 Y134.197 E31.33798
G1 X138.616 Y134.222 E31.33882
G1 X138.585 Y134.402 E31.34489
G1 X138.583 Y134.415 E31.34533
G1 X138.379 Y135.16 E31.37102
G1 X138.376 Y135.169 E31.37133
G1 X138.175 Y135.69 E31.38991
G1 X138.176 Y135.69 E31.38994
G1 X138.169 Y135.707 E31.39055
G1 X138.09 Y135.85 E31.39599
G1 X138.081 Y135.866 E31.3966
G1 X137.709 Y136.429 E31.41904
G1 X137.701 Y136.441 E31.41952
G1 X137.314 Y136.938 E31.44047
G1 X137.296 Y136.958 E31.44137
G1 X136.87 Y137.33 E31.46018
G1 X136.859 Y137.339 E31.46065
G1 X136.468 Y137.635 E31.47696
G1 X136.465 Y137.638 E31.4771
G1 X136.258 Y137.772 E31.4853
G1 X136.258 Y137.775 E31.4854
G1 X136.088 Y137.89 E31.49223
G1 X136.075 Y137.897 E31.49272
G1 X136.031 Y137.924 E31.49444
G1 X136.011 Y137.935 E31.4952
G1 X135.684 Y138.085 E31.50716
G1 X135.674 Y138.088 E31.50751
G1 X135.345 Y138.217 E31.51926
G1 X135.336 Y138.221 E31.51959
G1 X135.008 Y138.33 E31.53109
G1 X135.004 Y138.331 E31.53122
G1 X134.717 Y138.416 E31.54118
G1 X134.442 Y138.479 E31.55056
G1 X134.437 Y138.481 E31.55074
G1 X134.176 Y138.525 E31.55955
G1 X134.161 Y138.528 E31.56005
G1 X133.915 Y138.56 E31.56831
G1 X133.9 Y138.56 E31.5688
G1 X133.618 Y138.579 E31.5782
G1 X133.41 Y138.587 E31.58513
G1 X133.402 Y138.587 E31.58539
G1 X133.115 Y138.575 E31.59495
G1 X133.097 Y138.573 E31.59555
G1 X132.66 Y138.529 E31.61016
G1 X132.644 Y138.527 E31.61069
G1 X132.369 Y138.48 E31.61997
G1 X132.359 Y138.476 E31.62033
G1 X132.094 Y138.415 E31.62938
G1 X132.088 Y138.414 E31.62958
G1 X131.814 Y138.333 E31.63908
G1 X131.807 Y138.33 E31.63934
G1 X131.478 Y138.222 E31.65085
G1 X131.467 Y138.217 E31.65125
G1 X131.14 Y138.089 E31.66293
G1 X131.125 Y138.083 E31.66347
G1 X130.796 Y137.933 E31.6755
G1 X130.78 Y137.923 E31.67613
G1 X130.707 Y137.879 E31.67896
G1 X130.371 Y137.653 E31.69243
G1 X130.356 Y137.645 E31.69299
G1 X129.958 Y137.34 E31.70967
G1 X129.944 Y137.33 E31.71024
G1 X129.514 Y136.953 E31.72926
G1 X129.485 Y136.922 E31.73068
G1 X129.111 Y136.441 E31.75094
G1 X129.103 Y136.429 E31.75142
G1 X128.732 Y135.867 E31.77382
G1 X128.726 Y135.859 E31.77415
G1 X128.648 Y135.718 E31.77951
G1 X128.631 Y135.681 E31.78086
G1 X128.44 Y135.179 E31.79873
G1 X128.436 Y135.169 E31.79909
G1 X128.229 Y134.415 E31.82509
G1 X128.226 Y134.399 E31.82563
G1 X128.196 Y134.225 E31.83151
G1 X128.192 Y134.196 E31.83248
G1 X128.17 Y133.601 E31.85228
G1 X128.17 Y133.566 E31.85345
G1 X128.233 Y132.762 E31.88027
G1 X128.237 Y132.741 E31.88098
G1 X128.285 Y132.505 E31.88899
G1 X128.294 Y132.472 E31.89013
G1 X128.473 Y131.928 E31.90918
G1 X128.488 Y131.89 E31.91054
G1 X128.86 Y131.129 E31.93871
G1 X128.872 Y131.109 E31.93949
G1 X129.226 Y130.593 E31.9603
G1 X129.232 Y130.586 E31.96061
G1 X129.384 Y130.399 E31.96862
G1 X129.385 Y130.4 E31.96867
G1 X129.413 Y130.368 E31.97008
G1 X130.033 Y129.799 E31.99807
G1 X130.054 Y129.783 E31.99895
G1 X130.784 Y129.3 E32.02806
G1 X130.819 Y129.282 E32.02937
G1 X131.603 Y128.929 E32.05797
G1 X131.632 Y128.919 E32.05899
G1 X132.478 Y128.697 E32.08808
G1 X132.521 Y128.689 E32.08953
G1 X132.588 Y128.683 E32.09177
G0 F1080 X133.385 Y128.615
G0 F6000 X133.383 Y130.493
G1 F1200 X132.703 Y130.573 E32.11454
G1 X132.661 Y130.583 E32.11598
G1 X132.019 Y130.806 E32.13858
G1 X131.981 Y130.824 E32.13998
G1 X131.645 Y131.027 E32.15304
G1 X131.624 Y131.042 E32.1539
G1 X131.39 Y131.227 E32.16382
G1 X131.358 Y131.259 E32.16533
G1 X130.913 Y131.813 E32.18896
G1 X130.893 Y131.845 E32.19021
G1 X130.568 Y132.459 E32.21332
G1 X130.554 Y132.489 E32.21442
G1 X130.528 Y132.566 E32.21712
G1 X130.518 Y132.615 E32.21879
G1 X130.465 Y133.321 E32.24234
G1 X130.465 Y133.346 E32.24317
G1 X130.488 Y133.835 E32.25945
G1 X130.502 Y133.902 E32.26173
G1 X130.648 Y134.26 E32.27459
G1 X130.653 Y134.27 E32.27496
G1 X130.924 Y134.855 E32.2964
G1 X130.968 Y134.915 E32.29888
G1 X131.493 Y135.425 E32.32322
G1 X131.495 Y135.426 E32.32329
G1 X131.675 Y135.595 E32.33151
G1 X131.73 Y135.631 E32.33369
G1 X131.89 Y135.704 E32.33954
G1 X131.895 Y135.707 E32.33974
G1 X132.566 Y135.994 E32.36401
G1 X132.569 Y135.996 E32.36413
G1 X132.681 Y136.04 E32.36813
G1 X132.739 Y136.054 E32.37012
G1 X133.152 Y136.089 E32.3839
G1 X133.162 Y136.089 E32.38423
G1 X133.472 Y136.095 E32.39455
G1 X133.487 Y136.095 E32.39505
G1 X133.868 Y136.073 E32.40774
G1 X133.903 Y136.069 E32.40891
G1 X134.269 Y135.984 E32.42141
G1 X134.304 Y135.972 E32.42264
G1 X135.079 Y135.634 E32.45076
G1 X135.137 Y135.596 E32.45307
G1 X135.341 Y135.404 E32.46238
G1 X135.343 Y135.402 E32.46248
G1 X135.843 Y134.915 E32.48569
G1 X135.887 Y134.855 E32.48817
G1 X136.155 Y134.277 E32.50936
G1 X136.163 Y134.265 E32.50984
G1 X136.309 Y133.9 E32.52291
G1 X136.323 Y133.836 E32.52509
G1 X136.348 Y133.347 E32.54138
G1 X136.348 Y133.321 E32.54224
G1 X136.292 Y132.615 E32.5658
G1 X136.284 Y132.569 E32.56735
G1 X136.257 Y132.487 E32.57022
G1 X136.243 Y132.455 E32.57138
G1 X135.918 Y131.843 E32.59443
G1 X135.898 Y131.811 E32.59569
G1 X135.451 Y131.257 E32.61936
G1 X135.419 Y131.227 E32.62082
G1 X135.191 Y131.043 E32.63056
G1 X135.169 Y131.027 E32.63147
G1 X134.829 Y130.821 E32.64469
G1 X134.789 Y130.803 E32.64615
G1 X134.316 Y130.641 E32.66278
G1 X134.176 Y130.589 E32.66775
G0 F1080 X134.153 Y130.581
G0 X134.107 Y130.571
G0 X133.43 Y130.493
G0 X133.383 Y130.493
G0 F6000 X133.718 Y130.324
G1 F1200 X132.335 Y128.941 E32.7328
G1 X132.43 Y128.916
G1 X128.42 Y132.926 E32.92142
G0 F6000 X128.646 Y132.04
G1 F1200 X130.28 Y133.674 E32.99828
G0 F6000 X130.446 Y134.294
G1 F1200 X128.933 Y135.806 E33.06942
G0 F6000 X128.816 Y135.604
G1 F1200 X131.031 Y137.82 E33.17363
G0 F6000 X130.582 Y137.552
G1 F1200 X132.116 Y136.018 E33.24578
G0 F6000 X132.871 Y136.265
G1 F1200 X134.79 Y138.184 E33.33605
G0 F6000 X133.153 Y138.375
G1 F1200 X138.405 Y133.123 E33.58309
G0 F6000 X138.253 Y134.859
G1 F1200 X136.533 Y133.139 E33.66399
G0 F6000 X136.195 Y131.939
G1 F1200 X137.422 Y130.712 E33.7217
G0 F6000 X135.473 Y129.266
G1 F1200 X134.313 Y130.427 E33.77629
G0 F6000 X131.171 Y131.171
G1 F1200 X130.051 Y130.051 E33.82897
G1 F1500 E23.82897
G0 F6000 X129.333 Y129.269
G0 X130.436 Y128.507
G0 X131.385 Y128.09
G0 X132.404 Y127.832
G0 X133.46 Y127.751
G0 X134.513 Y127.85
G0 X135.527 Y128.124
G0 X136.49 Y128.569
G0 X137.328 Y129.131
G0 X138.27 Y130.064
G0 X138.712 Y130.714
G0 X139.148 Y131.624
G0 X139.439 Y132.666
G0 X139.507 Y133.614
G0 X139.427 Y134.609
G0 X138.948 Y136.086
G0 X138.394 Y136.958
G0 X138.114 Y137.309
G0 X137.569 Y137.867
G0 X135.514 Y135.514
G1 F1500 E33.82897
G1 F1200 X136.972 Y136.972 E33.89755
G1 F1500 E23.89755
G0 F6000 X137.898 Y137.579
G0 X138.843 Y136.274
G0 X139.209 Y135.402
G0 X139.481 Y134.28
G0 X139.477 Y133.176
G0 X139.412 Y132.663
G0 X133.992 Y101.44
G0 X133.8 Y100.393
G1 F1500 E33.89755
G1 F1200 X138.194 Y95.998 E34.10426
G0 F6000 X137.895 Y97.166
G1 F1200 X136.29 Y95.561 E34.17975
G0 F6000 X136.223 Y94.576
G1 F1200 X137.728 Y93.071 E34.25054
G0 F6000 X138.049 Y93.925
G1 F1200 X134.481 Y90.357 E34.41837
G0 F6000 X133.797 Y90.214
G1 F1200 X131.43 Y92.58 E34.52968
G0 F6000 X130.623 Y93.288
G1 F1200 X129.246 Y91.911 E34.59445
G0 F6000 X130.384 Y93.627
G1 F1200 X128.015 Y95.996 E34.70588
G0 F6000 X128.098 Y94.157
G1 F1200 X129.991 Y96.05 E34.79492
G0 F6000 X130.398 Y97.007
G1 F1200 X129.01 Y98.395 E34.86021
G0 F6000 X129.233 Y98.686
G1 F1200 X129.708 Y99.161 E34.88255
G0 F6000 X130.872 Y99.926
G1 F1200 X132.379 Y98.42 E34.95341
G1 X132.358 Y98.417
G1 X134.251 Y100.31 E35.04245
G0 F6000 X136.5 Y99.165
G1 F1200 X135.121 Y97.785 E35.10734
G0 F6000 X134.807 Y92.598
G1 F1200 X136.197 Y91.208 E35.17272
G0 F6000 X132.846 Y92.117
G1 F1200 X131.243 Y90.514 E35.24812
G1 F1500 E25.24812
;MESH:smiley.STL(1)
G0 F6000 X132.719 Y94.213
G0 X132.829 Y94.566
G0 X132.448 Y94.862
G0 X132.318 Y95.206
G0 X132.373 Y95.604
G0 X132.574 Y95.893
G0 X133.355 Y96.236
;TYPE:WALL-INNER
G1 F1500 E35.24812
G1 F1200 X133.104 Y96.27 E35.25655
G1 X132.874 Y96.242 E35.26425
G1 X132.674 Y96.166 E35.27137
G1 X132.463 Y96.025 E35.27981
G1 X132.313 Y95.856 E35.28733
G1 X132.213 Y95.665 E35.2945
G1 X132.147 Y95.417 E35.30303
G1 X132.147 Y95.184 E35.31078
G1 X132.201 Y94.965 E35.31828
G1 X132.311 Y94.754 E35.3262
G1 X132.643 Y94.458 E35.34099
G1 X132.86 Y94.372 E35.34876
G1 X133.109 Y94.338 E35.35711
G1 X133.539 Y94.443 E35.37184
G1 X133.749 Y94.583 E35.38023
G1 X133.899 Y94.752 E35.38775
G1 X133.999 Y94.943 E35.39492
G1 X134.065 Y95.191 E35.40345
G1 X134.065 Y95.424 E35.4112
G1 X134.01 Y95.648 E35.41887
G1 X133.902 Y95.853 E35.42658
G1 X133.886 Y95.867 E35.42729
G0 F1080 X133.566 Y96.151
G0 X133.355 Y96.236
G0 F6000 X133.458 Y96.625
;TYPE:WALL-OUTER
G1 F1200 X133.106 Y96.673 E35.4391
G1 X132.775 Y96.633 E35.45019
G1 X132.493 Y96.525 E35.46024
G1 X132.199 Y96.33 E35.47197
G1 X131.979 Y96.082 E35.483
G1 X131.837 Y95.81 E35.4932
G1 X131.747 Y95.471 E35.50487
G1 X131.747 Y95.137 E35.51598
G1 X131.825 Y94.82 E35.52683
G1 X131.979 Y94.525 E35.5379
G1 X132.181 Y94.298 E35.54801
G1 X132.449 Y94.105 E35.55899
G1 X132.755 Y93.983 E35.56995
G1 X133.106 Y93.935 E35.58173
G1 X133.409 Y93.971 E35.59188
G1 X133.719 Y94.083 E35.60285
G1 X134.013 Y94.278 E35.61458
G1 X134.233 Y94.526 E35.62561
G1 X134.375 Y94.798 E35.63581
G1 X134.465 Y95.137 E35.64748
G1 X134.465 Y95.471 E35.65859
G1 X134.386 Y95.791 E35.66955
G1 X134.233 Y96.083 E35.68051
G1 X134.125 Y96.204 E35.68591
G0 F1080 X134.031 Y96.31
G0 X133.763 Y96.503
G0 X133.458 Y96.625
G0 F6000 X133.346 Y96.2
G0 X133.357 Y95.814
;TYPE:SKIN
G1 F1200 X133.107 Y95.876 E35.69447
G1 X132.853 Y95.817 E35.70315
G1 X132.635 Y95.631 E35.71268
G1 X132.537 Y95.366 E35.72208
G1 X132.568 Y95.105 E35.73082
G1 X132.625 Y94.996 E35.73491
G1 X132.849 Y94.797 E35.74487
G1 X133.088 Y94.734 E35.7531
G1 X133.381 Y94.806 E35.76313
G1 X133.577 Y94.977 E35.77178
G1 X133.675 Y95.242 E35.78118
G1 X133.642 Y95.509 E35.79013
G1 X133.619 Y95.553 E35.79178
G0 F1080 X133.591 Y95.607
G0 X133.357 Y95.814
G0 F6000 X132.711 Y95.375
G1 F1200 X133.028 Y95.693 E35.80671
G0 F6000 X133.432 Y95.531
G1 F1200 X132.883 Y94.982 E35.83254
G0 F6000 X132.379 Y94.478
;TYPE:SKIN
G1 F1200 X132.316 Y94.415 E35.83402
G0 F6000 X132.389 Y94.518
G0 X132.318 Y95.394
G0 X132.455 Y95.758
G0 X132.756 Y96.014
G0 X133.763 Y96.134
G0 X133.815 Y96.197
G1 F1200 X133.964 Y96.063 E35.83665
G0 F6000 X133.927 Y96.085
G1 F1500 E25.83665
;MESH:smiley.STL
G0 F6000 X133.874 Y96.036
G0 X133.4 Y96.412
G0 X136.181 Y100.685
G0 X135.527 Y128.124
G0 X133.407 Y132.091
G0 X133.928 Y132.601
G0 X134.258 Y133.158
G0 X134.132 Y133.586
G0 X133.709 Y134.137
;TYPE:WALL-INNER
G1 F1500 E35.83665
G1 F1200 X133.414 Y134.16 E35.84649
G1 X133.1 Y134.136 E35.85697
G1 X132.834 Y133.963 E35.86752
G1 X132.591 Y133.771 E35.87782
G1 X132.51 Y133.698 E35.88145
G1 X132.421 Y133.367 E35.89285
G1 X132.375 Y133.138 E35.90062
G1 X132.475 Y132.893 E35.90942
G1 X132.765 Y132.471 E35.92645
G1 X133.006 Y132.334 E35.93567
G1 X133.406 Y132.274 E35.94912
G1 X133.805 Y132.333 E35.96254
G1 X134.046 Y132.47 E35.97176
G1 X134.336 Y132.89 E35.98873
G1 X134.437 Y133.141 E35.99773
G1 X134.392 Y133.363 E36.00526
G1 X134.302 Y133.698 E36.0168
G1 X134.245 Y133.749 E36.01935
G0 F1080 X134.222 Y133.77
G0 X133.813 Y134.088
G0 X133.709 Y134.137
G0 F6000 X133.812 Y134.53
;TYPE:WALL-OUTER
G1 F1200 X133.415 Y134.561 E36.03259
G1 X132.994 Y134.529 E36.04663
G1 X132.786 Y134.429 E36.05431
G1 X132.586 Y134.277 E36.06266
G1 X132.333 Y134.077 E36.07339
G1 X132.155 Y133.916 E36.08137
G1 X132.031 Y133.457 E36.09719
G1 X131.959 Y133.098 E36.10937
G1 X132.12 Y132.702 E36.12358
G1 X132.471 Y132.192 E36.14418
G1 X132.652 Y132.054 E36.15175
G1 X132.893 Y131.946 E36.16053
G1 X133.406 Y131.869 E36.17778
G1 X133.918 Y131.945 E36.195
G1 X134.16 Y132.055 E36.20384
G1 X134.34 Y132.192 E36.21136
G1 X134.693 Y132.702 E36.23199
G1 X134.756 Y132.867 E36.23787
G1 X134.853 Y133.1 E36.24626
G1 X134.782 Y133.453 E36.25824
G1 X134.657 Y133.916 E36.27419
G1 X134.481 Y134.075 E36.28208
G1 X134.471 Y134.083 E36.2825
G0 F1080 X134.025 Y134.429
G0 X133.812 Y134.53
G0 F6000 X133.699 Y134.105
G0 X133.605 Y133.755
;TYPE:SKIN
G1 F1200 X133.23 Y133.756 E36.29498
G1 X133.065 Y133.648 E36.30154
G1 X132.856 Y133.483 E36.31039
G1 X132.78 Y133.177 E36.32088
G1 X132.82 Y133.078 E36.32443
G1 X133.035 Y132.767 E36.337
G1 X133.135 Y132.71 E36.34083
G1 X133.408 Y132.668 E36.35002
G1 X133.675 Y132.708 E36.359
G1 X133.774 Y132.764 E36.36278
G1 X133.991 Y133.08 E36.37553
G1 X134.032 Y133.18 E36.37913
G1 X133.956 Y133.482 E36.38949
G1 X133.899 Y133.527 E36.3919
G0 F1080 X133.605 Y133.755
G0 F6000 X133.04 Y133.04
G1 F1200 X133.574 Y133.574 E36.41702
G0 F6000 X133.842 Y133.276
G1 F1200 X133.398 Y132.832 E36.4379
G0 F6000 X132.82 Y132.254
;TYPE:SKIN
G1 F1200 X132.761 Y132.195 E36.43929
G0 F6000 X132.751 Y132.261
G1 F1500 E26.43929
;MESH:NONMESH
G0 F300 X132.751 Y132.261 Z0.4
G0 F6000 X132.794 Y132.322
G0 X131.159 Y128.181
G0 X126.942 Y95.996
G0 X126.902 Y95.266
G0 X127.417 Y91.347
;TIME_ELAPSED:76.770454
;LAYER:1
M106 S85
;TYPE:SUPPORT
G1 F1500 E36.43929
G1 X127.935 Y90.684 E36.46727
G1 X128.449 Y90.172 E36.4914
G1 X128.516 Y90.112 E36.4944
G1 X129.151 Y89.616 E36.52119
G1 X129.889 Y89.164 E36.54998
G1 X130.643 Y88.823 E36.5775
G1 X131.416 Y88.582 E36.60443
G1 X131.463 Y88.57 E36.60605
G1 X132.245 Y88.427 E36.63249
G1 X132.399 Y88.413 E36.63763
G1 X133.057 Y88.374 E36.65955
G1 X133.155 Y88.374 E36.66281
G1 X133.929 Y88.421 E36.6886
G1 X134.628 Y88.552 E36.71226
G1 X135.208 Y88.662 E36.73189
G1 X136.354 Y89.182 E36.77375
G1 X137.067 Y89.612 E36.80144
G1 X137.72 Y90.13 E36.82916
G1 X138.289 Y90.701 E36.85598
G1 X138.837 Y91.407 E36.8857
G1 X139.243 Y92.081 E36.91187
G1 X139.583 Y92.841 E36.93956
G1 X139.837 Y93.651 E36.9678
G1 X139.985 Y94.449 E36.99479
G1 X140.036 Y95.296 E37.02301
G1 X140.036 Y95.338 E37.02441
G1 X139.985 Y96.15 E37.05147
G1 X139.852 Y96.883 E37.07625
G1 X139.832 Y96.966 E37.07909
G1 X139.581 Y97.776 E37.10729
G1 X139.342 Y98.306 E37.12663
G1 X139.236 Y98.537 E37.13508
G1 X138.813 Y99.241 E37.1624
G1 X138.274 Y99.927 E37.19142
G1 X137.761 Y100.438 E37.2155
G1 X137.682 Y100.51 E37.21906
G1 X137.039 Y101.01 E37.24615
G1 X136.324 Y101.444 E37.27397
G1 X135.564 Y101.785 E37.30167
G1 X134.757 Y102.035 E37.32977
G1 X133.946 Y102.182 E37.35718
G1 X133.841 Y102.191 E37.36069
G1 X133.142 Y102.234 E37.38398
G1 X133.084 Y102.234 E37.38591
G1 X132.256 Y102.182 E37.41351
G1 X131.48 Y102.04 E37.43974
G1 X131.407 Y102.023 E37.44224
G1 X130.644 Y101.781 E37.46886
G1 X129.885 Y101.444 E37.49648
G1 X129.181 Y101.016 E37.52388
G1 X128.478 Y100.467 E37.55355
G1 X127.95 Y99.939 E37.57839
G1 X127.872 Y99.843 E37.5825
G1 X127.405 Y99.249 E37.60763
G1 X126.954 Y98.497 E37.6368
G1 X126.632 Y97.78 E37.66294
G1 X126.373 Y96.944 E37.69205
G1 X126.225 Y96.134 E37.71943
G1 X126.212 Y95.963 E37.72514
G1 X126.176 Y95.355 E37.7454
G1 X126.176 Y95.272 E37.74816
G1 X126.222 Y94.531 E37.77285
G1 X126.225 Y94.477 E37.77465
G1 X126.356 Y93.775 E37.7984
G1 X126.447 Y93.278 E37.81521
G1 X126.966 Y92.087 E37.85842
G1 X127.001 Y92.03 E37.86064
G0 F1350 X127.417 Y91.347
G0 F5400 X128.065 Y91.803
G1 F1500 X128.038 Y91.843 E37.86225
G1 X127.752 Y92.317 E37.88066
G1 X127.658 Y92.472 E37.88669
G1 X127.373 Y93.107 E37.90984
G1 X127.357 Y93.152 E37.91143
G1 X127.193 Y93.685 E37.92997
G1 X127.142 Y93.85 E37.93572
G1 X127.042 Y94.408 E37.95457
G1 X127.011 Y94.579 E37.96035
G1 X126.968 Y95.28 E37.98371
G1 X126.968 Y95.328 E37.98531
G1 X127.014 Y96.058 E38.00964
G1 X127.14 Y96.753 E38.03313
G1 X127.152 Y96.801 E38.03477
G1 X127.357 Y97.457 E38.05763
G1 X127.373 Y97.501 E38.05919
G1 X127.658 Y98.137 E38.08237
G1 X127.682 Y98.181 E38.08404
G1 X128.05 Y98.786 E38.10759
G1 X128.498 Y99.361 E38.13184
G1 X128.532 Y99.398 E38.13351
G1 X129.012 Y99.878 E38.15608
G1 X129.049 Y99.912 E38.15776
G1 X129.605 Y100.345 E38.18119
G1 X129.645 Y100.372 E38.1828
G1 X130.119 Y100.658 E38.20121
G1 X130.274 Y100.752 E38.20724
G1 X130.909 Y101.037 E38.23039
G1 X130.954 Y101.053 E38.23198
G1 X131.487 Y101.217 E38.25053
G1 X131.652 Y101.268 E38.25627
G1 X132.381 Y101.399 E38.28091
G1 X133.082 Y101.442 E38.30427
G1 X133.13 Y101.442 E38.30586
G1 X133.86 Y101.396 E38.33019
G1 X134.555 Y101.27 E38.35368
G1 X134.603 Y101.258 E38.35533
G1 X135.259 Y101.053 E38.37819
G1 X135.303 Y101.037 E38.37975
G1 X135.939 Y100.752 E38.40293
G1 X135.983 Y100.728 E38.40459
G1 X136.588 Y100.36 E38.42814
G1 X137.163 Y99.912 E38.45239
G1 X137.2 Y99.878 E38.45406
G1 X137.68 Y99.398 E38.47664
G1 X137.714 Y99.361 E38.47831
G1 X138.147 Y98.805 E38.50175
G1 X138.174 Y98.765 E38.50335
G1 X138.46 Y98.291 E38.52177
G1 X138.554 Y98.136 E38.5278
G1 X138.839 Y97.501 E38.55095
G1 X138.855 Y97.456 E38.55253
G1 X139.019 Y96.923 E38.57108
G1 X139.07 Y96.758 E38.57683
G1 X139.17 Y96.2 E38.59568
G1 X139.201 Y96.029 E38.60146
G1 X139.244 Y95.328 E38.62482
G1 X139.244 Y95.28 E38.62642
G1 X139.198 Y94.55 E38.65074
G1 X139.072 Y93.855 E38.67424
G1 X139.06 Y93.807 E38.67588
G1 X138.855 Y93.151 E38.69874
G1 X138.839 Y93.107 E38.7003
G1 X138.554 Y92.471 E38.72348
G1 X138.53 Y92.427 E38.72515
G1 X138.162 Y91.822 E38.7487
G1 X137.714 Y91.247 E38.77294
G1 X137.68 Y91.21 E38.77461
G1 X137.2 Y90.73 E38.79719
G1 X137.163 Y90.696 E38.79886
G1 X136.607 Y90.263 E38.8223
G1 X136.567 Y90.236 E38.82391
G1 X136.093 Y89.95 E38.84232
G1 X135.938 Y89.856 E38.84835
G1 X135.303 Y89.571 E38.8715
G1 X135.258 Y89.555 E38.87309
G1 X134.719 Y89.389 E38.89185
G1 X134.56 Y89.34 E38.89738
G1 X133.831 Y89.209 E38.92201
G1 X133.13 Y89.166 E38.94537
G1 X133.082 Y89.166 E38.94697
G1 X132.352 Y89.212 E38.9713
G1 X131.657 Y89.338 E38.99479
G1 X131.609 Y89.35 E38.99644
G1 X130.953 Y89.555 E39.0193
G1 X130.909 Y89.571 E39.02085
G1 X130.273 Y89.856 E39.04403
G1 X130.229 Y89.88 E39.0457
G1 X129.624 Y90.248 E39.06925
G1 X129.049 Y90.696 E39.0935
G1 X129.012 Y90.73 E39.09517
G1 X128.564 Y91.178 E39.11624
G0 F1350 X128.532 Y91.21
G0 X128.498 Y91.247
G0 X128.065 Y91.803
G0 F5400 X128 Y91.186
G1 F1500 X127.713 Y91.554 E39.13176
G1 X127.285 Y92.255 E39.15908
G1 X126.794 Y93.384 E39.20003
G1 X126.584 Y94.516 E39.23832
G1 X126.536 Y95.294 E39.26425
G1 X126.536 Y95.333 E39.26554
G1 X126.582 Y96.084 E39.29057
G1 X126.723 Y96.858 E39.31674
G1 X126.971 Y97.656 E39.34453
G1 X127.27 Y98.325 E39.3689
G1 X127.701 Y99.043 E39.39676
G1 X128 Y99.423 E39.41284
G1 X128 Y99.308 E39.41666
G1 X127.753 Y98.991 E39.43003
G1 X127.37 Y98.361 E39.45455
G1 X127.336 Y98.297 E39.45696
G1 X127.04 Y97.637 E39.48102
G1 X127.016 Y97.573 E39.48329
G1 X126.805 Y96.898 E39.50681
G1 X126.787 Y96.829 E39.50919
G1 X126.656 Y96.101 E39.53379
G1 X126.608 Y95.339 E39.55918
G1 X126.608 Y95.269 E39.56151
G1 X126.653 Y94.536 E39.58594
G1 X126.791 Y93.765 E39.61199
G1 X127.015 Y93.039 E39.63726
G1 X127.038 Y92.973 E39.63958
G1 X127.338 Y92.305 E39.66394
G1 X127.734 Y91.649 E39.68942
G1 X127.774 Y91.591 E39.69177
G1 X128 Y91.301 E39.704
G1 X128 Y91.186 E39.70782
G1 X128.208 Y90.92 E39.71905
G1 X128.697 Y90.433 E39.74201
G1 X128.746 Y90.389 E39.7442
G1 X129.358 Y89.912 E39.77
G1 X130 Y89.517 E39.79507
G1 X130 Y89.598 E39.79777
G1 X130.049 Y89.568 E39.79968
G1 X130.113 Y89.534 E39.80209
G1 X130.773 Y89.238 E39.82615
G1 X130.837 Y89.214 E39.82842
G1 X131.512 Y89.003 E39.85194
G1 X131.581 Y88.985 E39.85432
G1 X132 Y88.91 E39.86847
G1 X132 Y88.837
G1 X132.299 Y88.783 E39.87858
G1 X132.42 Y88.772 E39.88262
G1 X132.42 Y88.773
G1 X133.078 Y88.734 E39.90454
G1 X133.133 Y88.734 E39.90637
G1 X133.888 Y88.78 E39.93153
G1 X134 Y88.802 E39.93533
G1 X134 Y88.873
G1 X134.645 Y88.989 E39.95712
G1 X135.371 Y89.213 E39.98239
G1 X135.437 Y89.236 E39.98472
G1 X136 Y89.488 E40.00523
G1 X136 Y89.417
G1 X136.19 Y89.503 E40.01217
G1 X136.862 Y89.909 E40.03828
G1 X137.477 Y90.396 E40.06438
G1 X138 Y90.921 E40.08902
G1 X138 Y91.028 E40.09258
G1 X138.459 Y91.617 E40.11742
G1 X138.842 Y92.247 E40.14194
G1 X138.876 Y92.311 E40.14435
G1 X139.172 Y92.971 E40.16841
G1 X139.196 Y93.035 E40.17068
G1 X139.407 Y93.71 E40.1942
G1 X139.425 Y93.779 E40.19658
G1 X139.556 Y94.507 E40.22118
G1 X139.604 Y95.269 E40.24657
G1 X139.604 Y95.339 E40.2489
G1 X139.559 Y96.072 E40.27333
G1 X139.421 Y96.843 E40.29938
G1 X139.197 Y97.569 E40.32465
G1 X139.174 Y97.635 E40.32697
G1 X138.874 Y98.303 E40.35133
G1 X138.478 Y98.959 E40.37681
G1 X138.438 Y99.017 E40.37916
G1 X138 Y99.579 E40.40286
G1 X137.989 Y99.594 E40.40347
G1 X137.939 Y99.647 E40.4059
G1 X137.449 Y100.137 E40.42895
G1 X137.396 Y100.187 E40.43137
G1 X136.793 Y100.657 E40.4568
G1 X136.163 Y101.04 E40.48132
G1 X136.099 Y101.074 E40.48373
G1 X136 Y101.118 E40.48733
G1 X136 Y101.196
G1 X135.44 Y101.446 E40.50773
G1 X134.669 Y101.686 E40.53459
G1 X134 Y101.807 E40.5572
G1 X134 Y101.736
G1 X133.903 Y101.754 E40.56048
G1 X133.141 Y101.802 E40.58588
G1 X133.071 Y101.802 E40.5882
G1 X132.338 Y101.757 E40.61263
G1 X132 Y101.697 E40.62405
G1 X132 Y101.769
G1 X131.553 Y101.687 E40.63916
G1 X131.504 Y101.675 E40.64084
G1 X130.766 Y101.441 E40.66659
G1 X130.055 Y101.125 E40.69247
G1 X130 Y101.091 E40.69462
G1 X130 Y101.008 E40.69738
G1 X129.451 Y100.676 E40.71872
G1 X129.393 Y100.636 E40.72106
G1 X128.816 Y100.187 E40.74538
G1 X128.763 Y100.137 E40.7478
G1 X128.273 Y99.647 E40.77085
G1 X128.223 Y99.594 E40.77328
G1 X128 Y99.308 E40.78534
G1 F1500 E30.78534
G0 F5400 X127.197 Y100.383
G0 X127.909 Y101.119
G0 X128.688 Y101.728
G0 X129.738 Y102.325
G0 X130.338 Y102.591
G0 X131.309 Y102.888
G0 X132.206 Y103.045
G0 X133.174 Y103.098
G0 X134.067 Y103.039
G0 X134.96 Y102.876
G0 X135.867 Y102.596
G0 X136.73 Y102.208
G0 X137.741 Y101.559
G0 X138.867 Y100.557
G0 X138.002 Y99.69
G1 F1500 E40.78534
G1 X138.521 Y99.029 E40.81329
G1 X138.913 Y98.377 E40.83859
G1 X139.244 Y97.649 E40.86519
G1 X139.488 Y96.86 E40.89266
G1 X139.499 Y96.811 E40.89433
G1 X139.626 Y96.113 E40.91793
G1 X139.675 Y95.324 E40.94422
G1 X139.626 Y94.488 E40.97207
G1 X139.489 Y93.747 E40.99714
G1 X139.244 Y92.967 E41.02433
G1 X138.921 Y92.244 E41.05067
G1 X138.54 Y91.612 E41.07521
G1 X138.019 Y90.94 E41.10349
G1 X138 Y90.921 E41.10439
G1 F1500 E31.10439
G0 F5400 X138.968 Y90.168
G0 X139.547 Y90.913
G0 X140.014 Y91.687
G0 X140.392 Y92.531
G0 X140.678 Y93.443
G0 X140.848 Y94.398
G0 X140.9 Y95.37
G0 X140.842 Y96.272
G0 X140.664 Y97.202
G0 X140.392 Y98.081
G0 X139.994 Y98.954
G0 X139.729 Y99.394
G0 X139.019 Y100.377
G0 X138 Y99.579
G1 F1500 E41.10439
G1 X138 Y99.692 E41.10814
G1 F1500 E31.10814
G0 F5400 X138.865 Y100.559
G0 X137.851 Y128.68
G0 X137.437 Y129.439
G1 F1500 E41.10814
G1 X137.831 Y129.654 E41.12307
G1 X139.091 Y130.883 E41.18162
G1 X139.232 Y131.123 E41.19087
G1 X139.484 Y131.615 E41.20926
G1 X139.999 Y133.054 E41.26009
G1 X140.162 Y133.384 E41.27234
G1 X140.217 Y133.953 E41.29135
G1 X140.396 Y134.302 E41.30439
G1 X140.373 Y135.255 E41.3361
G1 X139.999 Y136.426 E41.37699
G1 X140.044 Y136.803 E41.38961
G1 X139.81 Y137.328 E41.40873
G1 X139.791 Y137.726 E41.42198
G1 X139.411 Y138.386 E41.44731
G1 X139.049 Y138.758 E41.46458
G1 X138.162 Y139.87 E41.51189
G1 X137.427 Y140.378 E41.54161
G1 X136.517 Y140.945 E41.57727
G1 X136.158 Y141.194 E41.5918
G1 X135.497 Y141.407 E41.6149
G1 X134.812 Y141.559 E41.63823
G1 X133.411 Y141.742 E41.68523
G1 X131.995 Y141.56 E41.73271
G1 X131.228 Y141.378 E41.75893
G1 X130.953 Y141.292 E41.76851
G1 X130.641 Y141.188 E41.77945
G1 X130.46 Y141.119 E41.78589
G1 X129.091 Y140.172 E41.84126
G1 X128.866 Y139.895 E41.85313
G1 X127.736 Y138.739 E41.9069
G1 X127.258 Y138.126 E41.93275
G1 X127.217 Y138.059 E41.93536
G1 X127.03 Y137.724 E41.94812
G1 X127.01 Y137.341 E41.96088
G1 X126.782 Y136.832 E41.97943
G1 X126.826 Y136.455 E41.99205
G1 X126.439 Y135.254 E42.03402
G1 X126.42 Y134.289 E42.06612
G1 X126.596 Y133.946 E42.07895
G1 X126.653 Y133.382 E42.0978
G1 X126.825 Y133.03 E42.11083
G1 X127.319 Y131.64 E42.1599
G1 X127.388 Y131.483 E42.1656
G1 X127.547 Y131.176 E42.1771
G1 X127.727 Y130.873 E42.18882
G1 X128.033 Y130.597 E42.20253
G1 X128.975 Y129.663 E42.24665
G1 X129.364 Y129.448 E42.26143
G1 X128.975 Y129.804 E42.27897
G1 X128.933 Y129.846 E42.28094
G1 X128.358 Y130.558 E42.31138
G1 X128.326 Y130.603 E42.31322
G1 X127.984 Y131.176 E42.33541
G1 X127.852 Y131.442 E42.34529
G1 X127.832 Y131.496 E42.34721
G1 X127.557 Y132.336 E42.3766
G1 X127.545 Y132.386 E42.37831
G1 X127.394 Y133.185 E42.40536
G1 X127.384 Y133.351 E42.41089
G1 X127.416 Y134.191 E42.43885
G1 X127.42 Y134.235 E42.44032
G1 X127.54 Y135.03 E42.46706
G1 X127.56 Y135.114 E42.46993
G1 X127.854 Y135.885 E42.49738
G1 X128.195 Y136.575 E42.52298
G1 X128.296 Y136.729 E42.5291
G1 X128.669 Y137.21 E42.54935
G1 X129.105 Y137.691 E42.57094
G1 X129.455 Y138.023 E42.58698
G1 X129.593 Y138.13 E42.59279
G1 X130.061 Y138.44 E42.61146
G1 X130.481 Y138.687 E42.62767
G1 X130.899 Y138.896 E42.64321
G1 X131.299 Y139.063 E42.65763
G1 X131.652 Y139.168 E42.66988
G1 X131.675 Y139.177 E42.6707
G1 X132.09 Y139.273 E42.68487
G1 X132.397 Y139.328 E42.69524
G1 X132.76 Y139.375 E42.70742
G1 X132.781 Y139.375 E42.70811
G1 X133.088 Y139.399 E42.71836
G1 X133.414 Y139.408 E42.7292
G1 X133.736 Y139.399 E42.73992
G1 X134.023 Y139.376 E42.74949
G1 X134.044 Y139.376 E42.75019
G1 X134.415 Y139.328 E42.76263
G1 X134.746 Y139.268 E42.77382
G1 X135.097 Y139.187 E42.7858
G1 X135.482 Y139.076 E42.79913
G1 X135.526 Y139.06 E42.80069
G1 X135.933 Y138.889 E42.81537
G1 X136.34 Y138.68 E42.83059
G1 X136.771 Y138.429 E42.84718
G1 X136.834 Y138.385 E42.84973
G1 X137.212 Y138.135 E42.86481
G1 X137.393 Y137.993 E42.87246
G1 X137.605 Y137.788 E42.88227
G1 X137.733 Y137.665 E42.88817
G1 X138.168 Y137.18 E42.90984
G1 X138.541 Y136.696 E42.93016
G1 X138.635 Y136.539 E42.93625
G1 X138.947 Y135.907 E42.95969
G1 X138.963 Y135.871 E42.961
G1 X139.248 Y135.12 E42.98772
G1 X139.268 Y135.038 E42.99053
G1 X139.394 Y134.232 E43.01766
G1 X139.398 Y134.185 E43.01923
G1 X139.429 Y133.325 E43.04785
G1 X139.425 Y133.238 E43.05075
G1 X139.269 Y132.397 E43.0792
G1 X139.257 Y132.341 E43.0811
G1 X138.974 Y131.483 E43.11115
G1 X138.954 Y131.432 E43.11297
G1 X138.823 Y131.165 E43.12286
G1 X138.495 Y130.616 E43.14413
G1 X138.463 Y130.568 E43.14605
G1 X138.004 Y130.001 E43.17032
G0 F1350 X137.89 Y129.86
G0 X137.848 Y129.814
G0 X137.437 Y129.439
G1 F1500 E33.17032
G0 F5400 X137.851 Y128.68
G0 X138.35 Y128.954
G0 X139.779 Y130.346
G0 X140.278 Y131.269
G0 X141.006 Y133.144
G0 X141.238 Y134.008
G0 X141.239 Y135.269
G0 X140 Y135.241
G1 F1500 E43.17032
G1 X140.015 Y135.194 E43.17196
G1 X140.034 Y134.384 E43.19891
G1 X140 Y134.318 E43.20137
G1 X140 Y135.241 E43.23207
G1 X139.632 Y136.392 E43.27227
G1 X139.675 Y136.748 E43.28419
G1 X139.454 Y137.243 E43.30222
G1 X139.435 Y137.622 E43.31484
G1 X139.121 Y138.168 E43.33579
G1 X138.779 Y138.52 E43.35212
G1 X138 Y139.497 E43.39368
G1 X138 Y137.906 E43.44659
G1 X137.992 Y137.915 E43.44699
G1 X137.63 Y138.265 E43.46374
G1 X137.423 Y138.427 E43.47248
G1 X137.041 Y138.68 E43.48772
G1 X136.965 Y138.733 E43.4908
G1 X136.513 Y138.995 E43.50818
G1 X136.086 Y139.215 E43.52416
G1 X136 Y139.251 E43.52726
G1 X136 Y140.866 E43.58097
G1 X135.997 Y140.868
G1 X135.406 Y141.059 E43.60163
G1 X134.757 Y141.203 E43.62374
G1 X134 Y141.302 E43.64913
G1 X134 Y139.738 E43.70115
G1 X133.756 Y139.759 E43.7093
G1 X133.414 Y139.768 E43.72068
G1 X133.068 Y139.759 E43.73219
G1 X132.776 Y139.735 E43.74193
G1 X132.737 Y139.735 E43.74323
G1 X132.343 Y139.684 E43.75644
G1 X132.018 Y139.626 E43.76743
G1 X132 Y139.622 E43.76804
G1 X132 Y141.189 E43.82016
G1 X131.322 Y141.029 E43.84333
G1 X131.061 Y140.948 E43.85242
G1 X130.755 Y140.846 E43.86314
G1 X130.755 Y140.847
G1 X130.631 Y140.799 E43.86757
G1 X130 Y140.362 E43.8931
G1 X130 Y138.823 E43.94428
G1 X129.87 Y138.746 E43.94931
G1 X129.382 Y138.423 E43.96877
G1 X129.22 Y138.296 E43.97562
G1 X128.848 Y137.943 E43.99268
G1 X128.393 Y137.442 E44.01519
G1 X128.003 Y136.938 E44.03638
G1 X128 Y136.934 E44.03655
G1 X127.882 Y136.755 E44.04368
G1 X127.524 Y136.029 E44.0706
G1 X127.215 Y135.22 E44.0994
G1 X127.186 Y135.099 E44.10354
G1 X127.062 Y134.278 E44.13116
G1 X127.056 Y134.214 E44.1333
G1 X127.027 Y133.437 E44.15916
G1 X127.004 Y133.484 E44.1609
G1 X126.947 Y134.05 E44.17982
G1 X126.782 Y134.372 E44.19185
G1 X126.798 Y135.196 E44.21926
G1 X127.193 Y136.419 E44.26201
G1 X127.151 Y136.775 E44.27393
G1 X127.366 Y137.255 E44.29143
G1 X127.386 Y137.621 E44.30362
G1 X127.525 Y137.872 E44.31316
G1 X127.557 Y137.924 E44.31519
G1 X128 Y138.492 E44.33915
G1 X128 Y136.934 E44.39097
G0 F5400 X128.334 Y136.405
;TYPE:SUPPORT-INTERFACE
G1 F1350 X130.129 Y134.611 E44.47538
G0 F5400 X129.867 Y133.262
G1 F1350 X128.066 Y131.46 E44.56011
G0 F5400 X127.599 Y133.747
G1 F1350 X133.181 Y128.165 E44.82267
G0 F5400 X131.777 Y128.383
G1 F1350 X133.293 Y129.899 E44.89398
G0 F5400 X134.626 Y130.114
G1 F1350 X136.006 Y128.734 E44.95889
G0 F5400 X135.215 Y128.427
G1 F1350 X139.003 Y132.215 E45.13707
G0 F5400 X139.075 Y132.453
G1 F1350 X136.438 Y135.09 E45.26111
G0 F5400 X135.797 Y135.797
G1 F1350 X137.557 Y137.557 E45.34389
G0 F5400 X136.664 Y138.258
G1 F1350 X138.434 Y136.488 E45.42715
G0 F5400 X138.89 Y135.496
G1 F1350 X136.937 Y133.543 E45.51901
G0 F5400 X136.491 Y131.643
G1 F1350 X137.919 Y130.215 E45.58618
G0 F5400 X135.369 Y136.159
G1 F1350 X132.404 Y139.124 E45.72564
G1 X132.32 Y139.109
G1 X127.653 Y134.441 E45.94519
G0 F5400 X129.984 Y138.15
G1 F1350 X131.812 Y136.322 E46.03117
G0 F5400 X133.297 Y136.691
G1 F1350 X135.471 Y138.865 E46.13343
G1 F1500 E36.13343
G0 F5400 X137.897 Y141.104
G0 X138.758 Y140.508
G0 X140.104 Y138.912
G0 X140.644 Y137.975
G0 X140.929 Y136.939
G0 X141.234 Y135.401
G0 X141.264 Y134.104
G0 X141.006 Y133.144
G0 X140.179 Y131.076
G0 X139.779 Y130.346
G0 X138.35 Y128.954
G0 X137.146 Y128.296
G0 X135.462 Y127.728
G0 X134.466 Y127.509
G0 X133.396 Y127.428
G0 X132.393 Y127.501
G0 X131.557 Y127.682
G0 X130.112 Y128.203
G0 X130.887 Y130.887
G1 F1500 E46.13343
G1 F1350 X129.549 Y129.549 E46.19636
G1 F1500 E36.19636
G0 F5400 X129.045 Y128.637
G0 X132.844 Y103.086
G0 X132.959 Y101.234
G1 F1500 E46.19636
G1 F1350 X139.034 Y95.158 E46.48214
G0 F5400 X139.02 Y94.896
G1 F1350 X133.513 Y89.39 E46.74115
G0 F5400 X134.483 Y89.528
G1 F1350 X132.189 Y91.822 E46.84905
G0 F5400 X132.489 Y91.759
G1 F1350 X130.64 Y89.91 E46.93602
G1 X130.761 Y89.856
G1 X127.656 Y92.96 E47.08205
G0 F5400 X127.454 Y93.513
G1 F1350 X129.52 Y95.578 E47.1792
G0 F5400 X129.623 Y94.387
G1 F1350 X127.33 Y96.68 E47.28706
G1 X127.366 Y96.819
G1 X131.585 Y101.038 E47.48551
G0 F5400 X130.276 Y100.523
G1 F1350 X132.056 Y98.743 E47.56923
G0 F5400 X132.83 Y98.889
G1 F1350 X134.896 Y100.955 E47.66641
G0 F5400 X137.065 Y99.73
G1 F1350 X135.405 Y98.07 E47.74449
G0 F5400 X136.648 Y95.919
G1 F1350 X138.498 Y97.769 E47.83151
G0 F5400 X136.545 Y94.253
G1 F1350 X138.324 Y92.475 E47.91516
G0 F5400 X136.765 Y90.64
G1 F1350 X135.097 Y92.307 E47.9936
G0 F5400 X130.338 Y93.003
G1 F1350 X128.679 Y91.344 E48.07163
G1 F1500 E38.07163
G0 F5400 X127.216 Y90.2
G0 X126.705 Y90.854
G0 X126.199 Y91.686
G0 X125.614 Y93.028
G0 X125.358 Y94.501
G0 X125.312 Y95.386
G0 X125.369 Y96.257
G0 X125.532 Y97.147
G0 X125.821 Y98.084
G0 X125.924 Y98.314
G0 X126.52 Y99.452
G0 X130.106 Y97.298
G1 F1500 E48.07163
G1 F1350 X128.441 Y98.963 E48.14995
G1 F1500 E38.14995
;MESH:smiley.STL(1)
G0 F5400 X132.257 Y97.528
G0 X133.374 Y97.488
;TYPE:WALL-INNER
G1 F1500 E48.14995
G1 X133.106 Y97.504 E48.15888
G1 X132.839 Y97.488 E48.16778
G1 X132.585 Y97.441 E48.17637
G1 X132.317 Y97.357 E48.18571
G1 X132.077 Y97.248 E48.19448
G1 X131.843 Y97.107 E48.20356
G1 X131.653 Y96.957 E48.21161
G1 X131.453 Y96.755 E48.22107
G1 X131.29 Y96.547 E48.22986
G1 X131.158 Y96.328 E48.23836
G1 X131.046 Y96.077 E48.2475
G1 X130.969 Y95.83 E48.25611
G1 X130.922 Y95.572 E48.26483
G1 X130.906 Y95.304 E48.27376
G1 X130.922 Y95.037 E48.28266
G1 X130.969 Y94.783 E48.29125
G1 X131.054 Y94.512 E48.3007
G1 X131.162 Y94.275 E48.30936
G1 X131.303 Y94.041 E48.31844
G1 X131.453 Y93.851 E48.3265
G1 X131.652 Y93.654 E48.33581
G1 X131.868 Y93.485 E48.34493
G1 X132.083 Y93.356 E48.35327
G1 X132.333 Y93.244 E48.36238
G1 X132.58 Y93.167 E48.37099
G1 X132.838 Y93.12 E48.37971
G1 X133.106 Y93.104 E48.38864
G1 X133.373 Y93.12 E48.39754
G1 X133.627 Y93.167 E48.40613
G1 X133.895 Y93.251 E48.41547
G1 X134.135 Y93.36 E48.42424
G1 X134.369 Y93.501 E48.43332
G1 X134.559 Y93.651 E48.44137
G1 X134.759 Y93.853 E48.45083
G1 X134.923 Y94.062 E48.45966
G1 X135.051 Y94.273 E48.46787
G1 X135.167 Y94.535 E48.4774
G1 X135.243 Y94.779 E48.4859
G1 X135.29 Y95.036 E48.49459
G1 X135.306 Y95.304 E48.50352
G1 X135.29 Y95.571 E48.51242
G1 X135.243 Y95.828 E48.52111
G1 X135.161 Y96.089 E48.53021
G1 X135.052 Y96.329 E48.53897
G1 X134.906 Y96.57 E48.54835
G1 X134.759 Y96.757 E48.55626
G1 X134.557 Y96.957 E48.56571
G1 X134.349 Y97.12 E48.5745
G1 X134.135 Y97.249 E48.58281
G0 F1350 X134.13 Y97.252
G0 X133.879 Y97.364
G0 X133.632 Y97.441
G0 X133.374 Y97.488
G0 F5400 X133.421 Y97.886
;TYPE:WALL-OUTER
G1 F1500 X133.106 Y97.904 E48.59331
G1 X132.791 Y97.886 E48.6038
G1 X132.483 Y97.829 E48.61422
G1 X132.18 Y97.734 E48.62478
G1 X131.889 Y97.602 E48.63541
G1 X131.617 Y97.437 E48.64599
G1 X131.382 Y97.252 E48.65594
G1 X131.155 Y97.023 E48.66666
G1 X130.958 Y96.771 E48.6773
G1 X130.803 Y96.513 E48.68731
G1 X130.671 Y96.219 E48.69803
G1 X130.581 Y95.93 E48.7081
G1 X130.524 Y95.619 E48.71861
G1 X130.506 Y95.304 E48.72911
G1 X130.524 Y94.989 E48.7396
G1 X130.581 Y94.681 E48.75002
G1 X130.676 Y94.378 E48.76058
G1 X130.808 Y94.087 E48.77121
G1 X130.973 Y93.815 E48.78179
G1 X131.158 Y93.58 E48.79174
G1 X131.387 Y93.353 E48.80246
G1 X131.64 Y93.155 E48.81315
G1 X131.897 Y93.001 E48.82311
G1 X132.191 Y92.869 E48.83383
G1 X132.48 Y92.779 E48.8439
G1 X132.791 Y92.722 E48.85441
G1 X133.106 Y92.704 E48.86491
G1 X133.421 Y92.722 E48.8754
G1 X133.729 Y92.779 E48.88582
G1 X134.032 Y92.874 E48.89638
G1 X134.323 Y93.006 E48.90701
G1 X134.595 Y93.171 E48.91759
G1 X134.83 Y93.356 E48.92754
G1 X135.057 Y93.585 E48.93826
G1 X135.254 Y93.837 E48.9489
G1 X135.408 Y94.091 E48.95878
G1 X135.542 Y94.393 E48.96977
G1 X135.631 Y94.678 E48.9797
G1 X135.688 Y94.989 E48.99022
G1 X135.706 Y95.304 E49.00071
G1 X135.688 Y95.619 E49.0112
G1 X135.631 Y95.927 E49.02162
G1 X135.536 Y96.232 E49.03225
G1 X135.406 Y96.518 E49.0427
G1 X135.239 Y96.793 E49.0534
G1 X135.054 Y97.028 E49.06335
G1 X134.825 Y97.255 E49.07407
G1 X134.573 Y97.452 E49.08471
G1 X134.315 Y97.607 E49.09472
G1 X134.187 Y97.665 E49.09939
G0 F1350 X134.021 Y97.739
G0 X133.732 Y97.829
G0 X133.421 Y97.886
G0 F5400 X133.369 Y97.45
G0 X133.542 Y97.061
;TYPE:SKIN
G1 F1350 X133.106 Y97.112 E49.11399
G1 X132.675 Y97.06 E49.12843
G1 X132.253 Y96.899 E49.14346
G1 X131.918 Y96.67 E49.15695
G1 X131.737 Y96.487 E49.16551
G1 X131.506 Y96.152 E49.17905
G1 X131.349 Y95.74 E49.19371
G1 X131.298 Y95.304 E49.20831
G1 X131.35 Y94.873 E49.22275
G1 X131.509 Y94.454 E49.23766
G1 X131.74 Y94.116 E49.25127
G1 X132.094 Y93.804 E49.26697
G1 X132.478 Y93.607 E49.28132
G1 X132.882 Y93.508 E49.29516
G1 X133.106 Y93.496 E49.30262
G1 X133.537 Y93.548 E49.31706
G1 X133.956 Y93.708 E49.33197
G1 X134.294 Y93.938 E49.34557
G1 X134.474 Y94.12 E49.35409
G1 X134.704 Y94.454 E49.36757
G1 X134.862 Y94.866 E49.38225
G1 X134.914 Y95.304 E49.39692
G1 X134.862 Y95.738 E49.41146
G1 X134.705 Y96.149 E49.42609
G1 X134.472 Y96.492 E49.43988
G1 X134.289 Y96.673 E49.44844
G1 X134.251 Y96.7 E49.44999
G0 F1215 X133.954 Y96.904
G0 X133.542 Y97.061
G0 F5400 X133.591 Y97.336
G0 X134.444 Y96.829
G0 X134.815 Y96.357
G0 X135.174 Y95.59
G0 X134.726 Y95.507
G1 F1350 X133.306 Y96.927 E49.51679
G0 F5400 X132.758 Y96.909
G1 F1350 X134.71 Y94.958 E49.60858
G0 F5400 X134.564 Y94.538
G1 F1350 X132.34 Y96.761 E49.71317
G0 F5400 X132.005 Y96.531
G1 F1350 X134.331 Y94.205 E49.82257
G0 F5400 X134.024 Y93.946
G1 F1350 X131.748 Y96.222 E49.92963
G0 F5400 X131.56 Y95.845
G1 F1350 X133.645 Y93.76 E50.0277
G0 F5400 X133.174 Y93.665
G1 F1350 X131.468 Y95.371 E50.10795
G0 F5400 X131.593 Y94.68
G1 F1350 X132.499 Y93.774 E50.15056
G0 F5400 X132.356 Y93.452
G1 F1500 E40.15056
;MESH:smiley.STL
G0 F5400 X132.322 Y93.37
G0 X131.581 Y93.965
G0 X131.213 Y94.575
G0 X131.077 Y95.304
G0 X131.203 Y96.009
G0 X131.581 Y96.642
G0 X132.817 Y97.668
G0 X132.479 Y103.063
G0 X135.677 Y127.812
G0 X133.407 Y131.115
G0 X134.751 Y131.935
G0 X135.097 Y132.364
G0 X135.333 Y132.811
G0 X135.36 Y133.657
G0 X135.068 Y134.314
G0 X134.666 Y134.702
G0 X133.774 Y135.278
;TYPE:WALL-INNER
G1 F1500 E50.15056
G1 X133.473 Y135.295 E50.16059
G1 X133.198 Y135.289 E50.16974
G1 X132.893 Y135.264 E50.17992
G1 X132.152 Y134.945 E50.20675
G1 X132.023 Y134.824 E50.21263
G1 X131.603 Y134.417 E50.23208
G1 X131.382 Y133.942 E50.24951
G1 X131.283 Y133.696 E50.25833
G1 X131.266 Y133.338 E50.27025
G1 X131.309 Y132.769 E50.28923
G1 X131.574 Y132.268 E50.30808
G1 X131.941 Y131.812 E50.32755
G1 X132.091 Y131.693 E50.33392
G1 X132.343 Y131.54 E50.34372
G1 X132.864 Y131.359 E50.36207
G1 X133.407 Y131.295 E50.38025
G1 X133.943 Y131.357 E50.3982
G1 X134.044 Y131.394 E50.40178
G1 X134.471 Y131.54 E50.41678
G1 X134.722 Y131.693 E50.42656
G1 X134.872 Y131.812 E50.43293
G1 X135.238 Y132.267 E50.45235
G1 X135.501 Y132.762 E50.47099
G1 X135.547 Y133.349 E50.49058
G1 X135.529 Y133.694 E50.50207
G1 X135.429 Y133.945 E50.51106
G1 X135.21 Y134.415 E50.5283
G1 X134.785 Y134.828 E50.54801
G1 X134.666 Y134.941 E50.55347
G1 X134.523 Y135.003 E50.55865
G0 F1350 X134.029 Y135.218
G0 X133.774 Y135.278
G0 F5400 X133.831 Y135.675
;TYPE:WALL-OUTER
G1 F1500 X133.474 Y135.695 E50.57055
G1 X133.173 Y135.689 E50.58056
G1 X132.802 Y135.658 E50.59294
G1 X132.726 Y135.628 E50.59566
G1 X132.059 Y135.342 E50.6198
G1 X131.925 Y135.281 E50.62469
G1 X131.749 Y135.116 E50.63272
G1 X131.271 Y134.652 E50.65488
G1 X131.014 Y134.099 E50.67516
G1 X130.886 Y133.784 E50.68647
G1 X130.865 Y133.338 E50.70132
G1 X130.915 Y132.67 E50.7236
G1 X130.927 Y132.635 E50.72483
G1 X131.238 Y132.047 E50.74695
G1 X131.656 Y131.527 E50.76914
G1 X131.863 Y131.363 E50.77793
G1 X132.171 Y131.176 E50.78991
G1 X132.772 Y130.967 E50.81107
G1 X133.407 Y130.893 E50.83234
G1 X134.039 Y130.966 E50.8535
G1 X134.178 Y131.017 E50.85842
G1 X134.641 Y131.175 E50.87469
G1 X134.949 Y131.362 E50.88668
G1 X135.155 Y131.527 E50.89546
G1 X135.573 Y132.045 E50.91759
G1 X135.882 Y132.628 E50.93954
G1 X135.895 Y132.668 E50.94094
G1 X135.948 Y133.338 E50.96329
G1 X135.925 Y133.782 E50.97808
G1 X135.798 Y134.099 E50.98944
G1 X135.54 Y134.652 E51.00973
G1 X135.064 Y135.115 E51.03182
G1 X134.888 Y135.281 E51.03987
G1 X134.584 Y135.414 E51.0509
G0 F1350 X134.16 Y135.598
G0 X133.831 Y135.675
G0 F5400 X133.769 Y135.24
G0 X133.718 Y134.89
;TYPE:SKIN
G1 F1350 X133.459 Y134.905 E51.05953
G1 X133.206 Y134.899 E51.06795
G1 X132.993 Y134.882 E51.07506
G1 X132.367 Y134.612 E51.09773
G1 X132.29 Y134.54 E51.10124
G1 X131.925 Y134.187 E51.11813
G1 X131.751 Y133.812 E51.13188
G1 X131.67 Y133.612 E51.13905
G1 X131.656 Y133.334 E51.14831
G1 X131.691 Y132.883 E51.16336
G1 X131.903 Y132.48 E51.1785
G1 X132.216 Y132.091 E51.19511
G1 X132.512 Y131.894 E51.20693
G1 X132.948 Y131.742 E51.22229
G1 X133.407 Y131.689 E51.23766
G1 X133.853 Y131.74 E51.25259
G1 X134.305 Y131.895 E51.26848
G1 X134.597 Y132.091 E51.28018
G1 X134.909 Y132.479 E51.29674
G1 X135.119 Y132.876 E51.31168
G1 X135.157 Y133.345 E51.32733
G1 X135.143 Y133.609 E51.33612
G1 X135.068 Y133.797 E51.34285
G1 X134.887 Y134.185 E51.35709
G1 X134.57 Y134.495 E51.37184
G1 X134.459 Y134.599 E51.3769
G0 F1215 X134.446 Y134.612
G0 X133.91 Y134.844
G0 X133.718 Y134.89
G0 F5400 X133.733 Y135.171
G0 X134.667 Y134.704
G0 X134.893 Y134.484
G0 X135.278 Y134.005
G0 X134.88 Y133.819
G1 F1350 X134.124 Y134.575 E51.41246
G0 F5400 X133.392 Y134.742
G1 F1350 X134.98 Y133.154 E51.48715
G0 F5400 X134.852 Y132.716
G1 F1350 X132.901 Y134.667 E51.57892
G0 F5400 X132.506 Y134.497
G1 F1350 X134.623 Y132.38 E51.6785
G0 F5400 X134.331 Y132.105
G1 F1350 X132.204 Y134.233 E51.77857
G0 F5400 X131.969 Y133.902
G1 F1350 X133.935 Y131.936 E51.87105
G0 F5400 X133.45 Y131.855
G1 F1350 X131.823 Y133.482 E51.94757
G0 F5400 X131.886 Y132.854
G1 F1350 X132.765 Y131.975 E51.98892
G0 F5400 X132.65 Y131.645
G1 F1500 E41.98892
;MESH:NONMESH
G0 F300 X132.65 Y131.645 Z0.6
G0 F5400 X132.623 Y131.56
G0 X132.82 Y131.183
G0 X135.677 Y127.812
G0 X125.532 Y97.147
G0 X125.35 Y96.021
G0 X125.312 Y95.239
G0 X125.371 Y94.34
G0 X125.614 Y93.028
G0 X126.087 Y91.942
G0 X126.678 Y90.897
G0 X127.417 Y91.345
;TIME_ELAPSED:117.022381
;LAYER:2
M106 S170
;TYPE:SUPPORT
G1 F1500 E51.98892
G1 F1800 X127.93 Y90.69 E52.01659
G1 X128.462 Y90.16 E52.04157
G1 X128.52 Y90.108 E52.04416
G1 X129.145 Y89.62 E52.07053
G1 X129.887 Y89.166 E52.09947
G1 X130.648 Y88.821 E52.12726
G1 X131.416 Y88.583 E52.154
G1 X131.472 Y88.569 E52.15592
G1 X132.246 Y88.427 E52.18209
G1 X132.383 Y88.415 E52.18666
G1 X133.065 Y88.374 E52.20939
G1 X133.15 Y88.374 E52.21222
G1 X133.926 Y88.422 E52.23808
G1 X134.641 Y88.555 E52.26226
G1 X135.208 Y88.662 E52.28146
G1 X136.352 Y89.181 E52.32324
G1 X137.062 Y89.609 E52.35081
G1 X137.722 Y90.132 E52.37882
G1 X138.289 Y90.701 E52.40554
G1 X138.837 Y91.407 E52.43526
G1 X139.247 Y92.088 E52.4617
G1 X139.58 Y92.83 E52.48875
G1 X139.838 Y93.655 E52.5175
G1 X139.984 Y94.446 E52.54425
G1 X140.036 Y95.303 E52.57281
G1 X140.036 Y95.343 E52.57414
G1 X139.985 Y96.151 E52.60107
G1 X139.85 Y96.894 E52.62619
G1 X139.832 Y96.969 E52.62875
G1 X139.582 Y97.775 E52.65682
G1 X139.349 Y98.29 E52.67562
G1 X139.233 Y98.543 E52.68488
G1 X138.815 Y99.238 E52.71185
G1 X138.276 Y99.925 E52.74089
G1 X137.755 Y100.444 E52.76535
G1 X137.688 Y100.505 E52.76837
G1 X137.036 Y101.012 E52.79584
G1 X136.323 Y101.445 E52.82358
G1 X135.567 Y101.784 E52.85114
G1 X134.756 Y102.036 E52.87938
G1 X133.945 Y102.182 E52.90679
G1 X133.86 Y102.189 E52.90963
G1 X133.139 Y102.234 E52.93366
G1 X133.083 Y102.234 E52.93552
G1 X132.254 Y102.182 E52.96315
G1 X131.486 Y102.041 E52.98912
G1 X131.4 Y102.021 E52.99205
G1 X130.648 Y101.783 E53.01829
G1 X129.887 Y101.445 E53.04598
G1 X129.174 Y101.012 E53.07373
G1 X128.482 Y100.47 E53.10296
G1 X127.945 Y99.933 E53.12822
G1 X127.875 Y99.848 E53.13188
G1 X127.406 Y99.249 E53.15719
G1 X126.954 Y98.497 E53.18637
G1 X126.63 Y97.777 E53.21263
G1 X126.375 Y96.953 E53.24132
G1 X126.225 Y96.127 E53.26924
G1 X126.214 Y95.987 E53.27391
G1 X126.176 Y95.348 E53.2952
G1 X126.176 Y95.275 E53.29763
G1 X126.222 Y94.537 E53.32222
G1 X126.226 Y94.471 E53.32442
G1 X126.353 Y93.789 E53.3475
G1 X126.447 Y93.276 E53.36484
G1 X126.966 Y92.086 E53.40802
G1 X127.001 Y92.028 E53.41028
G0 F1620 X127.417 Y91.345
G0 F4800 X127.792 Y91.609
G1 F1800 X127.765 Y91.65 E53.41191
G1 X127.371 Y92.301 E53.43722
G1 X127.066 Y92.976 E53.46185
G1 X127.046 Y93.025 E53.46361
G1 X126.969 Y93.281 E53.47251
G1 X126.828 Y93.73 E53.48816
G1 X126.816 Y93.778 E53.4898
G1 X126.681 Y94.512 E53.51463
G1 X126.635 Y95.28 E53.54022
G1 X126.635 Y95.328 E53.54181
G1 X126.682 Y96.104 E53.56767
G1 X126.732 Y96.363 E53.57644
G1 X126.815 Y96.826 E53.59209
G1 X126.827 Y96.874 E53.59373
G1 X127.059 Y97.615 E53.61956
G1 X127.37 Y98.307 E53.64479
G1 X127.773 Y98.973 E53.67068
G1 X128.246 Y99.58 E53.69628
G1 X128.281 Y99.619 E53.69802
G1 X128.462 Y99.797 E53.70646
G1 X128.804 Y100.142 E53.72262
G1 X129.037 Y100.323 E53.73244
G1 X129.411 Y100.618 E53.74828
G1 X129.452 Y100.645 E53.74991
G1 X130.103 Y101.039 E53.77522
G1 X130.778 Y101.344 E53.79986
G1 X130.827 Y101.364 E53.80162
G1 X131.085 Y101.442 E53.81058
G1 X131.532 Y101.582 E53.82616
G1 X131.58 Y101.594 E53.82781
G1 X132.314 Y101.729 E53.85263
G1 X133.082 Y101.775 E53.87822
G1 X133.13 Y101.775 E53.87982
G1 X133.905 Y101.728 E53.90564
G1 X134.171 Y101.677 E53.91465
G1 X134.628 Y101.595 E53.93009
G1 X134.676 Y101.583 E53.93174
G1 X135.417 Y101.351 E53.95756
G1 X136.109 Y101.04 E53.98279
G1 X136.775 Y100.637 E54.00869
G1 X137.382 Y100.164 E54.03428
G1 X137.421 Y100.129 E54.03602
G1 X137.599 Y99.948 E54.04447
G1 X137.944 Y99.606 E54.06062
G1 X138.125 Y99.373 E54.07044
G1 X138.42 Y98.999 E54.08628
G1 X138.447 Y98.958 E54.08791
G1 X138.841 Y98.307 E54.11322
G1 X139.146 Y97.632 E54.13786
G1 X139.166 Y97.583 E54.13962
G1 X139.243 Y97.327 E54.14851
G1 X139.384 Y96.878 E54.16416
G1 X139.396 Y96.83 E54.16581
G1 X139.53 Y96.097 E54.19059
G1 X139.578 Y95.328 E54.21622
G1 X139.578 Y95.277 E54.21792
G1 X139.53 Y94.503 E54.24371
G1 X139.477 Y94.233 E54.25286
G1 X139.397 Y93.782 E54.26809
G1 X139.385 Y93.734 E54.26974
G1 X139.153 Y92.993 E54.29557
G1 X138.842 Y92.301 E54.3208
G1 X138.439 Y91.635 E54.34669
G1 X137.966 Y91.028 E54.37228
G1 X137.93 Y90.988 E54.37407
G1 X137.742 Y90.804 E54.38282
G1 X137.408 Y90.466 E54.39863
G1 X137.172 Y90.283 E54.40856
G1 X136.801 Y89.99 E54.42428
G1 X136.76 Y89.963 E54.42592
G1 X136.109 Y89.569 E54.45123
G1 X135.434 Y89.264 E54.47586
G1 X135.386 Y89.244 E54.47759
G1 X135.126 Y89.166 E54.48662
G1 X134.68 Y89.026 E54.50217
G1 X134.632 Y89.014 E54.50381
G1 X133.899 Y88.879 E54.5286
G1 X133.13 Y88.833 E54.55423
G1 X133.082 Y88.833 E54.55582
G1 X132.305 Y88.88 E54.58171
G1 X132.041 Y88.931 E54.59066
G1 X131.584 Y89.013 E54.6061
G1 X131.536 Y89.025 E54.60774
G1 X130.795 Y89.257 E54.63357
G1 X130.103 Y89.568 E54.6588
G1 X129.437 Y89.971 E54.68469
G1 X128.83 Y90.444 E54.71029
G1 X128.791 Y90.479 E54.71203
G1 X128.613 Y90.66 E54.72048
G1 X128.288 Y90.982 E54.73569
G0 F1620 X128.268 Y91.002
G0 X128.087 Y91.235
G0 X127.792 Y91.609
G1 F1500 E44.73569
G0 F4800 X126.662 Y90.923
G0 X126.199 Y91.684
G0 X125.614 Y93.026
G0 X125.358 Y94.507
G0 X125.322 Y95.213
G0 X127.432 Y129.976
G0 X127.96 Y130.664
G1 F1500 E54.73569
G1 F1800 X127.671 Y131.15 E54.7545
G1 X127.647 Y131.198 E54.75628
G1 X127.313 Y131.981 E54.7846
G1 X127.266 Y132.138 E54.79005
G1 X127.097 Y133.031 E54.82028
G1 X127.039 Y133.938 E54.8505
G1 X127.049 Y134.115 E54.8564
G1 X127.162 Y134.877 E54.88202
G1 X127.17 Y134.92 E54.88348
G1 X127.366 Y135.664 E54.90907
G1 X127.46 Y135.931 E54.91848
G1 X127.744 Y136.501 E54.93966
G1 X128.138 Y137.148 E54.96486
G1 X128.508 Y137.651 E54.98563
G1 X128.63 Y137.758 E54.99102
G1 X129.097 Y138.205 E55.01253
G1 X129.577 Y138.593 E55.03305
G1 X129.835 Y138.776 E55.04357
G1 X130.065 Y138.917 E55.05255
G1 X130.527 Y139.152 E55.06979
G1 X130.882 Y139.304 E55.08263
G1 X130.882 Y139.312 E55.0829
G1 X131.418 Y139.503 E55.10182
G1 X131.837 Y139.625 E55.11634
G1 X132.244 Y139.713 E55.13019
G1 X132.635 Y139.775 E55.14335
G1 X133.007 Y139.811 E55.15578
G1 X133.405 Y139.822 E55.16903
G1 X133.805 Y139.81 E55.18234
G1 X133.843 Y139.804 E55.18362
G1 X134.191 Y139.772 E55.19524
G1 X134.592 Y139.709 E55.20874
G1 X134.975 Y139.625 E55.22178
G1 X135.399 Y139.502 E55.23647
G1 X135.802 Y139.357 E55.25071
G1 X136.285 Y139.152 E55.26816
G1 X136.305 Y139.14 E55.26894
G1 X136.76 Y138.909 E55.28591
G1 X136.943 Y138.797 E55.29305
G1 X137.249 Y138.584 E55.30545
G1 X137.719 Y138.199 E55.32565
G1 X137.883 Y138.041 E55.33323
G1 X138.182 Y137.759 E55.3469
G1 X138.426 Y137.486 E55.35908
G1 X138.681 Y137.138 E55.37343
G1 X139.071 Y136.495 E55.39844
G1 X139.358 Y135.914 E55.41999
G1 X139.441 Y135.687 E55.42803
G1 X139.641 Y134.922 E55.45433
G1 X139.649 Y134.879 E55.45579
G1 X139.765 Y134.092 E55.48224
G1 X139.773 Y133.932 E55.48757
G1 X139.714 Y133.022 E55.5179
G1 X139.545 Y132.133 E55.548
G1 X139.488 Y131.96 E55.55406
G1 X139.165 Y131.193 E55.58174
G1 X139.138 Y131.144 E55.5836
G1 X138.83 Y130.628 E55.60359
G1 X139.09 Y130.882 E55.61568
G1 X139.239 Y131.136 E55.62547
G1 X139.484 Y131.614 E55.64334
G1 X140 Y133.056 E55.69427
G1 X140.161 Y133.382 E55.70637
G1 X140.216 Y133.952 E55.72541
G1 X140.396 Y134.303 E55.73853
G1 X140.373 Y135.255 E55.77021
G1 X139.999 Y136.426 E55.81109
G1 X140.044 Y136.804 E55.82375
G1 X139.81 Y137.329 E55.84287
G1 X139.791 Y137.726 E55.85609
G1 X139.41 Y138.388 E55.88149
G1 X139.049 Y138.758 E55.89869
G1 X138.16 Y139.871 E55.94607
G1 X137.426 Y140.379 E55.97576
G1 X136.513 Y140.947 E56.01152
G1 X136.158 Y141.194 E56.0259
G1 X135.809 Y141.308 E56.03811
G1 X135.499 Y141.406 E56.04893
G1 X134.818 Y141.558 E56.07214
G1 X133.408 Y141.741 E56.11943
G1 X131.999 Y141.56 E56.16667
G1 X131.218 Y141.376 E56.19336
G1 X130.971 Y141.298 E56.20198
G1 X130.645 Y141.189 E56.21341
G1 X130.459 Y141.119 E56.22002
G1 X129.09 Y140.171 E56.2754
G1 X128.861 Y139.889 E56.28749
G1 X127.735 Y138.737 E56.34107
G1 X127.256 Y138.124 E56.36694
G1 X127.225 Y138.074 E56.3689
G1 X127.029 Y137.724 E56.38224
G1 X127.009 Y137.341 E56.39499
G1 X126.783 Y136.834 E56.41346
G1 X126.827 Y136.455 E56.42615
G1 X126.439 Y135.251 E56.46822
G1 X126.42 Y134.289 E56.50022
G1 X126.596 Y133.946 E56.51305
G1 X126.653 Y133.381 E56.53193
G1 X126.826 Y133.027 E56.54504
G1 X127.319 Y131.639 E56.59403
G1 X127.385 Y131.488 E56.59951
G1 X127.485 Y131.296 E56.60671
G0 F1620 X127.549 Y131.173
G0 X127.726 Y130.875
G0 X127.96 Y130.664
G1 F1500 E46.60671
G0 F4800 X127.382 Y130.022
G0 X127.051 Y130.32
G0 X126.53 Y131.281
G0 X125.809 Y133.14
G0 X125.553 Y134.089
G0 X125.578 Y135.393
G0 X125.866 Y136.811
G0 X126.155 Y137.545
G0 X128 Y137.568
G1 F1500 E56.60671
G1 F1800 X127.839 Y137.348 E56.61578
G1 X127.429 Y136.676 E56.64196
G1 X127.127 Y136.071 E56.66445
G1 X127.022 Y135.77 E56.67505
G1 X126.819 Y134.999 E56.70157
G1 X126.807 Y134.936 E56.7037
G1 X126.79 Y134.824 E56.70747
G1 X126.798 Y135.193 E56.71975
G1 X127.194 Y136.419 E56.7626
G1 X127.152 Y136.778 E56.77462
G1 X127.365 Y137.255 E56.79199
G1 X127.385 Y137.622 E56.80422
G1 X127.548 Y137.912 E56.81528
G1 X128 Y138.49 E56.83969
G1 X128 Y137.568 E56.87035
G1 X128.241 Y137.896 E56.88389
G1 X128.388 Y138.023 E56.89035
G1 X128.387 Y138.024
G1 X128.859 Y138.475 E56.91207
G1 X129.359 Y138.88 E56.93347
G1 X129.637 Y139.076 E56.94478
G1 X129.889 Y139.232 E56.95464
G1 X130 Y139.289 E56.95879
G1 X130 Y140.362 E56.99448
G1 X130.629 Y140.798 E57.01993
G1 X130.759 Y140.847 E57.02455
G1 X131.079 Y140.954 E57.03577
G1 X131.312 Y141.027 E57.0439
G1 X132 Y141.189 E57.0674
